N00000 (.../pcb-gcode-3.6.2.4/pcb-gcode.ulp)
N00010 (Copyright 2005 - 2012 by John Johnson)
N00020 (See readme.txt for licensing terms.)
N00030 (This file generated from the board:)
N00040 (.../RotaryEncoder/RotaryEncoder.brd)
N00050 (Current profile is .../pcb-gcode-3.6.2.4/profiles/emc.pp  )
N00060 (This file generated 9/18/2016 7:03:42 PM)
N00070 (Settings from pcb-machine.h)
N00080 (spindle on time = 3.0000)
N00090 (spindle speed = 20000.0000)
N00100 (tool change at 0.0000 0.0000 25.4000 )
N00110 (feed rate xy = F0.00  )
N00120 (feed rate z  = F508.00 )
N00130 (Z Axis Settings)
N00140 (  High     Up        Down     Drill)
N00150 (12.0000 	3.0000 	-0.1000 	-3.8128 )
N00160 (Settings from pcb-defaults.h)
N00170 (isolate min = 0.0025)
N00180 (isolate max = 0.2540)
N00190 (isolate step = 0.1270)
N00200 (Generated top outlines, top drill, bottom outlines, bottom drill, )
N00210 (Unit of measure: mm)
N00220 ( Tool|       Size       |  Min Sub |  Max Sub |   Count )
N00230 ( T01 | 0.600mm 0.0236in | 0.0000in | 0.0000in |       0 )
N00240 ( T02 | 0.813mm 0.0320in | 0.0000in | 0.0000in |       0 )
N00250 ( T03 | 0.914mm 0.0360in | 0.0000in | 0.0000in |       0 )
N00260 ( T04 | 1.016mm 0.0400in | 0.0000in | 0.0000in |       0 )
N00270 ( T05 | 3.200mm 0.1260in | 0.0000in | 0.0000in |       0 )
N00280 (Metric Mode)
N00290 G21
N00300 (Absolute Coordinates)
N00310 G90
N00320 S20000
N00330 G00 Z12.0000 
N00340 G00 X0.0000 Y0.0000 
N00350 M03
N00360 G04 P3.000000
N00370 M05
N00380 G00 Z25.4000 
N00390 M06 T01 (0.6000 )
N00400 G00 Z3.0000 
N00410 M03
N00420 G04 P3.000000
N00430 G00 X-12.7000 Y43.1800 
N00440 G01 Z-3.8128 F508.00 
N00450 G00 Z3.0000 
N00460 G00 X-27.9400 Y43.1800 
N00470 G01 Z-3.8128 F508.00 
N00480 G00 Z3.0000 
N00490 G00 X-30.4800 Y43.1800 
N00500 G01 Z-3.8128 F508.00 
N00510 G00 Z3.0000 
N00520 G00 X-43.1800 Y50.8000 
N00530 G01 Z-3.8128 F508.00 
N00540 G00 Z3.0000 
N00550 G00 X-45.7200 Y43.1800 
N00560 G01 Z-3.8128 F508.00 
N00570 G00 Z3.0000 
N00580 G00 X-54.6100 Y43.1800 
N00590 G01 Z-3.8128 F508.00 
N00600 G00 Z3.0000 
N00610 G00 X-57.1500 Y48.2600 
N00620 G01 Z-3.8128 F508.00 
N00630 G00 Z3.0000 
N00640 G00 X-68.5800 Y43.1800 
N00650 G01 Z-3.8128 F508.00 
N00660 G00 Z3.0000 
N00670 G00 X-73.6600 Y43.1800 
N00680 G01 Z-3.8128 F508.00 
N00690 G00 Z3.0000 
N00700 G00 X-88.9000 Y43.1800 
N00710 G01 Z-3.8128 F508.00 
N00720 G00 Z3.0000 
N00730 G00 X-57.1500 Y66.0400 
N00740 G01 Z-3.8128 F508.00 
N00750 G00 Z3.0000 
N00760 G00 X-43.1800 Y66.0400 
N00770 G01 Z-3.8128 F508.00 
N00780 G00 Z3.0000 
N00790 G00 X-43.1800 Y29.2100 
N00800 G01 Z-3.8128 F508.00 
N00810 G00 Z3.0000 
N00820 G00 X-43.1800 Y24.1300 
N00830 G01 Z-3.8128 F508.00 
N00840 G00 Z3.0000 
N00850 G00 X-44.4500 Y17.7800 
N00860 G01 Z-3.8128 F508.00 
N00870 G00 Z3.0000 
N00880 G00 X-55.8800 Y17.7800 
N00890 G01 Z-3.8128 F508.00 
N00900 G00 Z3.0000 
N00910 G00 X-55.8800 Y3.8100 
N00920 G01 Z-3.8128 F508.00 
N00930 G00 Z3.0000 
N00940 G00 X-44.4500 Y3.8100 
N00950 G01 Z-3.8128 F508.00 
N00960 G00 Z3.0000 
N00970 M05
N00980 G00 Z25.4000 
N00990 G00 X0.0000 Y0.0000 
N01000 M06 T02 (0.8128 )
N01010 G00 Z3.0000 
N01020 M03
N01030 G04 P3.000000
N01040 G00 X-32.3850 Y12.7000 
N01050 G01 Z-3.8128 F508.00 
N01060 G00 Z3.0000 
N01070 G00 X-32.3850 Y15.2400 
N01080 G01 Z-3.8128 F508.00 
N01090 G00 Z3.0000 
N01100 G00 X-32.3850 Y20.3200 
N01110 G01 Z-3.8128 F508.00 
N01120 G00 Z3.0000 
N01130 G00 X-32.3850 Y22.8600 
N01140 G01 Z-3.8128 F508.00 
N01150 G00 Z3.0000 
N01160 G00 X-32.3850 Y27.9400 
N01170 G01 Z-3.8128 F508.00 
N01180 G00 Z3.0000 
N01190 G00 X-32.3850 Y30.4800 
N01200 G01 Z-3.8128 F508.00 
N01210 G00 Z3.0000 
N01220 G00 X-46.3550 Y29.2100 
N01230 G01 Z-3.8128 F508.00 
N01240 G00 Z3.0000 
N01250 G00 X-46.3550 Y26.6700 
N01260 G01 Z-3.8128 F508.00 
N01270 G00 Z3.0000 
N01280 G00 X-46.3550 Y24.1300 
N01290 G01 Z-3.8128 F508.00 
N01300 G00 Z3.0000 
N01310 G00 X-46.3550 Y21.5900 
N01320 G01 Z-3.8128 F508.00 
N01330 G00 Z3.0000 
N01340 G00 X-53.9750 Y21.5900 
N01350 G01 Z-3.8128 F508.00 
N01360 G00 Z3.0000 
N01370 G00 X-53.9750 Y24.1300 
N01380 G01 Z-3.8128 F508.00 
N01390 G00 Z3.0000 
N01400 G00 X-53.9750 Y26.6700 
N01410 G01 Z-3.8128 F508.00 
N01420 G00 Z3.0000 
N01430 G00 X-53.9750 Y29.2100 
N01440 G01 Z-3.8128 F508.00 
N01450 G00 Z3.0000 
N01460 G00 X-53.9750 Y31.7500 
N01470 G01 Z-3.8128 F508.00 
N01480 G00 Z3.0000 
N01490 G00 X-53.9750 Y34.2900 
N01500 G01 Z-3.8128 F508.00 
N01510 G00 Z3.0000 
N01520 G00 X-53.9750 Y36.8300 
N01530 G01 Z-3.8128 F508.00 
N01540 G00 Z3.0000 
N01550 G00 X-46.3550 Y36.8300 
N01560 G01 Z-3.8128 F508.00 
N01570 G00 Z3.0000 
N01580 G00 X-46.3550 Y34.2900 
N01590 G01 Z-3.8128 F508.00 
N01600 G00 Z3.0000 
N01610 G00 X-46.3550 Y31.7500 
N01620 G01 Z-3.8128 F508.00 
N01630 G00 Z3.0000 
N01640 G00 X-46.3550 Y45.7200 
N01650 G01 Z-3.8128 F508.00 
N01660 G00 Z3.0000 
N01670 G00 X-46.3550 Y48.2600 
N01680 G01 Z-3.8128 F508.00 
N01690 G00 Z3.0000 
N01700 G00 X-46.3550 Y50.8000 
N01710 G01 Z-3.8128 F508.00 
N01720 G00 Z3.0000 
N01730 G00 X-46.3550 Y53.3400 
N01740 G01 Z-3.8128 F508.00 
N01750 G00 Z3.0000 
N01760 G00 X-46.3550 Y55.8800 
N01770 G01 Z-3.8128 F508.00 
N01780 G00 Z3.0000 
N01790 G00 X-46.3550 Y58.4200 
N01800 G01 Z-3.8128 F508.00 
N01810 G00 Z3.0000 
N01820 G00 X-46.3550 Y60.9600 
N01830 G01 Z-3.8128 F508.00 
N01840 G00 Z3.0000 
N01850 G00 X-53.9750 Y60.9600 
N01860 G01 Z-3.8128 F508.00 
N01870 G00 Z3.0000 
N01880 G00 X-53.9750 Y58.4200 
N01890 G01 Z-3.8128 F508.00 
N01900 G00 Z3.0000 
N01910 G00 X-53.9750 Y55.8800 
N01920 G01 Z-3.8128 F508.00 
N01930 G00 Z3.0000 
N01940 G00 X-53.9750 Y53.3400 
N01950 G01 Z-3.8128 F508.00 
N01960 G00 Z3.0000 
N01970 G00 X-53.9750 Y50.8000 
N01980 G01 Z-3.8128 F508.00 
N01990 G00 Z3.0000 
N02000 G00 X-53.9750 Y48.2600 
N02010 G01 Z-3.8128 F508.00 
N02020 G00 Z3.0000 
N02030 G00 X-53.9750 Y45.7200 
N02040 G01 Z-3.8128 F508.00 
N02050 G00 Z3.0000 
N02060 G00 X-67.9450 Y30.4800 
N02070 G01 Z-3.8128 F508.00 
N02080 G00 Z3.0000 
N02090 G00 X-67.9450 Y27.9400 
N02100 G01 Z-3.8128 F508.00 
N02110 G00 Z3.0000 
N02120 G00 X-67.9450 Y22.8600 
N02130 G01 Z-3.8128 F508.00 
N02140 G00 Z3.0000 
N02150 G00 X-67.9450 Y20.3200 
N02160 G01 Z-3.8128 F508.00 
N02170 G00 Z3.0000 
N02180 G00 X-67.9450 Y15.2400 
N02190 G01 Z-3.8128 F508.00 
N02200 G00 Z3.0000 
N02210 G00 X-67.9450 Y12.7000 
N02220 G01 Z-3.8128 F508.00 
N02230 G00 Z3.0000 
N02240 M05
N02250 G00 Z25.4000 
N02260 G00 X0.0000 Y0.0000 
N02270 M06 T03 (0.9144 )
N02280 G00 Z3.0000 
N02290 M03
N02300 G04 P3.000000
N02310 G00 X-12.0650 Y15.2400 
N02320 G01 Z-3.8128 F508.00 
N02330 G00 Z3.0000 
N02340 G00 X-12.0650 Y22.8600 
N02350 G01 Z-3.8128 F508.00 
N02360 G00 Z3.0000 
N02370 G00 X-12.0650 Y30.4800 
N02380 G01 Z-3.8128 F508.00 
N02390 G00 Z3.0000 
N02400 G00 X-27.3050 Y30.4800 
N02410 G01 Z-3.8128 F508.00 
N02420 G00 Z3.0000 
N02430 G00 X-27.3050 Y22.8600 
N02440 G01 Z-3.8128 F508.00 
N02450 G00 Z3.0000 
N02460 G00 X-27.3050 Y15.2400 
N02470 G01 Z-3.8128 F508.00 
N02480 G00 Z3.0000 
N02490 G00 X-50.1650 Y11.4300 
N02500 G01 Z-3.8128 F508.00 
N02510 G00 Z3.0000 
N02520 G00 X-50.1650 Y3.8100 
N02530 G01 Z-3.8128 F508.00 
N02540 G00 Z3.0000 
N02550 G00 X-73.0250 Y15.2400 
N02560 G01 Z-3.8128 F508.00 
N02570 G00 Z3.0000 
N02580 G00 X-73.0250 Y22.8600 
N02590 G01 Z-3.8128 F508.00 
N02600 G00 Z3.0000 
N02610 G00 X-73.0250 Y30.4800 
N02620 G01 Z-3.8128 F508.00 
N02630 G00 Z3.0000 
N02640 G00 X-88.2650 Y30.4800 
N02650 G01 Z-3.8128 F508.00 
N02660 G00 Z3.0000 
N02670 G00 X-88.2650 Y22.8600 
N02680 G01 Z-3.8128 F508.00 
N02690 G00 Z3.0000 
N02700 G00 X-88.2650 Y15.2400 
N02710 G01 Z-3.8128 F508.00 
N02720 G00 Z3.0000 
N02730 G00 X-76.8350 Y53.3400 
N02740 G01 Z-3.8128 F508.00 
N02750 G00 Z3.0000 
N02760 G00 X-81.9150 Y57.1500 
N02770 G01 Z-3.8128 F508.00 
N02780 G00 Z3.0000 
N02790 G00 X-76.8350 Y62.2300 
N02800 G01 Z-3.8128 F508.00 
N02810 G00 Z3.0000 
N02820 G00 X-81.9150 Y66.0400 
N02830 G01 Z-3.8128 F508.00 
N02840 G00 Z3.0000 
N02850 G00 X-76.8350 Y71.1200 
N02860 G01 Z-3.8128 F508.00 
N02870 G00 Z3.0000 
N02880 G00 X-81.9150 Y74.9300 
N02890 G01 Z-3.8128 F508.00 
N02900 G00 Z3.0000 
N02910 G00 X-69.2150 Y71.1200 
N02920 G01 Z-3.8128 F508.00 
N02930 G00 Z3.0000 
N02940 G00 X-66.6750 Y74.9300 
N02950 G01 Z-3.8128 F508.00 
N02960 G00 Z3.0000 
N02970 G00 X-66.6750 Y66.0400 
N02980 G01 Z-3.8128 F508.00 
N02990 G00 Z3.0000 
N03000 G00 X-69.2150 Y62.2300 
N03010 G01 Z-3.8128 F508.00 
N03020 G00 Z3.0000 
N03030 G00 X-66.6750 Y57.1500 
N03040 G01 Z-3.8128 F508.00 
N03050 G00 Z3.0000 
N03060 G00 X-69.2150 Y53.3400 
N03070 G01 Z-3.8128 F508.00 
N03080 G00 Z3.0000 
N03090 G00 X-33.6550 Y57.1500 
N03100 G01 Z-3.8128 F508.00 
N03110 G00 Z3.0000 
N03120 G00 X-31.1150 Y53.3400 
N03130 G01 Z-3.8128 F508.00 
N03140 G00 Z3.0000 
N03150 G00 X-23.4950 Y53.3400 
N03160 G01 Z-3.8128 F508.00 
N03170 G00 Z3.0000 
N03180 G00 X-18.4150 Y57.1500 
N03190 G01 Z-3.8128 F508.00 
N03200 G00 Z3.0000 
N03210 G00 X-23.4950 Y62.2300 
N03220 G01 Z-3.8128 F508.00 
N03230 G00 Z3.0000 
N03240 G00 X-18.4150 Y66.0400 
N03250 G01 Z-3.8128 F508.00 
N03260 G00 Z3.0000 
N03270 G00 X-23.4950 Y71.1200 
N03280 G01 Z-3.8128 F508.00 
N03290 G00 Z3.0000 
N03300 G00 X-18.4150 Y74.9300 
N03310 G01 Z-3.8128 F508.00 
N03320 G00 Z3.0000 
N03330 G00 X-31.1150 Y71.1200 
N03340 G01 Z-3.8128 F508.00 
N03350 G00 Z3.0000 
N03360 G00 X-33.6550 Y74.9300 
N03370 G01 Z-3.8128 F508.00 
N03380 G00 Z3.0000 
N03390 G00 X-33.6550 Y66.0400 
N03400 G01 Z-3.8128 F508.00 
N03410 G00 Z3.0000 
N03420 G00 X-31.1150 Y62.2300 
N03430 G01 Z-3.8128 F508.00 
N03440 G00 Z3.0000 
N03450 M05
N03460 G00 Z25.4000 
N03470 G00 X0.0000 Y0.0000 
N03480 M06 T04 (1.0160 )
N03490 G00 Z3.0000 
N03500 M03
N03510 G04 P3.000000
N03520 G00 X-40.0050 Y3.8100 
N03530 G01 Z-3.8128 F508.00 
N03540 G00 Z3.0000 
N03550 G00 X-40.0050 Y6.3500 
N03560 G01 Z-3.8128 F508.00 
N03570 G00 Z3.0000 
N03580 G00 X-40.0050 Y8.8900 
N03590 G01 Z-3.8128 F508.00 
N03600 G00 Z3.0000 
N03610 G00 X-40.0050 Y11.4300 
N03620 G01 Z-3.8128 F508.00 
N03630 G00 Z3.0000 
N03640 G00 X-40.0050 Y13.9700 
N03650 G01 Z-3.8128 F508.00 
N03660 G00 Z3.0000 
N03670 G00 X-60.3250 Y13.9700 
N03680 G01 Z-3.8128 F508.00 
N03690 G00 Z3.0000 
N03700 G00 X-60.3250 Y11.4300 
N03710 G01 Z-3.8128 F508.00 
N03720 G00 Z3.0000 
N03730 G00 X-60.3250 Y8.8900 
N03740 G01 Z-3.8128 F508.00 
N03750 G00 Z3.0000 
N03760 G00 X-60.3250 Y6.3500 
N03770 G01 Z-3.8128 F508.00 
N03780 G00 Z3.0000 
N03790 G00 X-60.3250 Y3.8100 
N03800 G01 Z-3.8128 F508.00 
N03810 G00 Z3.0000 
N03820 G00 X-60.3250 Y58.4200 
N03830 G01 Z-3.8128 F508.00 
N03840 G00 Z3.0000 
N03850 G00 X-60.3250 Y60.9600 
N03860 G01 Z-3.8128 F508.00 
N03870 G00 Z3.0000 
N03880 G00 X-60.3250 Y63.5000 
N03890 G01 Z-3.8128 F508.00 
N03900 G00 Z3.0000 
N03910 G00 X-60.3250 Y66.0400 
N03920 G01 Z-3.8128 F508.00 
N03930 G00 Z3.0000 
N03940 G00 X-60.3250 Y68.5800 
N03950 G01 Z-3.8128 F508.00 
N03960 G00 Z3.0000 
N03970 G00 X-40.0050 Y68.5800 
N03980 G01 Z-3.8128 F508.00 
N03990 G00 Z3.0000 
N04000 G00 X-40.0050 Y66.0400 
N04010 G01 Z-3.8128 F508.00 
N04020 G00 Z3.0000 
N04030 G00 X-40.0050 Y63.5000 
N04040 G01 Z-3.8128 F508.00 
N04050 G00 Z3.0000 
N04060 G00 X-40.0050 Y60.9600 
N04070 G01 Z-3.8128 F508.00 
N04080 G00 Z3.0000 
N04090 G00 X-40.0050 Y58.4200 
N04100 G01 Z-3.8128 F508.00 
N04110 G00 Z3.0000 
N04120 M05
N04130 G00 Z25.4000 
N04140 G00 X0.0000 Y0.0000 
N04150 M06 T05 (3.2000 )
N04160 G00 Z3.0000 
N04170 M03
N04180 G04 P3.000000
N04190 G00 X-7.6200 Y7.6200 
N04200 G01 Z-3.8128 F508.00 
N04210 G00 Z3.0000 
N04220 G00 X-7.6200 Y72.3900 
N04230 G01 Z-3.8128 F508.00 
N04240 G00 Z3.0000 
N04250 G00 X-92.7100 Y72.3900 
N04260 G01 Z-3.8128 F508.00 
N04270 G00 Z3.0000 
N04280 G00 X-92.7100 Y7.6200 
N04290 G01 Z-3.8128 F508.00 
N04300 G00 Z3.0000 
N04310 T01 
N04320 G00 Z12.0000 
N04330 M05
N04340 M02
