N00000 (.../pcb-gcode-3.6.2.4/pcb-gcode.ulp)
N00010 (Copyright 2005 - 2012 by John Johnson)
N00020 (See readme.txt for licensing terms.)
N00030 (This file generated from the board:)
N00040 (.../RotaryEncoder/RotaryEncoder.brd)
N00050 (Current profile is .../pcb-gcode-3.6.2.4/profiles/emc.pp  )
N00060 (This file generated 9/18/2016 7:02:13 PM)
N00070 (Settings from pcb-machine.h)
N00080 (spindle on time = 3.0000)
N00090 (  Tool Size)
N00100 (0.1778 )
N00110 (spindle speed = 30000.0000)
N00120 (tool change at 0.0000 0.0000 25.4000 )
N00130 (feed rate xy = F508.00 )
N00140 (feed rate z  = F254.00 )
N00150 (Z Axis Settings)
N00160 (  High     Up        Down     Drill)
N00170 (12.0000 	3.0000 	-0.1000 	-3.8128 )
N00180 (Settings from pcb-defaults.h)
N00190 (isolate min = 0.0025)
N00200 (isolate max = 0.2540)
N00210 (isolate step = 0.1270)
N00220 (Generated top outlines, top drill, bottom outlines, bottom drill, )
N00230 (Unit of measure: mm)
N00240 (Metric Mode)
N00250 G21
N00260 (Absolute Coordinates)
N00270 G90
N00280 S30000
N00290 G00 Z12.0000 
N00300 G00 X0.0000 Y0.0000 
N00310 M03
N00320 G04 P3.000000
N00330 G00 Z3.0000 
N00340 G00 X-0.9578 Y1.0193 
N00350 G01 Z-0.1000 F254.00 
N00360 G01 X-1.0193 Y0.9578 F508.00 
N00370 G01 X-1.0995 Y0.9246 
N00380 G01 X-98.9005 Y0.9246 
N00390 G01 X-98.9807 Y0.9578 
N00400 G01 X-99.0422 Y1.0193 
N00410 G01 X-99.0754 Y1.0995 
N00420 G01 X-99.0754 Y78.9005 
N00430 G01 X-99.0422 Y78.9807 
N00440 G01 X-98.9807 Y79.0422 
N00450 G01 X-98.9005 Y79.0754 
N00460 G01 X-98.8135 Y79.0754 
N00470 G01 X-1.0995 Y79.0754 
N00480 G01 X-1.0193 Y79.0422 
N00490 G01 X-0.9578 Y78.9807 
N00500 G01 X-0.9246 Y78.9005 
N00510 G01 X-0.9246 Y1.0995 
N00520 G01 X-0.9578 Y1.0193 
N00530 G00 Z3.0000 
N00540 G00 X-6.0699 Y5.5998 
N00550 G01 Z-0.1000 F254.00 
N00560 G01 X-5.5998 Y6.0699 F508.00 
N00570 G01 X-5.2675 Y6.6456 
N00580 G01 X-5.0954 Y7.2876 
N00590 G01 X-5.0954 Y7.9524 
N00600 G01 X-5.2675 Y8.5944 
N00610 G01 X-5.5998 Y9.1701 
N00620 G01 X-6.0699 Y9.6401 
N00630 G01 X-6.6456 Y9.9725 
N00640 G01 X-7.2876 Y10.1446 
N00650 G01 X-7.9524 Y10.1446 
N00660 G01 X-8.5944 Y9.9725 
N00670 G01 X-9.1701 Y9.6401 
N00680 G01 X-9.6401 Y9.1701 
N00690 G01 X-9.9725 Y8.5944 
N00700 G01 X-10.1446 Y7.9524 
N00710 G01 X-10.1446 Y7.2876 
N00720 G01 X-9.9725 Y6.6455 
N00730 G01 X-9.6401 Y6.0699 
N00740 G01 X-9.1701 Y5.5998 
N00750 G01 X-8.5945 Y5.2675 
N00760 G01 X-7.9524 Y5.0954 
N00770 G01 X-7.2876 Y5.0954 
N00780 G01 X-6.6456 Y5.2675 
N00790 G01 X-6.0699 Y5.5998 
N00800 G00 Z3.0000 
N00810 G00 X-11.1912 Y14.8781 
N00820 G01 Z-0.1000 F254.00 
N00830 G01 X-11.1912 Y14.9200 F508.00 
N00840 G01 X-11.2624 Y14.9200 
N00850 G01 X-11.2624 Y14.9075 
N00860 G01 X-11.7325 Y14.4374 
N00870 G01 X-11.7450 Y14.4374 
N00880 G01 X-11.7450 Y14.3662 
N00890 G01 X-11.7031 Y14.3662 
N00900 G01 X-11.1912 Y14.8781 
N00910 G00 Z3.0000 
N00920 G00 X-11.1912 Y15.5600 
N00930 G01 Z-0.1000 F254.00 
N00940 G01 X-11.1912 Y15.6019 F508.00 
N00950 G01 X-11.7031 Y16.1138 
N00960 G01 X-11.7450 Y16.1138 
N00970 G01 X-11.7450 Y16.0426 
N00980 G01 X-11.7325 Y16.0426 
N00990 G01 X-11.2624 Y15.5725 
N01000 G01 X-11.2624 Y15.5600 
N01010 G01 X-11.1912 Y15.5600 
N01020 G00 Z3.0000 
N01030 G00 X-12.3850 Y16.0426 
N01040 G01 Z-0.1000 F254.00 
N01050 G01 X-12.3850 Y16.1138 F508.00 
N01060 G01 X-12.4269 Y16.1138 
N01070 G01 X-12.9388 Y15.6019 
N01080 G01 X-12.9388 Y15.5600 
N01090 G01 X-12.8676 Y15.5600 
N01100 G01 X-12.8676 Y15.5725 
N01110 G01 X-12.3975 Y16.0426 
N01120 G01 X-12.3850 Y16.0426 
N01130 G00 Z3.0000 
N01140 G00 X-12.3850 Y14.4374 
N01150 G01 Z-0.1000 F254.00 
N01160 G01 X-12.3975 Y14.4374 F508.00 
N01170 G01 X-12.8676 Y14.9075 
N01180 G01 X-12.8676 Y14.9200 
N01190 G01 X-12.9388 Y14.9200 
N01200 G01 X-12.9388 Y14.8781 
N01210 G01 X-12.4269 Y14.3662 
N01220 G01 X-12.3850 Y14.3662 
N01230 G01 X-12.3850 Y14.4374 
N01240 G00 Z3.0000 
N01250 G00 X-12.3850 Y21.9862 
N01260 G01 Z-0.1000 F254.00 
N01270 G01 X-12.3850 Y22.0574 F508.00 
N01280 G01 X-12.3975 Y22.0574 
N01290 G01 X-12.8676 Y22.5275 
N01300 G01 X-12.8676 Y22.5400 
N01310 G01 X-12.9388 Y22.5400 
N01320 G01 X-12.9388 Y22.4981 
N01330 G01 X-12.4269 Y21.9862 
N01340 G01 X-12.3850 Y21.9862 
N01350 G00 Z3.0000 
N01360 G00 X-11.7450 Y21.9862 
N01370 G01 Z-0.1000 F254.00 
N01380 G01 X-11.7031 Y21.9862 F508.00 
N01390 G01 X-11.1912 Y22.4981 
N01400 G01 X-11.1912 Y22.5400 
N01410 G01 X-11.2624 Y22.5400 
N01420 G01 X-11.2624 Y22.5275 
N01430 G01 X-11.7325 Y22.0574 
N01440 G01 X-11.7450 Y22.0574 
N01450 G01 X-11.7450 Y21.9862 
N01460 G00 Z3.0000 
N01470 G00 X-11.2624 Y23.1800 
N01480 G01 Z-0.1000 F254.00 
N01490 G01 X-11.1912 Y23.1800 F508.00 
N01500 G01 X-11.1912 Y23.2219 
N01510 G01 X-11.7031 Y23.7338 
N01520 G01 X-11.7450 Y23.7338 
N01530 G01 X-11.7450 Y23.6626 
N01540 G01 X-11.7325 Y23.6626 
N01550 G01 X-11.2624 Y23.1925 
N01560 G01 X-11.2624 Y23.1800 
N01570 G00 Z3.0000 
N01580 G00 X-12.3850 Y23.6626 
N01590 G01 Z-0.1000 F254.00 
N01600 G01 X-12.3850 Y23.7338 F508.00 
N01610 G01 X-12.4269 Y23.7338 
N01620 G01 X-12.9388 Y23.2219 
N01630 G01 X-12.9388 Y23.1800 
N01640 G01 X-12.8676 Y23.1800 
N01650 G01 X-12.8676 Y23.1925 
N01660 G01 X-12.3975 Y23.6626 
N01670 G01 X-12.3850 Y23.6626 
N01680 G00 Z3.0000 
N01690 G00 X-12.3850 Y29.6062 
N01700 G01 Z-0.1000 F254.00 
N01710 G01 X-12.3850 Y29.6774 F508.00 
N01720 G01 X-12.3975 Y29.6774 
N01730 G01 X-12.8676 Y30.1475 
N01740 G01 X-12.8676 Y30.1600 
N01750 G01 X-12.9388 Y30.1600 
N01760 G01 X-12.9388 Y30.1181 
N01770 G01 X-12.4269 Y29.6062 
N01780 G01 X-12.3850 Y29.6062 
N01790 G00 Z3.0000 
N01800 G00 X-11.7450 Y29.6062 
N01810 G01 Z-0.1000 F254.00 
N01820 G01 X-11.7031 Y29.6062 F508.00 
N01830 G01 X-11.1912 Y30.1181 
N01840 G01 X-11.1912 Y30.1600 
N01850 G01 X-11.2624 Y30.1600 
N01860 G01 X-11.2624 Y30.1475 
N01870 G01 X-11.7325 Y29.6774 
N01880 G01 X-11.7450 Y29.6774 
N01890 G01 X-11.7450 Y29.6062 
N01900 G00 Z3.0000 
N01910 G00 X-11.2624 Y30.8000 
N01920 G01 Z-0.1000 F254.00 
N01930 G01 X-11.1912 Y30.8000 F508.00 
N01940 G01 X-11.1912 Y30.8419 
N01950 G01 X-11.7031 Y31.3538 
N01960 G01 X-11.7450 Y31.3538 
N01970 G01 X-11.7450 Y31.2826 
N01980 G01 X-11.7325 Y31.2826 
N01990 G01 X-11.2624 Y30.8125 
N02000 G01 X-11.2624 Y30.8000 
N02010 G00 Z3.0000 
N02020 G00 X-12.3850 Y31.2826 
N02030 G01 Z-0.1000 F254.00 
N02040 G01 X-12.3850 Y31.3538 F508.00 
N02050 G01 X-12.4269 Y31.3538 
N02060 G01 X-12.9388 Y30.8419 
N02070 G01 X-12.9388 Y30.8000 
N02080 G01 X-12.8676 Y30.8000 
N02090 G01 X-12.8676 Y30.8125 
N02100 G01 X-12.3975 Y31.2826 
N02110 G01 X-12.3850 Y31.2826 
N02120 G00 Z3.0000 
N02130 G00 X-20.3556 Y34.3490 
N02140 G01 Z-0.1000 F254.00 
N02150 G01 X-20.3556 Y12.6410 F508.00 
N02160 G01 X-20.3786 Y12.5251 
N02170 G01 X-20.4238 Y12.4161 
N02180 G01 X-20.4894 Y12.3179 
N02190 G01 X-24.3829 Y8.4244 
N02200 G01 X-24.4811 Y8.3588 
N02210 G01 X-24.5901 Y8.3136 
N02220 G01 X-24.7060 Y8.2906 
N02230 G01 X-37.0770 Y8.2906 
N02240 G01 X-37.0877 Y8.2696 
N02250 G01 X-37.1972 Y8.1189 
N02260 G01 X-37.3289 Y7.9872 
N02270 G01 X-37.4796 Y7.8777 
N02280 G01 X-37.6456 Y7.7931 
N02290 G01 X-37.8228 Y7.7355 
N02300 G01 X-38.0068 Y7.7064 
N02310 G01 X-42.0032 Y7.7064 
N02320 G01 X-42.1872 Y7.7355 
N02330 G01 X-42.3644 Y7.7931 
N02340 G01 X-42.5304 Y7.8777 
N02350 G01 X-42.6811 Y7.9872 
N02360 G01 X-42.8128 Y8.1189 
N02370 G01 X-42.9223 Y8.2696 
N02380 G01 X-43.0069 Y8.4356 
N02390 G01 X-43.0645 Y8.6128 
N02400 G01 X-43.0936 Y8.7968 
N02410 G01 X-43.0936 Y8.9832 
N02420 G01 X-43.0645 Y9.1672 
N02430 G01 X-43.0069 Y9.3444 
N02440 G01 X-42.9223 Y9.5104 
N02450 G01 X-42.8128 Y9.6611 
N02460 G01 X-42.6811 Y9.7928 
N02470 G01 X-42.5304 Y9.9023 
N02480 G01 X-42.3644 Y9.9869 
N02490 G01 X-42.1872 Y10.0445 
N02500 G01 X-42.0032 Y10.0736 
N02510 G01 X-38.0068 Y10.0736 
N02520 G01 X-37.8228 Y10.0445 
N02530 G01 X-37.6456 Y9.9869 
N02540 G01 X-37.4796 Y9.9023 
N02550 G01 X-37.3289 Y9.7928 
N02560 G01 X-37.1972 Y9.6611 
N02570 G01 X-37.0877 Y9.5104 
N02580 G01 X-37.0770 Y9.4894 
N02590 G01 X-32.9844 Y9.4894 
N02600 G01 X-32.9844 Y11.5164 
N02610 G01 X-33.1132 Y11.5164 
N02620 G01 X-33.2972 Y11.5455 
N02630 G01 X-33.4744 Y11.6031 
N02640 G01 X-33.6404 Y11.6877 
N02650 G01 X-33.7911 Y11.7972 
N02660 G01 X-33.9228 Y11.9289 
N02670 G01 X-34.0323 Y12.0796 
N02680 G01 X-34.1169 Y12.2456 
N02690 G01 X-34.1745 Y12.4228 
N02700 G01 X-34.2036 Y12.6068 
N02710 G01 X-34.2036 Y12.7932 
N02720 G01 X-34.1745 Y12.9772 
N02730 G01 X-34.1169 Y13.1544 
N02740 G01 X-34.0323 Y13.3204 
N02750 G01 X-33.9228 Y13.4711 
N02760 G01 X-33.7911 Y13.6028 
N02770 G01 X-33.6404 Y13.7123 
N02780 G01 X-33.4744 Y13.7969 
N02790 G01 X-33.2972 Y13.8545 
N02800 G01 X-33.1132 Y13.8836 
N02810 G01 X-31.6568 Y13.8836 
N02820 G01 X-31.4728 Y13.8545 
N02830 G01 X-31.2956 Y13.7969 
N02840 G01 X-31.1296 Y13.7123 
N02850 G01 X-30.9789 Y13.6028 
N02860 G01 X-30.8472 Y13.4711 
N02870 G01 X-30.7377 Y13.3204 
N02880 G01 X-30.6531 Y13.1544 
N02890 G01 X-30.5955 Y12.9772 
N02900 G01 X-30.5664 Y12.7932 
N02910 G01 X-30.5664 Y12.6068 
N02920 G01 X-30.5955 Y12.4228 
N02930 G01 X-30.6531 Y12.2456 
N02940 G01 X-30.7377 Y12.0796 
N02950 G01 X-30.8472 Y11.9289 
N02960 G01 X-30.9789 Y11.7972 
N02970 G01 X-31.1296 Y11.6877 
N02980 G01 X-31.2956 Y11.6031 
N02990 G01 X-31.4728 Y11.5455 
N03000 G01 X-31.6568 Y11.5164 
N03010 G01 X-31.7856 Y11.5164 
N03020 G01 X-31.7856 Y9.4894 
N03030 G01 X-25.0133 Y9.4894 
N03040 G01 X-21.5544 Y12.9483 
N03050 G01 X-21.5544 Y34.0417 
N03060 G01 X-23.7433 Y36.2306 
N03070 G01 X-33.7140 Y36.2306 
N03080 G01 X-33.8299 Y36.2536 
N03090 G01 X-33.9389 Y36.2988 
N03100 G01 X-34.0371 Y36.3644 
N03110 G01 X-36.5771 Y38.9044 
N03120 G01 X-36.6606 Y38.9879 
N03130 G01 X-36.7262 Y39.0861 
N03140 G01 X-36.7714 Y39.1951 
N03150 G01 X-36.7944 Y39.3110 
N03160 G01 X-36.7944 Y50.5517 
N03170 G01 X-43.7258 Y57.4831 
N03180 G01 X-43.8296 Y57.4077 
N03190 G01 X-43.9956 Y57.3231 
N03200 G01 X-44.1728 Y57.2655 
N03210 G01 X-44.3568 Y57.2364 
N03220 G01 X-47.0832 Y57.2364 
N03230 G01 X-47.2672 Y57.2655 
N03240 G01 X-47.4444 Y57.3231 
N03250 G01 X-47.6104 Y57.4077 
N03260 G01 X-47.7611 Y57.5172 
N03270 G01 X-47.8928 Y57.6489 
N03280 G01 X-48.0023 Y57.7996 
N03290 G01 X-48.0869 Y57.9656 
N03300 G01 X-48.1445 Y58.1428 
N03310 G01 X-48.1736 Y58.3268 
N03320 G01 X-48.1736 Y58.5132 
N03330 G01 X-48.1445 Y58.6972 
N03340 G01 X-48.0869 Y58.8744 
N03350 G01 X-48.0023 Y59.0404 
N03360 G01 X-47.8928 Y59.1911 
N03370 G01 X-47.7611 Y59.3228 
N03380 G01 X-47.6104 Y59.4323 
N03390 G01 X-47.4444 Y59.5169 
N03400 G01 X-47.2672 Y59.5745 
N03410 G01 X-47.0832 Y59.6036 
N03420 G01 X-44.3568 Y59.6036 
N03430 G01 X-44.1728 Y59.5745 
N03440 G01 X-43.9956 Y59.5169 
N03450 G01 X-43.8296 Y59.4323 
N03460 G01 X-43.6789 Y59.3228 
N03470 G01 X-43.5472 Y59.1911 
N03480 G01 X-43.4377 Y59.0404 
N03490 G01 X-43.3531 Y58.8744 
N03500 G01 X-43.3201 Y58.7728 
N03510 G01 X-35.8129 Y51.2656 
N03520 G01 X-35.7294 Y51.1821 
N03530 G01 X-35.6638 Y51.0839 
N03540 G01 X-35.6186 Y50.9749 
N03550 G01 X-35.5956 Y50.8590 
N03560 G01 X-35.5956 Y39.6183 
N03570 G01 X-33.4067 Y37.4294 
N03580 G01 X-23.4360 Y37.4294 
N03590 G01 X-23.3201 Y37.4064 
N03600 G01 X-23.2111 Y37.3612 
N03610 G01 X-23.1129 Y37.2956 
N03620 G01 X-23.0294 Y37.2121 
N03630 G01 X-20.4894 Y34.6721 
N03640 G01 X-20.4238 Y34.5739 
N03650 G01 X-20.3786 Y34.4648 
N03660 G01 X-20.3556 Y34.3490 
N03670 G00 Z3.0000 
N03680 G00 X-20.3352 Y34.4133 
N03690 G01 Z-0.1000 F254.00 
N03700 G01 X-20.4296 Y34.6411 F508.00 
N03710 G01 X-22.9696 Y37.1811 
N03720 G01 X-23.1439 Y37.3554 
N03730 G01 X-23.3717 Y37.4498 
N03740 G01 X-33.3513 Y37.4498 
N03750 G01 X-33.4315 Y37.4830 
N03760 G01 X-33.4930 Y37.5445 
N03770 G01 X-35.5420 Y39.5935 
N03780 G01 X-35.5752 Y39.6737 
N03790 G01 X-35.5752 Y50.9233 
N03800 G01 X-35.6696 Y51.1511 
N03810 G01 X-35.8439 Y51.3254 
N03820 G01 X-35.9054 Y51.3869 
N03830 G01 X-43.2336 Y58.7151 
N03840 G01 X-43.2941 Y58.7756 
N03850 G01 X-43.4293 Y59.1020 
N03860 G01 X-43.7680 Y59.4407 
N03870 G01 X-43.8426 Y59.4716 
N03880 G01 X-43.9229 Y59.5048 
N03890 G01 X-43.9834 Y59.5653 
N03900 G01 X-44.0034 Y59.6123 
N03910 G01 X-44.0176 Y59.6465 
N03920 G01 X-44.0176 Y59.7335 
N03930 G01 X-43.9843 Y59.8137 
N03940 G01 X-43.9238 Y59.8742 
N03950 G01 X-43.8756 Y59.8947 
N03960 G01 X-43.8426 Y59.9084 
N03970 G01 X-43.7680 Y59.9393 
N03980 G01 X-43.4293 Y60.2780 
N03990 G01 X-43.2460 Y60.7205 
N04000 G01 X-43.2460 Y61.1995 
N04010 G01 X-43.4186 Y61.6160 
N04020 G01 X-43.4186 Y61.7029 
N04030 G01 X-43.3853 Y61.7832 
N04040 G01 X-43.3268 Y61.8418 
N04050 G01 X-42.5083 Y62.6602 
N04060 G01 X-42.4468 Y62.7217 
N04070 G01 X-42.3675 Y62.7546 
N04080 G01 X-42.2796 Y62.7550 
N04090 G01 X-42.1994 Y62.7217 
N04100 G01 X-41.9570 Y62.4793 
N04110 G01 X-41.8824 Y62.4484 
N04120 G01 X-41.8513 Y62.4356 
N04130 G01 X-41.8021 Y62.4152 
N04140 G01 X-41.7407 Y62.3537 
N04150 G01 X-41.7074 Y62.2735 
N04160 G01 X-41.7074 Y62.1865 
N04170 G01 X-41.7208 Y62.1542 
N04180 G01 X-41.7407 Y62.1063 
N04190 G01 X-41.8021 Y62.0448 
N04200 G01 X-41.8824 Y62.0116 
N04210 G01 X-41.9570 Y61.9807 
N04220 G01 X-42.2957 Y61.6420 
N04230 G01 X-42.4790 Y61.1995 
N04240 G01 X-42.4790 Y60.7205 
N04250 G01 X-42.2957 Y60.2780 
N04260 G01 X-41.9570 Y59.9393 
N04270 G01 X-41.5145 Y59.7560 
N04280 G01 X-41.0345 Y59.7560 
N04290 G01 X-41.0085 Y59.7601 
N04300 G01 X-40.9914 Y59.7560 
N04310 G01 X-40.9738 Y59.7560 
N04320 G01 X-40.9496 Y59.7460 
N04330 G01 X-40.9240 Y59.7398 
N04340 G01 X-40.9098 Y59.7295 
N04350 G01 X-40.8936 Y59.7228 
N04360 G01 X-40.8750 Y59.7042 
N04370 G01 X-40.8537 Y59.6888 
N04380 G01 X-40.8445 Y59.6738 
N04390 G01 X-40.8321 Y59.6613 
N04400 G01 X-40.8221 Y59.6371 
N04410 G01 X-40.8083 Y59.6147 
N04420 G01 X-40.8056 Y59.5973 
N04430 G01 X-40.7989 Y59.5810 
N04440 G01 X-40.7989 Y59.5548 
N04450 G01 X-40.7948 Y59.5288 
N04460 G01 X-40.7989 Y59.5117 
N04470 G01 X-40.7989 Y59.4941 
N04480 G01 X-40.8089 Y59.4699 
N04490 G01 X-40.8150 Y59.4443 
N04500 G01 X-40.8254 Y59.4301 
N04510 G01 X-40.8321 Y59.4139 
N04520 G01 X-40.8507 Y59.3953 
N04530 G01 X-40.8661 Y59.3740 
N04540 G01 X-40.8811 Y59.3648 
N04550 G01 X-40.8936 Y59.3524 
N04560 G01 X-40.9178 Y59.3424 
N04570 G01 X-40.9402 Y59.3286 
N04580 G01 X-40.9576 Y59.3259 
N04590 G01 X-40.9738 Y59.3192 
N04600 G01 X-40.9916 Y59.3192 
N04610 G01 X-41.1219 Y59.2768 
N04620 G01 X-41.2516 Y59.2107 
N04630 G01 X-41.3693 Y59.1252 
N04640 G01 X-41.4722 Y59.0223 
N04650 G01 X-41.5577 Y58.9046 
N04660 G01 X-41.6238 Y58.7749 
N04670 G01 X-41.6269 Y58.7654 
N04680 G01 X-41.5477 Y58.7654 
N04690 G01 X-41.5233 Y58.8243 
N04700 G01 X-41.4299 Y58.9640 
N04710 G01 X-41.3110 Y59.0829 
N04720 G01 X-41.1713 Y59.1763 
N04730 G01 X-41.0159 Y59.2406 
N04740 G01 X-40.8511 Y59.2734 
N04750 G01 X-39.1589 Y59.2734 
N04760 G01 X-38.9941 Y59.2406 
N04770 G01 X-38.8387 Y59.1763 
N04780 G01 X-38.6990 Y59.0829 
N04790 G01 X-38.5801 Y58.9640 
N04800 G01 X-38.4867 Y58.8243 
N04810 G01 X-38.4623 Y58.7654 
N04820 G01 X-38.3831 Y58.7654 
N04830 G01 X-38.3862 Y58.7749 
N04840 G01 X-38.4522 Y58.9046 
N04850 G01 X-38.5378 Y59.0223 
N04860 G01 X-38.6407 Y59.1252 
N04870 G01 X-38.7584 Y59.2107 
N04880 G01 X-38.8881 Y59.2768 
N04890 G01 X-39.0184 Y59.3192 
N04900 G01 X-39.0361 Y59.3192 
N04910 G01 X-39.0524 Y59.3259 
N04920 G01 X-39.0698 Y59.3286 
N04930 G01 X-39.0922 Y59.3424 
N04940 G01 X-39.1164 Y59.3524 
N04950 G01 X-39.1289 Y59.3648 
N04960 G01 X-39.1439 Y59.3740 
N04970 G01 X-39.1593 Y59.3953 
N04980 G01 X-39.1779 Y59.4139 
N04990 G01 X-39.1846 Y59.4301 
N05000 G01 X-39.1949 Y59.4443 
N05010 G01 X-39.2011 Y59.4699 
N05020 G01 X-39.2111 Y59.4941 
N05030 G01 X-39.2111 Y59.5117 
N05040 G01 X-39.2152 Y59.5288 
N05050 G01 X-39.2111 Y59.5548 
N05060 G01 X-39.2111 Y59.5810 
N05070 G01 X-39.2044 Y59.5973 
N05080 G01 X-39.2017 Y59.6147 
N05090 G01 X-39.1879 Y59.6371 
N05100 G01 X-39.1779 Y59.6613 
N05110 G01 X-39.1654 Y59.6738 
N05120 G01 X-39.1563 Y59.6888 
N05130 G01 X-39.1350 Y59.7042 
N05140 G01 X-39.1164 Y59.7228 
N05150 G01 X-39.1002 Y59.7295 
N05160 G01 X-39.0860 Y59.7398 
N05170 G01 X-39.0604 Y59.7460 
N05180 G01 X-39.0361 Y59.7560 
N05190 G01 X-39.0186 Y59.7560 
N05200 G01 X-39.0015 Y59.7601 
N05210 G01 X-38.9755 Y59.7560 
N05220 G01 X-38.4955 Y59.7560 
N05230 G01 X-38.0530 Y59.9393 
N05240 G01 X-37.8106 Y60.1817 
N05250 G01 X-37.7304 Y60.2150 
N05260 G01 X-37.6435 Y60.2150 
N05270 G01 X-37.5632 Y60.1817 
N05280 G01 X-37.5017 Y60.1203 
N05290 G01 X-36.8480 Y59.4665 
N05300 G01 X-36.8148 Y59.3863 
N05310 G01 X-36.8148 Y54.4867 
N05320 G01 X-36.7204 Y54.2589 
N05330 G01 X-36.5461 Y54.0846 
N05340 G01 X-31.6404 Y49.1789 
N05350 G01 X-31.4661 Y49.0046 
N05360 G01 X-31.2383 Y48.9102 
N05370 G01 X-19.2097 Y48.9102 
N05380 G01 X-19.1295 Y48.8770 
N05390 G01 X-19.0680 Y48.8155 
N05400 G01 X-19.0348 Y48.7353 
N05410 G01 X-19.0348 Y11.7337 
N05420 G01 X-19.0680 Y11.6534 
N05430 G01 X-19.1295 Y11.5920 
N05440 G01 X-23.7185 Y7.0030 
N05450 G01 X-23.7987 Y6.9698 
N05460 G01 X-36.9701 Y6.9698 
N05470 G01 X-37.0504 Y7.0030 
N05480 G01 X-37.1118 Y7.0645 
N05490 G01 X-37.4180 Y7.3707 
N05500 G01 X-37.4926 Y7.4016 
N05510 G01 X-37.5237 Y7.4144 
N05520 G01 X-37.5729 Y7.4348 
N05530 G01 X-37.6343 Y7.4963 
N05540 G01 X-37.6676 Y7.5765 
N05550 G01 X-37.6676 Y7.6634 
N05560 G01 X-37.6542 Y7.6958 
N05570 G01 X-37.6343 Y7.7437 
N05580 G01 X-37.5729 Y7.8052 
N05590 G01 X-37.4926 Y7.8384 
N05600 G01 X-37.4180 Y7.8693 
N05610 G01 X-37.0504 Y8.2370 
N05620 G01 X-36.9701 Y8.2702 
N05630 G01 X-24.6417 Y8.2702 
N05640 G01 X-24.4139 Y8.3646 
N05650 G01 X-20.4296 Y12.3489 
N05660 G01 X-20.3352 Y12.5767 
N05670 G01 X-20.3352 Y34.4133 
N05680 G00 Z3.0000 
N05690 G00 X-25.8989 Y31.3828 
N05700 G01 Z-0.1000 F254.00 
N05710 G01 X-25.7672 Y31.2511 F508.00 
N05720 G01 X-25.6577 Y31.1004 
N05730 G01 X-25.5731 Y30.9344 
N05740 G01 X-25.5155 Y30.7572 
N05750 G01 X-25.4864 Y30.5732 
N05760 G01 X-25.4864 Y30.3868 
N05770 G01 X-25.5155 Y30.2028 
N05780 G01 X-25.5731 Y30.0256 
N05790 G01 X-25.6577 Y29.8596 
N05800 G01 X-25.7672 Y29.7089 
N05810 G01 X-25.8989 Y29.5772 
N05820 G01 X-26.0496 Y29.4677 
N05830 G01 X-26.2156 Y29.3831 
N05840 G01 X-26.3928 Y29.3255 
N05850 G01 X-26.4640 Y29.3142 
N05860 G01 X-26.5166 Y29.2733 
N05870 G01 X-26.7260 Y29.1600 
N05880 G01 X-26.9511 Y29.0827 
N05890 G01 X-27.1860 Y29.0435 
N05900 G01 X-27.4240 Y29.0435 
N05910 G01 X-27.6589 Y29.0827 
N05920 G01 X-27.8840 Y29.1600 
N05930 G01 X-28.0934 Y29.2733 
N05940 G01 X-28.1460 Y29.3142 
N05950 G01 X-28.2172 Y29.3255 
N05960 G01 X-28.3944 Y29.3831 
N05970 G01 X-28.5604 Y29.4677 
N05980 G01 X-28.7111 Y29.5772 
N05990 G01 X-28.8428 Y29.7089 
N06000 G01 X-28.9523 Y29.8596 
N06010 G01 X-28.9630 Y29.8806 
N06020 G01 X-30.7270 Y29.8806 
N06030 G01 X-30.7377 Y29.8596 
N06040 G01 X-30.8472 Y29.7089 
N06050 G01 X-30.9789 Y29.5772 
N06060 G01 X-31.1296 Y29.4677 
N06070 G01 X-31.2956 Y29.3831 
N06080 G01 X-31.4728 Y29.3255 
N06090 G01 X-31.6568 Y29.2964 
N06100 G01 X-33.1132 Y29.2964 
N06110 G01 X-33.2972 Y29.3255 
N06120 G01 X-33.4744 Y29.3831 
N06130 G01 X-33.6404 Y29.4677 
N06140 G01 X-33.7911 Y29.5772 
N06150 G01 X-33.9228 Y29.7089 
N06160 G01 X-34.0323 Y29.8596 
N06170 G01 X-34.1169 Y30.0256 
N06180 G01 X-34.1745 Y30.2028 
N06190 G01 X-34.2036 Y30.3868 
N06200 G01 X-34.2036 Y30.5732 
N06210 G01 X-34.1745 Y30.7572 
N06220 G01 X-34.1169 Y30.9344 
N06230 G01 X-34.0323 Y31.1004 
N06240 G01 X-33.9228 Y31.2511 
N06250 G01 X-33.7911 Y31.3828 
N06260 G01 X-33.6404 Y31.4923 
N06270 G01 X-33.4744 Y31.5769 
N06280 G01 X-33.2972 Y31.6345 
N06290 G01 X-33.1132 Y31.6636 
N06300 G01 X-31.6568 Y31.6636 
N06310 G01 X-31.4728 Y31.6345 
N06320 G01 X-31.2956 Y31.5769 
N06330 G01 X-31.1296 Y31.4923 
N06340 G01 X-30.9789 Y31.3828 
N06350 G01 X-30.8472 Y31.2511 
N06360 G01 X-30.7377 Y31.1004 
N06370 G01 X-30.7270 Y31.0794 
N06380 G01 X-28.9630 Y31.0794 
N06390 G01 X-28.9523 Y31.1004 
N06400 G01 X-28.8428 Y31.2511 
N06410 G01 X-28.7111 Y31.3828 
N06420 G01 X-28.5604 Y31.4923 
N06430 G01 X-28.3944 Y31.5769 
N06440 G01 X-28.2172 Y31.6345 
N06450 G01 X-28.1460 Y31.6458 
N06460 G01 X-28.0934 Y31.6867 
N06470 G01 X-27.8840 Y31.8000 
N06480 G01 X-27.6589 Y31.8773 
N06490 G01 X-27.4240 Y31.9165 
N06500 G01 X-27.1860 Y31.9165 
N06510 G01 X-26.9511 Y31.8773 
N06520 G01 X-26.7260 Y31.8000 
N06530 G01 X-26.5166 Y31.6867 
N06540 G01 X-26.4640 Y31.6458 
N06550 G01 X-26.3928 Y31.6345 
N06560 G01 X-26.2156 Y31.5769 
N06570 G01 X-26.0496 Y31.4923 
N06580 G01 X-25.8989 Y31.3828 
N06590 G00 Z3.0000 
N06600 G00 X-25.8989 Y23.7628 
N06610 G01 Z-0.1000 F254.00 
N06620 G01 X-25.7672 Y23.6311 F508.00 
N06630 G01 X-25.6577 Y23.4804 
N06640 G01 X-25.5731 Y23.3144 
N06650 G01 X-25.5155 Y23.1372 
N06660 G01 X-25.4864 Y22.9532 
N06670 G01 X-25.4864 Y22.7668 
N06680 G01 X-25.5155 Y22.5828 
N06690 G01 X-25.5731 Y22.4056 
N06700 G01 X-25.6577 Y22.2396 
N06710 G01 X-25.7672 Y22.0889 
N06720 G01 X-25.8989 Y21.9572 
N06730 G01 X-26.0496 Y21.8477 
N06740 G01 X-26.2156 Y21.7631 
N06750 G01 X-26.3928 Y21.7055 
N06760 G01 X-26.4640 Y21.6942 
N06770 G01 X-26.5166 Y21.6533 
N06780 G01 X-26.7260 Y21.5400 
N06790 G01 X-26.9511 Y21.4627 
N06800 G01 X-27.1860 Y21.4235 
N06810 G01 X-27.4240 Y21.4235 
N06820 G01 X-27.6589 Y21.4627 
N06830 G01 X-27.8840 Y21.5400 
N06840 G01 X-28.0934 Y21.6533 
N06850 G01 X-28.1460 Y21.6942 
N06860 G01 X-28.2172 Y21.7055 
N06870 G01 X-28.3944 Y21.7631 
N06880 G01 X-28.5604 Y21.8477 
N06890 G01 X-28.7111 Y21.9572 
N06900 G01 X-28.8428 Y22.0889 
N06910 G01 X-28.9523 Y22.2396 
N06920 G01 X-28.9630 Y22.2606 
N06930 G01 X-30.7270 Y22.2606 
N06940 G01 X-30.7377 Y22.2396 
N06950 G01 X-30.8472 Y22.0889 
N06960 G01 X-30.9789 Y21.9572 
N06970 G01 X-31.1296 Y21.8477 
N06980 G01 X-31.2956 Y21.7631 
N06990 G01 X-31.4728 Y21.7055 
N07000 G01 X-31.6568 Y21.6764 
N07010 G01 X-33.1132 Y21.6764 
N07020 G01 X-33.2972 Y21.7055 
N07030 G01 X-33.4744 Y21.7631 
N07040 G01 X-33.6404 Y21.8477 
N07050 G01 X-33.7911 Y21.9572 
N07060 G01 X-33.9228 Y22.0889 
N07070 G01 X-34.0323 Y22.2396 
N07080 G01 X-34.1169 Y22.4056 
N07090 G01 X-34.1745 Y22.5828 
N07100 G01 X-34.2036 Y22.7668 
N07110 G01 X-34.2036 Y22.9532 
N07120 G01 X-34.1745 Y23.1372 
N07130 G01 X-34.1169 Y23.3144 
N07140 G01 X-34.0323 Y23.4804 
N07150 G01 X-33.9228 Y23.6311 
N07160 G01 X-33.7911 Y23.7628 
N07170 G01 X-33.6404 Y23.8723 
N07180 G01 X-33.4744 Y23.9569 
N07190 G01 X-33.2972 Y24.0145 
N07200 G01 X-33.1132 Y24.0436 
N07210 G01 X-31.6568 Y24.0436 
N07220 G01 X-31.4728 Y24.0145 
N07230 G01 X-31.2956 Y23.9569 
N07240 G01 X-31.1296 Y23.8723 
N07250 G01 X-30.9789 Y23.7628 
N07260 G01 X-30.8472 Y23.6311 
N07270 G01 X-30.7377 Y23.4804 
N07280 G01 X-30.7270 Y23.4594 
N07290 G01 X-28.9630 Y23.4594 
N07300 G01 X-28.9523 Y23.4804 
N07310 G01 X-28.8428 Y23.6311 
N07320 G01 X-28.7111 Y23.7628 
N07330 G01 X-28.5604 Y23.8723 
N07340 G01 X-28.3944 Y23.9569 
N07350 G01 X-28.2172 Y24.0145 
N07360 G01 X-28.1460 Y24.0258 
N07370 G01 X-28.0934 Y24.0667 
N07380 G01 X-27.8840 Y24.1800 
N07390 G01 X-27.6589 Y24.2573 
N07400 G01 X-27.4240 Y24.2965 
N07410 G01 X-27.1860 Y24.2965 
N07420 G01 X-26.9511 Y24.2573 
N07430 G01 X-26.7260 Y24.1800 
N07440 G01 X-26.5166 Y24.0667 
N07450 G01 X-26.4640 Y24.0258 
N07460 G01 X-26.3928 Y24.0145 
N07470 G01 X-26.2156 Y23.9569 
N07480 G01 X-26.0496 Y23.8723 
N07490 G01 X-25.8989 Y23.7628 
N07500 G00 Z3.0000 
N07510 G00 X-25.8989 Y16.1428 
N07520 G01 Z-0.1000 F254.00 
N07530 G01 X-25.7672 Y16.0111 F508.00 
N07540 G01 X-25.6577 Y15.8604 
N07550 G01 X-25.5731 Y15.6944 
N07560 G01 X-25.5155 Y15.5172 
N07570 G01 X-25.4864 Y15.3332 
N07580 G01 X-25.4864 Y15.1468 
N07590 G01 X-25.5155 Y14.9628 
N07600 G01 X-25.5731 Y14.7856 
N07610 G01 X-25.6577 Y14.6196 
N07620 G01 X-25.7672 Y14.4689 
N07630 G01 X-25.8989 Y14.3372 
N07640 G01 X-26.0496 Y14.2277 
N07650 G01 X-26.2156 Y14.1431 
N07660 G01 X-26.3928 Y14.0855 
N07670 G01 X-26.4640 Y14.0742 
N07680 G01 X-26.5166 Y14.0333 
N07690 G01 X-26.7260 Y13.9200 
N07700 G01 X-26.9511 Y13.8427 
N07710 G01 X-27.1860 Y13.8035 
N07720 G01 X-27.4240 Y13.8035 
N07730 G01 X-27.6589 Y13.8427 
N07740 G01 X-27.8840 Y13.9200 
N07750 G01 X-28.0934 Y14.0333 
N07760 G01 X-28.1460 Y14.0742 
N07770 G01 X-28.2172 Y14.0855 
N07780 G01 X-28.3944 Y14.1431 
N07790 G01 X-28.5604 Y14.2277 
N07800 G01 X-28.7111 Y14.3372 
N07810 G01 X-28.8428 Y14.4689 
N07820 G01 X-28.9523 Y14.6196 
N07830 G01 X-28.9630 Y14.6406 
N07840 G01 X-30.7270 Y14.6406 
N07850 G01 X-30.7377 Y14.6196 
N07860 G01 X-30.8472 Y14.4689 
N07870 G01 X-30.9789 Y14.3372 
N07880 G01 X-31.1296 Y14.2277 
N07890 G01 X-31.2956 Y14.1431 
N07900 G01 X-31.4728 Y14.0855 
N07910 G01 X-31.6568 Y14.0564 
N07920 G01 X-33.1132 Y14.0564 
N07930 G01 X-33.2972 Y14.0855 
N07940 G01 X-33.4744 Y14.1431 
N07950 G01 X-33.6404 Y14.2277 
N07960 G01 X-33.7911 Y14.3372 
N07970 G01 X-33.9228 Y14.4689 
N07980 G01 X-34.0323 Y14.6196 
N07990 G01 X-34.1169 Y14.7856 
N08000 G01 X-34.1745 Y14.9628 
N08010 G01 X-34.2036 Y15.1468 
N08020 G01 X-34.2036 Y15.3332 
N08030 G01 X-34.1745 Y15.5172 
N08040 G01 X-34.1169 Y15.6944 
N08050 G01 X-34.0323 Y15.8604 
N08060 G01 X-33.9228 Y16.0111 
N08070 G01 X-33.7911 Y16.1428 
N08080 G01 X-33.6404 Y16.2523 
N08090 G01 X-33.4744 Y16.3369 
N08100 G01 X-33.2972 Y16.3945 
N08110 G01 X-33.1132 Y16.4236 
N08120 G01 X-31.6568 Y16.4236 
N08130 G01 X-31.4728 Y16.3945 
N08140 G01 X-31.2956 Y16.3369 
N08150 G01 X-31.1296 Y16.2523 
N08160 G01 X-30.9789 Y16.1428 
N08170 G01 X-30.8472 Y16.0111 
N08180 G01 X-30.7377 Y15.8604 
N08190 G01 X-30.7270 Y15.8394 
N08200 G01 X-28.9630 Y15.8394 
N08210 G01 X-28.9523 Y15.8604 
N08220 G01 X-28.8428 Y16.0111 
N08230 G01 X-28.7111 Y16.1428 
N08240 G01 X-28.5604 Y16.2523 
N08250 G01 X-28.3944 Y16.3369 
N08260 G01 X-28.2172 Y16.3945 
N08270 G01 X-28.1460 Y16.4058 
N08280 G01 X-28.0934 Y16.4467 
N08290 G01 X-27.8840 Y16.5600 
N08300 G01 X-27.6589 Y16.6373 
N08310 G01 X-27.4240 Y16.6765 
N08320 G01 X-27.1860 Y16.6765 
N08330 G01 X-26.9511 Y16.6373 
N08340 G01 X-26.7260 Y16.5600 
N08350 G01 X-26.5166 Y16.4467 
N08360 G01 X-26.4640 Y16.4058 
N08370 G01 X-26.3928 Y16.3945 
N08380 G01 X-26.2156 Y16.3369 
N08390 G01 X-26.0496 Y16.2523 
N08400 G01 X-25.8989 Y16.1428 
N08410 G00 Z3.0000 
N08420 G00 X-30.8472 Y19.5489 
N08430 G01 Z-0.1000 F254.00 
N08440 G01 X-30.9789 Y19.4172 F508.00 
N08450 G01 X-31.1296 Y19.3077 
N08460 G01 X-31.2956 Y19.2231 
N08470 G01 X-31.4728 Y19.1655 
N08480 G01 X-31.6568 Y19.1364 
N08490 G01 X-33.1132 Y19.1364 
N08500 G01 X-33.2972 Y19.1655 
N08510 G01 X-33.4744 Y19.2231 
N08520 G01 X-33.6404 Y19.3077 
N08530 G01 X-33.7911 Y19.4172 
N08540 G01 X-33.9228 Y19.5489 
N08550 G01 X-34.0323 Y19.6996 
N08560 G01 X-34.0430 Y19.7206 
N08570 G01 X-34.6767 Y19.7206 
N08580 G01 X-35.5956 Y18.8017 
N08590 G01 X-35.5956 Y12.6410 
N08600 G01 X-35.6186 Y12.5251 
N08610 G01 X-35.6638 Y12.4161 
N08620 G01 X-35.7294 Y12.3179 
N08630 G01 X-36.9701 Y11.0772 
N08640 G01 X-37.0031 Y10.9756 
N08650 G01 X-37.0877 Y10.8096 
N08660 G01 X-37.1972 Y10.6589 
N08670 G01 X-37.3289 Y10.5272 
N08680 G01 X-37.4796 Y10.4177 
N08690 G01 X-37.6456 Y10.3331 
N08700 G01 X-37.8228 Y10.2755 
N08710 G01 X-38.0068 Y10.2464 
N08720 G01 X-42.0032 Y10.2464 
N08730 G01 X-42.1872 Y10.2755 
N08740 G01 X-42.3644 Y10.3331 
N08750 G01 X-42.5304 Y10.4177 
N08760 G01 X-42.6811 Y10.5272 
N08770 G01 X-42.8128 Y10.6589 
N08780 G01 X-42.9223 Y10.8096 
N08790 G01 X-42.9330 Y10.8306 
N08800 G01 X-45.1440 Y10.8306 
N08810 G01 X-45.2599 Y10.8536 
N08820 G01 X-45.3689 Y10.8988 
N08830 G01 X-45.4671 Y10.9644 
N08840 G01 X-49.2771 Y14.7744 
N08850 G01 X-49.3606 Y14.8579 
N08860 G01 X-49.4262 Y14.9561 
N08870 G01 X-49.4714 Y15.0651 
N08880 G01 X-49.4944 Y15.1810 
N08890 G01 X-49.4944 Y35.6190 
N08900 G01 X-49.4714 Y35.7349 
N08910 G01 X-49.4262 Y35.8439 
N08920 G01 X-49.3606 Y35.9421 
N08930 G01 X-48.1199 Y37.1828 
N08940 G01 X-48.0869 Y37.2844 
N08950 G01 X-48.0023 Y37.4504 
N08960 G01 X-47.8928 Y37.6011 
N08970 G01 X-47.7611 Y37.7328 
N08980 G01 X-47.6104 Y37.8423 
N08990 G01 X-47.4444 Y37.9269 
N09000 G01 X-47.2672 Y37.9845 
N09010 G01 X-47.0832 Y38.0136 
N09020 G01 X-44.3568 Y38.0136 
N09030 G01 X-44.1728 Y37.9845 
N09040 G01 X-43.9956 Y37.9269 
N09050 G01 X-43.8296 Y37.8423 
N09060 G01 X-43.6789 Y37.7328 
N09070 G01 X-43.5472 Y37.6011 
N09080 G01 X-43.4377 Y37.4504 
N09090 G01 X-43.3531 Y37.2844 
N09100 G01 X-43.2955 Y37.1072 
N09110 G01 X-43.2664 Y36.9232 
N09120 G01 X-43.2664 Y36.7368 
N09130 G01 X-43.2955 Y36.5528 
N09140 G01 X-43.3531 Y36.3756 
N09150 G01 X-43.4377 Y36.2096 
N09160 G01 X-43.5472 Y36.0589 
N09170 G01 X-43.6789 Y35.9272 
N09180 G01 X-43.8296 Y35.8177 
N09190 G01 X-43.9956 Y35.7331 
N09200 G01 X-44.1728 Y35.6755 
N09210 G01 X-44.3568 Y35.6464 
N09220 G01 X-47.0832 Y35.6464 
N09230 G01 X-47.2672 Y35.6755 
N09240 G01 X-47.4444 Y35.7331 
N09250 G01 X-47.6104 Y35.8177 
N09260 G01 X-47.7142 Y35.8931 
N09270 G01 X-48.2956 Y35.3117 
N09280 G01 X-48.2956 Y15.4883 
N09290 G01 X-44.8367 Y12.0294 
N09300 G01 X-42.9330 Y12.0294 
N09310 G01 X-42.9223 Y12.0504 
N09320 G01 X-42.8128 Y12.2011 
N09330 G01 X-42.6811 Y12.3328 
N09340 G01 X-42.5304 Y12.4423 
N09350 G01 X-42.3644 Y12.5269 
N09360 G01 X-42.1872 Y12.5845 
N09370 G01 X-42.0032 Y12.6136 
N09380 G01 X-38.0068 Y12.6136 
N09390 G01 X-37.8228 Y12.5845 
N09400 G01 X-37.6456 Y12.5269 
N09410 G01 X-37.4796 Y12.4423 
N09420 G01 X-37.3758 Y12.3669 
N09430 G01 X-36.7944 Y12.9483 
N09440 G01 X-36.7944 Y19.1090 
N09450 G01 X-36.7714 Y19.2248 
N09460 G01 X-36.7262 Y19.3339 
N09470 G01 X-36.6606 Y19.4321 
N09480 G01 X-36.5771 Y19.5156 
N09490 G01 X-35.3071 Y20.7856 
N09500 G01 X-35.2089 Y20.8512 
N09510 G01 X-35.0999 Y20.8964 
N09520 G01 X-34.9840 Y20.9194 
N09530 G01 X-34.0430 Y20.9194 
N09540 G01 X-34.0323 Y20.9404 
N09550 G01 X-33.9228 Y21.0911 
N09560 G01 X-33.7911 Y21.2228 
N09570 G01 X-33.6404 Y21.3323 
N09580 G01 X-33.4744 Y21.4169 
N09590 G01 X-33.2972 Y21.4745 
N09600 G01 X-33.1132 Y21.5036 
N09610 G01 X-31.6568 Y21.5036 
N09620 G01 X-31.4728 Y21.4745 
N09630 G01 X-31.2956 Y21.4169 
N09640 G01 X-31.1296 Y21.3323 
N09650 G01 X-30.9789 Y21.2228 
N09660 G01 X-30.8472 Y21.0911 
N09670 G01 X-30.7377 Y20.9404 
N09680 G01 X-30.6531 Y20.7744 
N09690 G01 X-30.5955 Y20.5972 
N09700 G01 X-30.5664 Y20.4132 
N09710 G01 X-30.5664 Y20.2268 
N09720 G01 X-30.5955 Y20.0428 
N09730 G01 X-30.6531 Y19.8656 
N09740 G01 X-30.7377 Y19.6996 
N09750 G01 X-30.8472 Y19.5489 
N09760 G00 Z3.0000 
N09770 G00 X-30.8472 Y27.1689 
N09780 G01 Z-0.1000 F254.00 
N09790 G01 X-30.9789 Y27.0372 F508.00 
N09800 G01 X-31.1296 Y26.9277 
N09810 G01 X-31.2956 Y26.8431 
N09820 G01 X-31.4728 Y26.7855 
N09830 G01 X-31.6568 Y26.7564 
N09840 G01 X-33.1132 Y26.7564 
N09850 G01 X-33.2972 Y26.7855 
N09860 G01 X-33.4744 Y26.8431 
N09870 G01 X-33.6404 Y26.9277 
N09880 G01 X-33.7911 Y27.0372 
N09890 G01 X-33.9228 Y27.1689 
N09900 G01 X-34.0323 Y27.3196 
N09910 G01 X-34.0430 Y27.3406 
N09920 G01 X-36.8656 Y27.3406 
N09930 G01 X-36.8656 Y25.3410 
N09940 G01 X-36.8886 Y25.2251 
N09950 G01 X-36.9338 Y25.1161 
N09960 G01 X-36.9994 Y25.0179 
N09970 G01 X-37.0829 Y24.9344 
N09980 G01 X-39.4056 Y22.6117 
N09990 G01 X-39.4056 Y15.1536 
N10000 G01 X-38.0068 Y15.1536 
N10010 G01 X-37.8228 Y15.1245 
N10020 G01 X-37.6456 Y15.0669 
N10030 G01 X-37.4796 Y14.9823 
N10040 G01 X-37.3289 Y14.8728 
N10050 G01 X-37.1972 Y14.7411 
N10060 G01 X-37.0877 Y14.5904 
N10070 G01 X-37.0031 Y14.4244 
N10080 G01 X-36.9455 Y14.2472 
N10090 G01 X-36.9164 Y14.0632 
N10100 G01 X-36.9164 Y13.8768 
N10110 G01 X-36.9455 Y13.6928 
N10120 G01 X-37.0031 Y13.5156 
N10130 G01 X-37.0877 Y13.3496 
N10140 G01 X-37.1972 Y13.1989 
N10150 G01 X-37.3289 Y13.0672 
N10160 G01 X-37.4796 Y12.9577 
N10170 G01 X-37.6456 Y12.8731 
N10180 G01 X-37.8228 Y12.8155 
N10190 G01 X-38.0068 Y12.7864 
N10200 G01 X-42.0032 Y12.7864 
N10210 G01 X-42.1872 Y12.8155 
N10220 G01 X-42.3644 Y12.8731 
N10230 G01 X-42.5304 Y12.9577 
N10240 G01 X-42.6811 Y13.0672 
N10250 G01 X-42.8128 Y13.1989 
N10260 G01 X-42.9223 Y13.3496 
N10270 G01 X-43.0069 Y13.5156 
N10280 G01 X-43.0645 Y13.6928 
N10290 G01 X-43.0936 Y13.8768 
N10300 G01 X-43.0936 Y14.0632 
N10310 G01 X-43.0645 Y14.2472 
N10320 G01 X-43.0069 Y14.4244 
N10330 G01 X-42.9223 Y14.5904 
N10340 G01 X-42.8128 Y14.7411 
N10350 G01 X-42.6811 Y14.8728 
N10360 G01 X-42.5304 Y14.9823 
N10370 G01 X-42.3644 Y15.0669 
N10380 G01 X-42.1872 Y15.1245 
N10390 G01 X-42.0032 Y15.1536 
N10400 G01 X-40.6044 Y15.1536 
N10410 G01 X-40.6044 Y22.8010 
N10420 G01 X-40.6044 Y22.9190 
N10430 G01 X-40.5814 Y23.0348 
N10440 G01 X-40.5362 Y23.1439 
N10450 G01 X-40.4706 Y23.2421 
N10460 G01 X-38.0644 Y25.6483 
N10470 G01 X-38.0644 Y48.6467 
N10480 G01 X-42.1583 Y52.7406 
N10490 G01 X-43.4270 Y52.7406 
N10500 G01 X-43.4377 Y52.7196 
N10510 G01 X-43.5472 Y52.5689 
N10520 G01 X-43.6789 Y52.4372 
N10530 G01 X-43.8296 Y52.3277 
N10540 G01 X-43.9956 Y52.2431 
N10550 G01 X-44.1728 Y52.1855 
N10560 G01 X-44.3568 Y52.1564 
N10570 G01 X-47.0832 Y52.1564 
N10580 G01 X-47.2672 Y52.1855 
N10590 G01 X-47.4444 Y52.2431 
N10600 G01 X-47.6104 Y52.3277 
N10610 G01 X-47.7611 Y52.4372 
N10620 G01 X-47.8928 Y52.5689 
N10630 G01 X-48.0023 Y52.7196 
N10640 G01 X-48.0126 Y52.7397 
N10650 G01 X-48.9306 Y51.8217 
N10660 G01 X-48.9306 Y42.7933 
N10670 G01 X-47.3767 Y41.2394 
N10680 G01 X-43.7560 Y41.2394 
N10690 G01 X-43.6401 Y41.2164 
N10700 G01 X-43.5311 Y41.1712 
N10710 G01 X-43.4329 Y41.1056 
N10720 G01 X-43.3494 Y41.0221 
N10730 G01 X-40.8094 Y38.4821 
N10740 G01 X-40.7438 Y38.3839 
N10750 G01 X-40.6986 Y38.2749 
N10760 G01 X-40.6756 Y38.1590 
N10770 G01 X-40.6756 Y32.9610 
N10780 G01 X-40.6986 Y32.8451 
N10790 G01 X-40.7438 Y32.7361 
N10800 G01 X-40.8094 Y32.6379 
N10810 G01 X-40.8929 Y32.5544 
N10820 G01 X-42.1629 Y31.2844 
N10830 G01 X-42.2611 Y31.2188 
N10840 G01 X-42.3701 Y31.1736 
N10850 G01 X-42.4860 Y31.1506 
N10860 G01 X-43.4270 Y31.1506 
N10870 G01 X-43.4377 Y31.1296 
N10880 G01 X-43.5472 Y30.9789 
N10890 G01 X-43.6789 Y30.8472 
N10900 G01 X-43.8296 Y30.7377 
N10910 G01 X-43.9956 Y30.6531 
N10920 G01 X-44.1728 Y30.5955 
N10930 G01 X-44.3568 Y30.5664 
N10940 G01 X-47.0832 Y30.5664 
N10950 G01 X-47.2672 Y30.5955 
N10960 G01 X-47.4444 Y30.6531 
N10970 G01 X-47.6104 Y30.7377 
N10980 G01 X-47.7611 Y30.8472 
N10990 G01 X-47.8928 Y30.9789 
N11000 G01 X-48.0023 Y31.1296 
N11010 G01 X-48.0869 Y31.2956 
N11020 G01 X-48.1445 Y31.4728 
N11030 G01 X-48.1736 Y31.6568 
N11040 G01 X-48.1736 Y31.8432 
N11050 G01 X-48.1445 Y32.0272 
N11060 G01 X-48.0869 Y32.2044 
N11070 G01 X-48.0023 Y32.3704 
N11080 G01 X-47.8928 Y32.5211 
N11090 G01 X-47.7611 Y32.6528 
N11100 G01 X-47.6104 Y32.7623 
N11110 G01 X-47.4444 Y32.8469 
N11120 G01 X-47.2672 Y32.9045 
N11130 G01 X-47.0832 Y32.9336 
N11140 G01 X-44.3568 Y32.9336 
N11150 G01 X-44.1728 Y32.9045 
N11160 G01 X-43.9956 Y32.8469 
N11170 G01 X-43.8296 Y32.7623 
N11180 G01 X-43.6789 Y32.6528 
N11190 G01 X-43.5472 Y32.5211 
N11200 G01 X-43.4377 Y32.3704 
N11210 G01 X-43.4270 Y32.3494 
N11220 G01 X-42.7933 Y32.3494 
N11230 G01 X-41.8744 Y33.2683 
N11240 G01 X-41.8744 Y37.8517 
N11250 G01 X-44.0633 Y40.0406 
N11260 G01 X-47.6840 Y40.0406 
N11270 G01 X-47.7998 Y40.0636 
N11280 G01 X-47.9089 Y40.1088 
N11290 G01 X-48.0071 Y40.1744 
N11300 G01 X-49.9121 Y42.0794 
N11310 G01 X-49.9956 Y42.1629 
N11320 G01 X-50.0612 Y42.2611 
N11330 G01 X-50.1064 Y42.3701 
N11340 G01 X-50.1294 Y42.4860 
N11350 G01 X-50.1294 Y52.1290 
N11360 G01 X-50.1064 Y52.2448 
N11370 G01 X-50.0612 Y52.3539 
N11380 G01 X-49.9956 Y52.4521 
N11390 G01 X-48.7256 Y53.7221 
N11400 G01 X-48.6421 Y53.8056 
N11410 G01 X-48.5439 Y53.8712 
N11420 G01 X-48.4348 Y53.9164 
N11430 G01 X-48.3190 Y53.9394 
N11440 G01 X-48.0130 Y53.9394 
N11450 G01 X-48.0023 Y53.9604 
N11460 G01 X-47.8928 Y54.1111 
N11470 G01 X-47.7611 Y54.2428 
N11480 G01 X-47.6104 Y54.3523 
N11490 G01 X-47.4444 Y54.4369 
N11500 G01 X-47.2672 Y54.4945 
N11510 G01 X-47.0832 Y54.5236 
N11520 G01 X-44.3568 Y54.5236 
N11530 G01 X-44.1728 Y54.4945 
N11540 G01 X-43.9956 Y54.4369 
N11550 G01 X-43.8296 Y54.3523 
N11560 G01 X-43.6789 Y54.2428 
N11570 G01 X-43.5472 Y54.1111 
N11580 G01 X-43.4377 Y53.9604 
N11590 G01 X-43.4270 Y53.9394 
N11600 G01 X-41.8510 Y53.9394 
N11610 G01 X-41.7351 Y53.9164 
N11620 G01 X-41.6261 Y53.8712 
N11630 G01 X-41.5279 Y53.8056 
N11640 G01 X-41.4444 Y53.7221 
N11650 G01 X-36.9994 Y49.2771 
N11660 G01 X-36.9338 Y49.1789 
N11670 G01 X-36.8886 Y49.0699 
N11680 G01 X-36.8656 Y48.9540 
N11690 G01 X-36.8656 Y28.5394 
N11700 G01 X-34.0430 Y28.5394 
N11710 G01 X-34.0323 Y28.5604 
N11720 G01 X-33.9228 Y28.7111 
N11730 G01 X-33.7911 Y28.8428 
N11740 G01 X-33.6404 Y28.9523 
N11750 G01 X-33.4744 Y29.0369 
N11760 G01 X-33.2972 Y29.0945 
N11770 G01 X-33.1132 Y29.1236 
N11780 G01 X-31.6568 Y29.1236 
N11790 G01 X-31.4728 Y29.0945 
N11800 G01 X-31.2956 Y29.0369 
N11810 G01 X-31.1296 Y28.9523 
N11820 G01 X-30.9789 Y28.8428 
N11830 G01 X-30.8472 Y28.7111 
N11840 G01 X-30.7377 Y28.5604 
N11850 G01 X-30.6531 Y28.3944 
N11860 G01 X-30.5955 Y28.2172 
N11870 G01 X-30.5664 Y28.0332 
N11880 G01 X-30.5664 Y27.8468 
N11890 G01 X-30.5955 Y27.6628 
N11900 G01 X-30.6531 Y27.4856 
N11910 G01 X-30.7377 Y27.3196 
N11920 G01 X-30.8472 Y27.1689 
N11930 G00 Z3.0000 
N11940 G00 X-38.0848 Y25.7037 
N11950 G01 Z-0.1000 F254.00 
N11960 G01 X-38.1180 Y25.6235 F508.00 
N11970 G01 X-38.1795 Y25.5620 
N11980 G01 X-40.5304 Y23.2111 
N11990 G01 X-40.6248 Y22.9833 
N12000 G01 X-40.6248 Y15.3489 
N12010 G01 X-40.6580 Y15.2687 
N12020 G01 X-40.7195 Y15.2072 
N12030 G01 X-40.7997 Y15.1740 
N12040 G01 X-42.1495 Y15.1740 
N12050 G01 X-42.5920 Y14.9907 
N12060 G01 X-42.9307 Y14.6520 
N12070 G01 X-43.1140 Y14.2095 
N12080 G01 X-43.1140 Y13.7305 
N12090 G01 X-42.9307 Y13.2880 
N12100 G01 X-42.5920 Y12.9493 
N12110 G01 X-42.5174 Y12.9184 
N12120 G01 X-42.4371 Y12.8852 
N12130 G01 X-42.3766 Y12.8247 
N12140 G01 X-42.3566 Y12.7776 
N12150 G01 X-42.3424 Y12.7434 
N12160 G01 X-42.3424 Y12.6565 
N12170 G01 X-42.3757 Y12.5763 
N12180 G01 X-42.4362 Y12.5158 
N12190 G01 X-42.4844 Y12.4952 
N12200 G01 X-42.5174 Y12.4816 
N12210 G01 X-42.5920 Y12.4507 
N12220 G01 X-42.9596 Y12.0830 
N12230 G01 X-43.0399 Y12.0498 
N12240 G01 X-44.7813 Y12.0498 
N12250 G01 X-44.8615 Y12.0830 
N12260 G01 X-44.9230 Y12.1445 
N12270 G01 X-48.2420 Y15.4635 
N12280 G01 X-48.2752 Y15.5437 
N12290 G01 X-48.2752 Y21.4909 
N12300 G01 X-48.2793 Y21.5168 
N12310 G01 X-48.2752 Y21.5339 
N12320 G01 X-48.2752 Y21.6461 
N12330 G01 X-48.2793 Y21.6632 
N12340 G01 X-48.2752 Y21.6891 
N12350 G01 X-48.2752 Y24.0309 
N12360 G01 X-48.2793 Y24.0568 
N12370 G01 X-48.2752 Y24.0739 
N12380 G01 X-48.2752 Y24.1861 
N12390 G01 X-48.2793 Y24.2032 
N12400 G01 X-48.2752 Y24.2291 
N12410 G01 X-48.2752 Y29.1109 
N12420 G01 X-48.2793 Y29.1368 
N12430 G01 X-48.2752 Y29.1539 
N12440 G01 X-48.2752 Y29.2661 
N12450 G01 X-48.2793 Y29.2832 
N12460 G01 X-48.2752 Y29.3091 
N12470 G01 X-48.2752 Y30.8487 
N12480 G01 X-48.2420 Y30.9290 
N12490 G01 X-48.1805 Y30.9904 
N12500 G01 X-48.1012 Y31.0233 
N12510 G01 X-48.0133 Y31.0237 
N12520 G01 X-47.9331 Y30.9904 
N12530 G01 X-47.6720 Y30.7293 
N12540 G01 X-47.2295 Y30.5460 
N12550 G01 X-44.2105 Y30.5460 
N12560 G01 X-43.7680 Y30.7293 
N12570 G01 X-43.4618 Y31.0355 
N12580 G01 X-43.4004 Y31.0970 
N12590 G01 X-43.3201 Y31.1302 
N12600 G01 X-42.4217 Y31.1302 
N12610 G01 X-42.1939 Y31.2246 
N12620 G01 X-40.9239 Y32.4946 
N12630 G01 X-40.7496 Y32.6689 
N12640 G01 X-40.6552 Y32.8967 
N12650 G01 X-40.6552 Y38.2233 
N12660 G01 X-40.7496 Y38.4511 
N12670 G01 X-43.2896 Y40.9911 
N12680 G01 X-43.4639 Y41.1654 
N12690 G01 X-43.6917 Y41.2598 
N12700 G01 X-47.3213 Y41.2598 
N12710 G01 X-47.4015 Y41.2930 
N12720 G01 X-47.4630 Y41.3545 
N12730 G01 X-48.8770 Y42.7685 
N12740 G01 X-48.9102 Y42.8487 
N12750 G01 X-48.9102 Y51.7663 
N12760 G01 X-48.8770 Y51.8465 
N12770 G01 X-48.8660 Y51.8576 
N12780 G01 X-48.2233 Y52.5003 
N12790 G01 X-48.1618 Y52.5617 
N12800 G01 X-48.0825 Y52.5946 
N12810 G01 X-47.9946 Y52.5950 
N12820 G01 X-47.9143 Y52.5617 
N12830 G01 X-47.6720 Y52.3193 
N12840 G01 X-47.5974 Y52.2884 
N12850 G01 X-47.5171 Y52.2552 
N12860 G01 X-47.4566 Y52.1947 
N12870 G01 X-47.4366 Y52.1476 
N12880 G01 X-47.4224 Y52.1134 
N12890 G01 X-47.4224 Y52.0265 
N12900 G01 X-47.4557 Y51.9463 
N12910 G01 X-47.5162 Y51.8858 
N12920 G01 X-47.5644 Y51.8652 
N12930 G01 X-47.5974 Y51.8516 
N12940 G01 X-47.6720 Y51.8207 
N12950 G01 X-48.0107 Y51.4820 
N12960 G01 X-48.1940 Y51.0395 
N12970 G01 X-48.1940 Y50.5605 
N12980 G01 X-48.0107 Y50.1180 
N12990 G01 X-47.6720 Y49.7793 
N13000 G01 X-47.5974 Y49.7484 
N13010 G01 X-47.5171 Y49.7152 
N13020 G01 X-47.4566 Y49.6547 
N13030 G01 X-47.4366 Y49.6076 
N13040 G01 X-47.4224 Y49.5734 
N13050 G01 X-47.4224 Y49.4865 
N13060 G01 X-47.4557 Y49.4063 
N13070 G01 X-47.5162 Y49.3458 
N13080 G01 X-47.5644 Y49.3252 
N13090 G01 X-47.5974 Y49.3116 
N13100 G01 X-47.6720 Y49.2807 
N13110 G01 X-48.0107 Y48.9420 
N13120 G01 X-48.1940 Y48.4995 
N13130 G01 X-48.1940 Y48.0205 
N13140 G01 X-48.0107 Y47.5780 
N13150 G01 X-47.6720 Y47.2393 
N13160 G01 X-47.2295 Y47.0560 
N13170 G01 X-44.2105 Y47.0560 
N13180 G01 X-43.7680 Y47.2393 
N13190 G01 X-43.4004 Y47.6070 
N13200 G01 X-43.3201 Y47.6402 
N13210 G01 X-42.8487 Y47.6402 
N13220 G01 X-42.7685 Y47.6070 
N13230 G01 X-42.7070 Y47.5455 
N13240 G01 X-39.3880 Y44.2265 
N13250 G01 X-39.3548 Y44.1463 
N13260 G01 X-39.3548 Y30.7837 
N13270 G01 X-39.3880 Y30.7035 
N13280 G01 X-42.7685 Y27.3230 
N13290 G01 X-42.8487 Y27.2898 
N13300 G01 X-43.3201 Y27.2898 
N13310 G01 X-43.4004 Y27.3230 
N13320 G01 X-43.4618 Y27.3845 
N13330 G01 X-43.7680 Y27.6907 
N13340 G01 X-44.2105 Y27.8740 
N13350 G01 X-46.5945 Y27.8740 
N13360 G01 X-47.0370 Y27.6907 
N13370 G01 X-47.3064 Y27.4212 
N13380 G01 X-47.3679 Y27.3598 
N13390 G01 X-47.4444 Y27.3281 
N13400 G01 X-47.4482 Y27.3265 
N13410 G01 X-47.4528 Y27.3246 
N13420 G01 X-47.6700 Y27.1074 
N13430 G01 X-47.7876 Y26.8236 
N13440 G01 X-47.7876 Y26.5164 
N13450 G01 X-47.6700 Y26.2326 
N13460 G01 X-47.4528 Y26.0154 
N13470 G01 X-47.4482 Y26.0135 
N13480 G01 X-47.3679 Y25.9802 
N13490 G01 X-47.3064 Y25.9188 
N13500 G01 X-47.0370 Y25.6493 
N13510 G01 X-46.5945 Y25.4660 
N13520 G01 X-44.2105 Y25.4660 
N13530 G01 X-43.7680 Y25.6493 
N13540 G01 X-43.4004 Y26.0170 
N13550 G01 X-43.3201 Y26.0502 
N13560 G01 X-42.4217 Y26.0502 
N13570 G01 X-42.1939 Y26.1446 
N13580 G01 X-42.0196 Y26.3189 
N13590 G01 X-41.9581 Y26.3804 
N13600 G01 X-38.4269 Y29.9116 
N13610 G01 X-38.3466 Y29.9448 
N13620 G01 X-38.2597 Y29.9448 
N13630 G01 X-38.1795 Y29.9116 
N13640 G01 X-38.1180 Y29.8501 
N13650 G01 X-38.0848 Y29.7699 
N13660 G01 X-38.0848 Y25.7037 
N13670 G00 Z3.0000 
N13680 G00 X-38.2694 Y30.0979 
N13690 G01 Z-0.1000 F254.00 
N13700 G01 X-42.0794 Y26.2879 F508.00 
N13710 G01 X-42.1629 Y26.2044 
N13720 G01 X-42.2611 Y26.1388 
N13730 G01 X-42.3701 Y26.0936 
N13740 G01 X-42.4860 Y26.0706 
N13750 G01 X-43.4270 Y26.0706 
N13760 G01 X-43.4377 Y26.0496 
N13770 G01 X-43.5472 Y25.8989 
N13780 G01 X-43.6789 Y25.7672 
N13790 G01 X-43.8296 Y25.6577 
N13800 G01 X-43.9956 Y25.5731 
N13810 G01 X-44.1728 Y25.5155 
N13820 G01 X-44.3568 Y25.4864 
N13830 G01 X-46.4482 Y25.4864 
N13840 G01 X-46.6322 Y25.5155 
N13850 G01 X-46.8094 Y25.5731 
N13860 G01 X-46.9754 Y25.6577 
N13870 G01 X-47.1261 Y25.7672 
N13880 G01 X-47.2578 Y25.8989 
N13890 G01 X-47.3178 Y25.9815 
N13900 G01 X-47.3715 Y26.0037 
N13910 G01 X-47.4947 Y26.0860 
N13920 G01 X-47.5994 Y26.1907 
N13930 G01 X-47.6817 Y26.3139 
N13940 G01 X-47.7383 Y26.4507 
N13950 G01 X-47.7672 Y26.5959 
N13960 G01 X-47.7672 Y26.7441 
N13970 G01 X-47.7383 Y26.8893 
N13980 G01 X-47.6817 Y27.0261 
N13990 G01 X-47.5994 Y27.1493 
N14000 G01 X-47.4947 Y27.2540 
N14010 G01 X-47.3715 Y27.3363 
N14020 G01 X-47.3178 Y27.3585 
N14030 G01 X-47.2578 Y27.4411 
N14040 G01 X-47.1261 Y27.5728 
N14050 G01 X-46.9754 Y27.6823 
N14060 G01 X-46.8094 Y27.7669 
N14070 G01 X-46.6322 Y27.8245 
N14080 G01 X-46.4482 Y27.8536 
N14090 G01 X-44.3568 Y27.8536 
N14100 G01 X-44.1728 Y27.8245 
N14110 G01 X-43.9956 Y27.7669 
N14120 G01 X-43.8296 Y27.6823 
N14130 G01 X-43.6789 Y27.5728 
N14140 G01 X-43.5472 Y27.4411 
N14150 G01 X-43.4377 Y27.2904 
N14160 G01 X-43.4270 Y27.2694 
N14170 G01 X-42.7933 Y27.2694 
N14180 G01 X-39.3344 Y30.7283 
N14190 G01 X-39.3344 Y44.2017 
N14200 G01 X-42.7933 Y47.6606 
N14210 G01 X-43.4270 Y47.6606 
N14220 G01 X-43.4377 Y47.6396 
N14230 G01 X-43.5472 Y47.4889 
N14240 G01 X-43.6789 Y47.3572 
N14250 G01 X-43.8296 Y47.2477 
N14260 G01 X-43.9956 Y47.1631 
N14270 G01 X-44.1728 Y47.1055 
N14280 G01 X-44.3568 Y47.0764 
N14290 G01 X-47.0832 Y47.0764 
N14300 G01 X-47.2672 Y47.1055 
N14310 G01 X-47.4444 Y47.1631 
N14320 G01 X-47.6104 Y47.2477 
N14330 G01 X-47.7611 Y47.3572 
N14340 G01 X-47.8928 Y47.4889 
N14350 G01 X-48.0023 Y47.6396 
N14360 G01 X-48.0869 Y47.8056 
N14370 G01 X-48.1445 Y47.9828 
N14380 G01 X-48.1736 Y48.1668 
N14390 G01 X-48.1736 Y48.3532 
N14400 G01 X-48.1445 Y48.5372 
N14410 G01 X-48.0869 Y48.7144 
N14420 G01 X-48.0023 Y48.8804 
N14430 G01 X-47.8928 Y49.0311 
N14440 G01 X-47.7611 Y49.1628 
N14450 G01 X-47.6104 Y49.2723 
N14460 G01 X-47.4444 Y49.3569 
N14470 G01 X-47.2672 Y49.4145 
N14480 G01 X-47.0832 Y49.4436 
N14490 G01 X-44.3568 Y49.4436 
N14500 G01 X-44.1728 Y49.4145 
N14510 G01 X-43.9956 Y49.3569 
N14520 G01 X-43.8296 Y49.2723 
N14530 G01 X-43.6789 Y49.1628 
N14540 G01 X-43.5472 Y49.0311 
N14550 G01 X-43.4377 Y48.8804 
N14560 G01 X-43.4270 Y48.8594 
N14570 G01 X-42.4860 Y48.8594 
N14580 G01 X-42.3701 Y48.8364 
N14590 G01 X-42.2611 Y48.7912 
N14600 G01 X-42.1629 Y48.7256 
N14610 G01 X-38.3529 Y44.9156 
N14620 G01 X-38.2694 Y44.8321 
N14630 G01 X-38.2038 Y44.7339 
N14640 G01 X-38.1586 Y44.6249 
N14650 G01 X-38.1356 Y44.5090 
N14660 G01 X-38.1356 Y30.4210 
N14670 G01 X-38.1586 Y30.3051 
N14680 G01 X-38.2038 Y30.1961 
N14690 G01 X-38.2694 Y30.0979 
N14700 G00 Z3.0000 
N14710 G00 X-45.0669 Y29.7461 
N14720 G01 Z-0.1000 F254.00 
N14730 G01 X-45.1585 Y29.8377 F508.00 
N14740 G01 X-45.2633 Y29.9139 
N14750 G01 X-45.3787 Y29.9727 
N14760 G01 X-45.5019 Y30.0127 
N14770 G01 X-45.6298 Y30.0330 
N14780 G01 X-46.0604 Y30.0330 
N14790 G01 X-46.0604 Y29.9618 
N14800 G01 X-45.6205 Y29.9618 
N14810 G01 X-45.4753 Y29.9329 
N14820 G01 X-45.3385 Y29.8763 
N14830 G01 X-45.2153 Y29.7940 
N14840 G01 X-45.1106 Y29.6893 
N14850 G01 X-45.0283 Y29.5661 
N14860 G01 X-45.0029 Y29.5046 
N14870 G01 X-44.9250 Y29.5046 
N14880 G01 X-44.9319 Y29.5259 
N14890 G01 X-44.9907 Y29.6413 
N14900 G01 X-45.0669 Y29.7461 
N14910 G00 Z3.0000 
N14920 G00 X-45.0029 Y28.9154 
N14930 G01 Z-0.1000 F254.00 
N14940 G01 X-45.0283 Y28.8539 F508.00 
N14950 G01 X-45.1106 Y28.7307 
N14960 G01 X-45.2153 Y28.6260 
N14970 G01 X-45.3385 Y28.5437 
N14980 G01 X-45.4753 Y28.4871 
N14990 G01 X-45.6205 Y28.4582 
N15000 G01 X-46.0604 Y28.4582 
N15010 G01 X-46.0604 Y28.3870 
N15020 G01 X-45.6298 Y28.3870 
N15030 G01 X-45.5019 Y28.4073 
N15040 G01 X-45.3787 Y28.4473 
N15050 G01 X-45.2633 Y28.5061 
N15060 G01 X-45.1585 Y28.5823 
N15070 G01 X-45.0669 Y28.6739 
N15080 G01 X-44.9907 Y28.7787 
N15090 G01 X-44.9319 Y28.8941 
N15100 G01 X-44.9250 Y28.9154 
N15110 G01 X-45.0029 Y28.9154 
N15120 G00 Z3.0000 
N15130 G00 X-46.6496 Y28.4582 
N15140 G01 Z-0.1000 F254.00 
N15150 G01 X-47.0894 Y28.4582 F508.00 
N15160 G01 X-47.2347 Y28.4871 
N15170 G01 X-47.3715 Y28.5437 
N15180 G01 X-47.4947 Y28.6260 
N15190 G01 X-47.5994 Y28.7307 
N15200 G01 X-47.6817 Y28.8539 
N15210 G01 X-47.7071 Y28.9154 
N15220 G01 X-47.7850 Y28.9154 
N15230 G01 X-47.7781 Y28.8941 
N15240 G01 X-47.7193 Y28.7787 
N15250 G01 X-47.6431 Y28.6739 
N15260 G01 X-47.5515 Y28.5823 
N15270 G01 X-47.4467 Y28.5061 
N15280 G01 X-47.3313 Y28.4473 
N15290 G01 X-47.2081 Y28.4073 
N15300 G01 X-47.0802 Y28.3870 
N15310 G01 X-46.6496 Y28.3870 
N15320 G01 X-46.6496 Y28.4582 
N15330 G00 Z3.0000 
N15340 G00 X-46.6496 Y29.9618 
N15350 G01 Z-0.1000 F254.00 
N15360 G01 X-46.6496 Y30.0330 F508.00 
N15370 G01 X-47.0802 Y30.0330 
N15380 G01 X-47.2081 Y30.0127 
N15390 G01 X-47.3313 Y29.9727 
N15400 G01 X-47.4467 Y29.9139 
N15410 G01 X-47.5515 Y29.8377 
N15420 G01 X-47.6431 Y29.7461 
N15430 G01 X-47.7193 Y29.6413 
N15440 G01 X-47.7781 Y29.5259 
N15450 G01 X-47.7850 Y29.5046 
N15460 G01 X-47.7071 Y29.5046 
N15470 G01 X-47.6817 Y29.5661 
N15480 G01 X-47.5994 Y29.6893 
N15490 G01 X-47.4947 Y29.7940 
N15500 G01 X-47.3715 Y29.8763 
N15510 G01 X-47.2347 Y29.9329 
N15520 G01 X-47.0894 Y29.9618 
N15530 G01 X-46.6496 Y29.9618 
N15540 G00 Z3.0000 
N15550 G00 X-47.0832 Y33.1064 
N15560 G01 Z-0.1000 F254.00 
N15570 G01 X-47.2672 Y33.1355 F508.00 
N15580 G01 X-47.4444 Y33.1931 
N15590 G01 X-47.6104 Y33.2777 
N15600 G01 X-47.7611 Y33.3872 
N15610 G01 X-47.8928 Y33.5189 
N15620 G01 X-48.0023 Y33.6696 
N15630 G01 X-48.0869 Y33.8356 
N15640 G01 X-48.1445 Y34.0128 
N15650 G01 X-48.1736 Y34.1968 
N15660 G01 X-48.1736 Y34.3832 
N15670 G01 X-48.1445 Y34.5672 
N15680 G01 X-48.0869 Y34.7444 
N15690 G01 X-48.0023 Y34.9104 
N15700 G01 X-47.8928 Y35.0611 
N15710 G01 X-47.7611 Y35.1928 
N15720 G01 X-47.6104 Y35.3023 
N15730 G01 X-47.4444 Y35.3869 
N15740 G01 X-47.2672 Y35.4445 
N15750 G01 X-47.0832 Y35.4736 
N15760 G01 X-44.3568 Y35.4736 
N15770 G01 X-44.1728 Y35.4445 
N15780 G01 X-43.9956 Y35.3869 
N15790 G01 X-43.8296 Y35.3023 
N15800 G01 X-43.6789 Y35.1928 
N15810 G01 X-43.5472 Y35.0611 
N15820 G01 X-43.4377 Y34.9104 
N15830 G01 X-43.3531 Y34.7444 
N15840 G01 X-43.2955 Y34.5672 
N15850 G01 X-43.2664 Y34.3832 
N15860 G01 X-43.2664 Y34.1968 
N15870 G01 X-43.2955 Y34.0128 
N15880 G01 X-43.3531 Y33.8356 
N15890 G01 X-43.4377 Y33.6696 
N15900 G01 X-43.5472 Y33.5189 
N15910 G01 X-43.6789 Y33.3872 
N15920 G01 X-43.8296 Y33.2777 
N15930 G01 X-43.9956 Y33.1931 
N15940 G01 X-44.1728 Y33.1355 
N15950 G01 X-44.3568 Y33.1064 
N15960 G01 X-47.0832 Y33.1064 
N15970 G00 Z3.0000 
N15980 G00 X-50.8356 Y33.0790 
N15990 G01 Z-0.1000 F254.00 
N16000 G01 X-50.8356 Y15.1810 F508.00 
N16010 G01 X-50.8586 Y15.0651 
N16020 G01 X-50.9038 Y14.9561 
N16030 G01 X-50.9694 Y14.8579 
N16040 G01 X-54.7794 Y11.0479 
N16050 G01 X-54.8629 Y10.9644 
N16060 G01 X-54.9611 Y10.8988 
N16070 G01 X-55.0701 Y10.8536 
N16080 G01 X-55.1860 Y10.8306 
N16090 G01 X-57.3970 Y10.8306 
N16100 G01 X-57.4077 Y10.8096 
N16110 G01 X-57.5172 Y10.6589 
N16120 G01 X-57.6489 Y10.5272 
N16130 G01 X-57.7996 Y10.4177 
N16140 G01 X-57.9656 Y10.3331 
N16150 G01 X-58.1428 Y10.2755 
N16160 G01 X-58.3268 Y10.2464 
N16170 G01 X-62.3232 Y10.2464 
N16180 G01 X-62.5072 Y10.2755 
N16190 G01 X-62.6844 Y10.3331 
N16200 G01 X-62.8504 Y10.4177 
N16210 G01 X-63.0011 Y10.5272 
N16220 G01 X-63.1328 Y10.6589 
N16230 G01 X-63.2423 Y10.8096 
N16240 G01 X-63.3269 Y10.9756 
N16250 G01 X-63.3599 Y11.0772 
N16260 G01 X-64.6006 Y12.3179 
N16270 G01 X-64.6662 Y12.4161 
N16280 G01 X-64.7114 Y12.5251 
N16290 G01 X-64.7344 Y12.6410 
N16300 G01 X-64.7344 Y18.8017 
N16310 G01 X-65.6533 Y19.7206 
N16320 G01 X-66.2870 Y19.7206 
N16330 G01 X-66.2977 Y19.6996 
N16340 G01 X-66.4072 Y19.5489 
N16350 G01 X-66.5389 Y19.4172 
N16360 G01 X-66.6896 Y19.3077 
N16370 G01 X-66.8556 Y19.2231 
N16380 G01 X-67.0328 Y19.1655 
N16390 G01 X-67.2168 Y19.1364 
N16400 G01 X-68.6732 Y19.1364 
N16410 G01 X-68.8572 Y19.1655 
N16420 G01 X-69.0344 Y19.2231 
N16430 G01 X-69.2004 Y19.3077 
N16440 G01 X-69.3511 Y19.4172 
N16450 G01 X-69.4828 Y19.5489 
N16460 G01 X-69.5923 Y19.6996 
N16470 G01 X-69.6769 Y19.8656 
N16480 G01 X-69.7345 Y20.0428 
N16490 G01 X-69.7636 Y20.2268 
N16500 G01 X-69.7636 Y20.4132 
N16510 G01 X-69.7345 Y20.5972 
N16520 G01 X-69.6769 Y20.7744 
N16530 G01 X-69.5923 Y20.9404 
N16540 G01 X-69.4828 Y21.0911 
N16550 G01 X-69.3511 Y21.2228 
N16560 G01 X-69.2004 Y21.3323 
N16570 G01 X-69.0344 Y21.4169 
N16580 G01 X-68.8572 Y21.4745 
N16590 G01 X-68.6732 Y21.5036 
N16600 G01 X-67.2168 Y21.5036 
N16610 G01 X-67.0328 Y21.4745 
N16620 G01 X-66.8556 Y21.4169 
N16630 G01 X-66.6896 Y21.3323 
N16640 G01 X-66.5389 Y21.2228 
N16650 G01 X-66.4072 Y21.0911 
N16660 G01 X-66.2977 Y20.9404 
N16670 G01 X-66.2870 Y20.9194 
N16680 G01 X-65.3460 Y20.9194 
N16690 G01 X-65.2301 Y20.8964 
N16700 G01 X-65.1211 Y20.8512 
N16710 G01 X-65.0229 Y20.7856 
N16720 G01 X-63.7529 Y19.5156 
N16730 G01 X-63.6694 Y19.4321 
N16740 G01 X-63.6038 Y19.3339 
N16750 G01 X-63.5586 Y19.2248 
N16760 G01 X-63.5356 Y19.1090 
N16770 G01 X-63.5356 Y12.9483 
N16780 G01 X-62.9542 Y12.3669 
N16790 G01 X-62.8504 Y12.4423 
N16800 G01 X-62.6844 Y12.5269 
N16810 G01 X-62.5072 Y12.5845 
N16820 G01 X-62.3232 Y12.6136 
N16830 G01 X-58.3268 Y12.6136 
N16840 G01 X-58.1428 Y12.5845 
N16850 G01 X-57.9656 Y12.5269 
N16860 G01 X-57.7996 Y12.4423 
N16870 G01 X-57.6489 Y12.3328 
N16880 G01 X-57.5172 Y12.2011 
N16890 G01 X-57.4077 Y12.0504 
N16900 G01 X-57.3970 Y12.0294 
N16910 G01 X-55.4933 Y12.0294 
N16920 G01 X-52.0344 Y15.4883 
N16930 G01 X-52.0344 Y32.7717 
N16940 G01 X-52.6158 Y33.3531 
N16950 G01 X-52.7196 Y33.2777 
N16960 G01 X-52.8856 Y33.1931 
N16970 G01 X-53.0628 Y33.1355 
N16980 G01 X-53.2468 Y33.1064 
N16990 G01 X-55.9732 Y33.1064 
N17000 G01 X-56.1572 Y33.1355 
N17010 G01 X-56.3344 Y33.1931 
N17020 G01 X-56.5004 Y33.2777 
N17030 G01 X-56.6511 Y33.3872 
N17040 G01 X-56.7828 Y33.5189 
N17050 G01 X-56.8923 Y33.6696 
N17060 G01 X-56.9769 Y33.8356 
N17070 G01 X-57.0345 Y34.0128 
N17080 G01 X-57.0636 Y34.1968 
N17090 G01 X-57.0636 Y34.3832 
N17100 G01 X-57.0345 Y34.5672 
N17110 G01 X-56.9769 Y34.7444 
N17120 G01 X-56.8923 Y34.9104 
N17130 G01 X-56.7828 Y35.0611 
N17140 G01 X-56.6511 Y35.1928 
N17150 G01 X-56.5004 Y35.3023 
N17160 G01 X-56.3344 Y35.3869 
N17170 G01 X-56.1572 Y35.4445 
N17180 G01 X-55.9732 Y35.4736 
N17190 G01 X-53.2468 Y35.4736 
N17200 G01 X-53.0628 Y35.4445 
N17210 G01 X-52.8856 Y35.3869 
N17220 G01 X-52.7196 Y35.3023 
N17230 G01 X-52.5689 Y35.1928 
N17240 G01 X-52.4372 Y35.0611 
N17250 G01 X-52.3277 Y34.9104 
N17260 G01 X-52.2431 Y34.7444 
N17270 G01 X-52.2101 Y34.6428 
N17280 G01 X-51.0529 Y33.4856 
N17290 G01 X-50.9694 Y33.4021 
N17300 G01 X-50.9038 Y33.3039 
N17310 G01 X-50.8586 Y33.1949 
N17320 G01 X-50.8356 Y33.0790 
N17330 G00 Z3.0000 
N17340 G00 X-52.5689 Y32.6528 
N17350 G01 Z-0.1000 F254.00 
N17360 G01 X-52.4372 Y32.5211 F508.00 
N17370 G01 X-52.3277 Y32.3704 
N17380 G01 X-52.2431 Y32.2044 
N17390 G01 X-52.1855 Y32.0272 
N17400 G01 X-52.1564 Y31.8432 
N17410 G01 X-52.1564 Y31.6568 
N17420 G01 X-52.1855 Y31.4728 
N17430 G01 X-52.2431 Y31.2956 
N17440 G01 X-52.3277 Y31.1296 
N17450 G01 X-52.4372 Y30.9789 
N17460 G01 X-52.5689 Y30.8472 
N17470 G01 X-52.7196 Y30.7377 
N17480 G01 X-52.8856 Y30.6531 
N17490 G01 X-53.0628 Y30.5955 
N17500 G01 X-53.2468 Y30.5664 
N17510 G01 X-55.9732 Y30.5664 
N17520 G01 X-56.1572 Y30.5955 
N17530 G01 X-56.3344 Y30.6531 
N17540 G01 X-56.5004 Y30.7377 
N17550 G01 X-56.6511 Y30.8472 
N17560 G01 X-56.7828 Y30.9789 
N17570 G01 X-56.8923 Y31.1296 
N17580 G01 X-56.9769 Y31.2956 
N17590 G01 X-57.0345 Y31.4728 
N17600 G01 X-57.0636 Y31.6568 
N17610 G01 X-57.0636 Y31.8432 
N17620 G01 X-57.0345 Y32.0272 
N17630 G01 X-56.9769 Y32.2044 
N17640 G01 X-56.8923 Y32.3704 
N17650 G01 X-56.7828 Y32.5211 
N17660 G01 X-56.6511 Y32.6528 
N17670 G01 X-56.5004 Y32.7623 
N17680 G01 X-56.3344 Y32.8469 
N17690 G01 X-56.1572 Y32.9045 
N17700 G01 X-55.9732 Y32.9336 
N17710 G01 X-53.2468 Y32.9336 
N17720 G01 X-53.0628 Y32.9045 
N17730 G01 X-52.8856 Y32.8469 
N17740 G01 X-52.7196 Y32.7623 
N17750 G01 X-52.5689 Y32.6528 
N17760 G00 Z3.0000 
N17770 G00 X-52.5689 Y30.1128 
N17780 G01 Z-0.1000 F254.00 
N17790 G01 X-52.4372 Y29.9811 F508.00 
N17800 G01 X-52.3277 Y29.8304 
N17810 G01 X-52.2431 Y29.6644 
N17820 G01 X-52.1855 Y29.4872 
N17830 G01 X-52.1564 Y29.3032 
N17840 G01 X-52.1564 Y29.1168 
N17850 G01 X-52.1855 Y28.9328 
N17860 G01 X-52.2431 Y28.7556 
N17870 G01 X-52.3277 Y28.5896 
N17880 G01 X-52.4372 Y28.4389 
N17890 G01 X-52.5689 Y28.3072 
N17900 G01 X-52.7196 Y28.1977 
N17910 G01 X-52.8856 Y28.1131 
N17920 G01 X-53.0628 Y28.0555 
N17930 G01 X-53.2468 Y28.0264 
N17940 G01 X-55.9732 Y28.0264 
N17950 G01 X-56.1572 Y28.0555 
N17960 G01 X-56.3344 Y28.1131 
N17970 G01 X-56.5004 Y28.1977 
N17980 G01 X-56.6511 Y28.3072 
N17990 G01 X-56.7828 Y28.4389 
N18000 G01 X-56.8923 Y28.5896 
N18010 G01 X-56.9030 Y28.6106 
N18020 G01 X-57.8440 Y28.6106 
N18030 G01 X-57.9599 Y28.6336 
N18040 G01 X-58.0689 Y28.6788 
N18050 G01 X-58.1671 Y28.7444 
N18060 G01 X-59.4371 Y30.0144 
N18070 G01 X-59.5206 Y30.0979 
N18080 G01 X-59.5862 Y30.1961 
N18090 G01 X-59.6314 Y30.3051 
N18100 G01 X-59.6544 Y30.4210 
N18110 G01 X-59.6544 Y38.1590 
N18120 G01 X-59.6314 Y38.2749 
N18130 G01 X-59.5862 Y38.3839 
N18140 G01 X-59.5206 Y38.4821 
N18150 G01 X-56.8971 Y41.1056 
N18160 G01 X-56.7989 Y41.1712 
N18170 G01 X-56.6898 Y41.2164 
N18180 G01 X-56.5740 Y41.2394 
N18190 G01 X-52.9533 Y41.2394 
N18200 G01 X-51.3994 Y42.7933 
N18210 G01 X-51.3994 Y49.2817 
N18220 G01 X-52.3174 Y50.1997 
N18230 G01 X-52.3277 Y50.1796 
N18240 G01 X-52.4372 Y50.0289 
N18250 G01 X-52.5689 Y49.8972 
N18260 G01 X-52.7196 Y49.7877 
N18270 G01 X-52.8856 Y49.7031 
N18280 G01 X-53.0628 Y49.6455 
N18290 G01 X-53.2468 Y49.6164 
N18300 G01 X-55.9732 Y49.6164 
N18310 G01 X-56.1572 Y49.6455 
N18320 G01 X-56.3344 Y49.7031 
N18330 G01 X-56.5004 Y49.7877 
N18340 G01 X-56.6511 Y49.8972 
N18350 G01 X-56.7828 Y50.0289 
N18360 G01 X-56.8923 Y50.1796 
N18370 G01 X-56.9030 Y50.2006 
N18380 G01 X-58.8067 Y50.2006 
N18390 G01 X-62.2656 Y46.7417 
N18400 G01 X-62.2656 Y25.6483 
N18410 G01 X-59.8594 Y23.2421 
N18420 G01 X-59.7938 Y23.1439 
N18430 G01 X-59.7486 Y23.0348 
N18440 G01 X-59.7256 Y22.9190 
N18450 G01 X-59.7256 Y15.1536 
N18460 G01 X-58.3268 Y15.1536 
N18470 G01 X-58.1428 Y15.1245 
N18480 G01 X-57.9656 Y15.0669 
N18490 G01 X-57.7996 Y14.9823 
N18500 G01 X-57.6489 Y14.8728 
N18510 G01 X-57.5172 Y14.7411 
N18520 G01 X-57.4077 Y14.5904 
N18530 G01 X-57.3231 Y14.4244 
N18540 G01 X-57.2655 Y14.2472 
N18550 G01 X-57.2364 Y14.0632 
N18560 G01 X-57.2364 Y13.8768 
N18570 G01 X-57.2655 Y13.6928 
N18580 G01 X-57.3231 Y13.5156 
N18590 G01 X-57.4077 Y13.3496 
N18600 G01 X-57.5172 Y13.1989 
N18610 G01 X-57.6489 Y13.0672 
N18620 G01 X-57.7996 Y12.9577 
N18630 G01 X-57.9656 Y12.8731 
N18640 G01 X-58.1428 Y12.8155 
N18650 G01 X-58.3268 Y12.7864 
N18660 G01 X-62.3232 Y12.7864 
N18670 G01 X-62.5072 Y12.8155 
N18680 G01 X-62.6844 Y12.8731 
N18690 G01 X-62.8504 Y12.9577 
N18700 G01 X-63.0011 Y13.0672 
N18710 G01 X-63.1328 Y13.1989 
N18720 G01 X-63.2423 Y13.3496 
N18730 G01 X-63.3269 Y13.5156 
N18740 G01 X-63.3845 Y13.6928 
N18750 G01 X-63.4136 Y13.8768 
N18760 G01 X-63.4136 Y14.0632 
N18770 G01 X-63.3845 Y14.2472 
N18780 G01 X-63.3269 Y14.4244 
N18790 G01 X-63.2423 Y14.5904 
N18800 G01 X-63.1328 Y14.7411 
N18810 G01 X-63.0011 Y14.8728 
N18820 G01 X-62.8504 Y14.9823 
N18830 G01 X-62.6844 Y15.0669 
N18840 G01 X-62.5072 Y15.1245 
N18850 G01 X-62.3232 Y15.1536 
N18860 G01 X-60.9244 Y15.1536 
N18870 G01 X-60.9244 Y22.6117 
N18880 G01 X-63.3306 Y25.0179 
N18890 G01 X-63.3962 Y25.1161 
N18900 G01 X-63.4414 Y25.2251 
N18910 G01 X-63.4644 Y25.3410 
N18920 G01 X-63.4644 Y27.3406 
N18930 G01 X-66.2870 Y27.3406 
N18940 G01 X-66.2977 Y27.3196 
N18950 G01 X-66.4072 Y27.1689 
N18960 G01 X-66.5389 Y27.0372 
N18970 G01 X-66.6896 Y26.9277 
N18980 G01 X-66.8556 Y26.8431 
N18990 G01 X-67.0328 Y26.7855 
N19000 G01 X-67.2168 Y26.7564 
N19010 G01 X-68.6732 Y26.7564 
N19020 G01 X-68.8572 Y26.7855 
N19030 G01 X-69.0344 Y26.8431 
N19040 G01 X-69.2004 Y26.9277 
N19050 G01 X-69.3511 Y27.0372 
N19060 G01 X-69.4828 Y27.1689 
N19070 G01 X-69.5923 Y27.3196 
N19080 G01 X-69.6769 Y27.4856 
N19090 G01 X-69.7345 Y27.6628 
N19100 G01 X-69.7636 Y27.8468 
N19110 G01 X-69.7636 Y28.0332 
N19120 G01 X-69.7345 Y28.2172 
N19130 G01 X-69.6769 Y28.3944 
N19140 G01 X-69.5923 Y28.5604 
N19150 G01 X-69.4828 Y28.7111 
N19160 G01 X-69.3511 Y28.8428 
N19170 G01 X-69.2004 Y28.9523 
N19180 G01 X-69.0344 Y29.0369 
N19190 G01 X-68.8572 Y29.0945 
N19200 G01 X-68.6732 Y29.1236 
N19210 G01 X-67.2168 Y29.1236 
N19220 G01 X-67.0328 Y29.0945 
N19230 G01 X-66.8556 Y29.0369 
N19240 G01 X-66.6896 Y28.9523 
N19250 G01 X-66.5389 Y28.8428 
N19260 G01 X-66.4072 Y28.7111 
N19270 G01 X-66.2977 Y28.5604 
N19280 G01 X-66.2870 Y28.5394 
N19290 G01 X-63.4644 Y28.5394 
N19300 G01 X-63.4644 Y47.0490 
N19310 G01 X-63.4414 Y47.1649 
N19320 G01 X-63.3962 Y47.2739 
N19330 G01 X-63.3306 Y47.3721 
N19340 G01 X-59.5206 Y51.1821 
N19350 G01 X-59.4371 Y51.2656 
N19360 G01 X-59.3389 Y51.3312 
N19370 G01 X-59.2298 Y51.3764 
N19380 G01 X-59.1140 Y51.3994 
N19390 G01 X-56.9030 Y51.3994 
N19400 G01 X-56.8923 Y51.4204 
N19410 G01 X-56.7828 Y51.5711 
N19420 G01 X-56.6511 Y51.7028 
N19430 G01 X-56.5004 Y51.8123 
N19440 G01 X-56.3344 Y51.8969 
N19450 G01 X-56.1572 Y51.9545 
N19460 G01 X-55.9732 Y51.9836 
N19470 G01 X-53.2468 Y51.9836 
N19480 G01 X-53.0628 Y51.9545 
N19490 G01 X-52.8856 Y51.8969 
N19500 G01 X-52.7196 Y51.8123 
N19510 G01 X-52.5689 Y51.7028 
N19520 G01 X-52.4372 Y51.5711 
N19530 G01 X-52.3277 Y51.4204 
N19540 G01 X-52.3170 Y51.3994 
N19550 G01 X-52.0110 Y51.3994 
N19560 G01 X-51.8951 Y51.3764 
N19570 G01 X-51.7861 Y51.3312 
N19580 G01 X-51.6879 Y51.2656 
N19590 G01 X-51.6044 Y51.1821 
N19600 G01 X-50.3344 Y49.9121 
N19610 G01 X-50.2688 Y49.8139 
N19620 G01 X-50.2236 Y49.7049 
N19630 G01 X-50.2006 Y49.5890 
N19640 G01 X-50.2006 Y42.4860 
N19650 G01 X-50.2236 Y42.3701 
N19660 G01 X-50.2688 Y42.2611 
N19670 G01 X-50.3344 Y42.1629 
N19680 G01 X-52.2394 Y40.2579 
N19690 G01 X-52.3229 Y40.1744 
N19700 G01 X-52.4211 Y40.1088 
N19710 G01 X-52.5301 Y40.0636 
N19720 G01 X-52.6460 Y40.0406 
N19730 G01 X-56.2667 Y40.0406 
N19740 G01 X-58.4556 Y37.8517 
N19750 G01 X-58.4556 Y30.7283 
N19760 G01 X-57.5367 Y29.8094 
N19770 G01 X-56.9030 Y29.8094 
N19780 G01 X-56.8923 Y29.8304 
N19790 G01 X-56.7828 Y29.9811 
N19800 G01 X-56.6511 Y30.1128 
N19810 G01 X-56.5004 Y30.2223 
N19820 G01 X-56.3344 Y30.3069 
N19830 G01 X-56.1572 Y30.3645 
N19840 G01 X-55.9732 Y30.3936 
N19850 G01 X-53.2468 Y30.3936 
N19860 G01 X-53.0628 Y30.3645 
N19870 G01 X-52.8856 Y30.3069 
N19880 G01 X-52.7196 Y30.2223 
N19890 G01 X-52.5689 Y30.1128 
N19900 G00 Z3.0000 
N19910 G00 X-52.3969 Y28.4504 
N19920 G01 Z-0.1000 F254.00 
N19930 G01 X-52.3166 Y28.4837 F508.00 
N19940 G01 X-52.2297 Y28.4837 
N19950 G01 X-52.1495 Y28.4504 
N19960 G01 X-52.0880 Y28.3890 
N19970 G01 X-52.0548 Y28.3087 
N19980 G01 X-52.0548 Y26.7691 
N19990 G01 X-52.0507 Y26.7432 
N20000 G01 X-52.0548 Y26.7261 
N20010 G01 X-52.0548 Y26.6139 
N20020 G01 X-52.0507 Y26.5968 
N20030 G01 X-52.0548 Y26.5709 
N20040 G01 X-52.0548 Y21.6891 
N20050 G01 X-52.0507 Y21.6632 
N20060 G01 X-52.0548 Y21.6461 
N20070 G01 X-52.0548 Y21.5339 
N20080 G01 X-52.0507 Y21.5168 
N20090 G01 X-52.0548 Y21.4909 
N20100 G01 X-52.0548 Y15.5437 
N20110 G01 X-52.0880 Y15.4635 
N20120 G01 X-52.1495 Y15.4020 
N20130 G01 X-55.4685 Y12.0830 
N20140 G01 X-55.5487 Y12.0498 
N20150 G01 X-57.2901 Y12.0498 
N20160 G01 X-57.3704 Y12.0830 
N20170 G01 X-57.4318 Y12.1445 
N20180 G01 X-57.7380 Y12.4507 
N20190 G01 X-57.8126 Y12.4816 
N20200 G01 X-57.8929 Y12.5148 
N20210 G01 X-57.9534 Y12.5753 
N20220 G01 X-57.9734 Y12.6223 
N20230 G01 X-57.9876 Y12.6565 
N20240 G01 X-57.9876 Y12.7435 
N20250 G01 X-57.9543 Y12.8237 
N20260 G01 X-57.8938 Y12.8842 
N20270 G01 X-57.8456 Y12.9047 
N20280 G01 X-57.8126 Y12.9184 
N20290 G01 X-57.7380 Y12.9493 
N20300 G01 X-57.3993 Y13.2880 
N20310 G01 X-57.2160 Y13.7305 
N20320 G01 X-57.2160 Y14.2095 
N20330 G01 X-57.3993 Y14.6520 
N20340 G01 X-57.7380 Y14.9907 
N20350 G01 X-58.1805 Y15.1740 
N20360 G01 X-59.5303 Y15.1740 
N20370 G01 X-59.6105 Y15.2072 
N20380 G01 X-59.6720 Y15.2687 
N20390 G01 X-59.7052 Y15.3489 
N20400 G01 X-59.7052 Y22.9833 
N20410 G01 X-59.7996 Y23.2111 
N20420 G01 X-62.2120 Y25.6235 
N20430 G01 X-62.2452 Y25.7037 
N20440 G01 X-62.2452 Y27.2299 
N20450 G01 X-62.2120 Y27.3101 
N20460 G01 X-62.1505 Y27.3716 
N20470 G01 X-62.0703 Y27.4048 
N20480 G01 X-61.9833 Y27.4048 
N20490 G01 X-61.9031 Y27.3716 
N20500 G01 X-61.8416 Y27.3101 
N20510 G01 X-58.1361 Y23.6046 
N20520 G01 X-57.9083 Y23.5102 
N20530 G01 X-57.0099 Y23.5102 
N20540 G01 X-56.9296 Y23.4770 
N20550 G01 X-56.8682 Y23.4155 
N20560 G01 X-56.5620 Y23.1093 
N20570 G01 X-56.1195 Y22.9260 
N20580 G01 X-53.7355 Y22.9260 
N20590 G01 X-53.2930 Y23.1093 
N20600 G01 X-53.0236 Y23.3788 
N20610 G01 X-52.9631 Y23.4393 
N20620 G01 X-52.9272 Y23.4547 
N20630 G01 X-52.8818 Y23.4735 
N20640 G01 X-52.8772 Y23.4754 
N20650 G01 X-52.6600 Y23.6926 
N20660 G01 X-52.5424 Y23.9764 
N20670 G01 X-52.5424 Y24.2836 
N20680 G01 X-52.6600 Y24.5674 
N20690 G01 X-52.8772 Y24.7846 
N20700 G01 X-52.8818 Y24.7865 
N20710 G01 X-52.9258 Y24.8047 
N20720 G01 X-52.9621 Y24.8198 
N20730 G01 X-53.0236 Y24.8812 
N20740 G01 X-53.2930 Y25.1507 
N20750 G01 X-53.7355 Y25.3340 
N20760 G01 X-56.1195 Y25.3340 
N20770 G01 X-56.5620 Y25.1507 
N20780 G01 X-56.9296 Y24.7830 
N20790 G01 X-57.0099 Y24.7498 
N20800 G01 X-57.4813 Y24.7498 
N20810 G01 X-57.5615 Y24.7830 
N20820 G01 X-57.6230 Y24.8445 
N20830 G01 X-60.9420 Y28.1635 
N20840 G01 X-60.9752 Y28.2437 
N20850 G01 X-60.9752 Y40.3363 
N20860 G01 X-60.9420 Y40.4165 
N20870 G01 X-56.7032 Y44.6553 
N20880 G01 X-56.6229 Y44.6886 
N20890 G01 X-56.5360 Y44.6886 
N20900 G01 X-56.5332 Y44.6874 
N20910 G01 X-56.1195 Y44.5160 
N20920 G01 X-53.1005 Y44.5160 
N20930 G01 X-52.6580 Y44.6993 
N20940 G01 X-52.3193 Y45.0380 
N20950 G01 X-52.1360 Y45.4805 
N20960 G01 X-52.1360 Y45.9595 
N20970 G01 X-52.3193 Y46.4020 
N20980 G01 X-52.6580 Y46.7407 
N20990 G01 X-52.7326 Y46.7716 
N21000 G01 X-52.7637 Y46.7844 
N21010 G01 X-52.8129 Y46.8048 
N21020 G01 X-52.8743 Y46.8663 
N21030 G01 X-52.9076 Y46.9465 
N21040 G01 X-52.9076 Y47.0334 
N21050 G01 X-52.8942 Y47.0658 
N21060 G01 X-52.8743 Y47.1137 
N21070 G01 X-52.8129 Y47.1752 
N21080 G01 X-52.7326 Y47.2084 
N21090 G01 X-52.6580 Y47.2393 
N21100 G01 X-52.3193 Y47.5780 
N21110 G01 X-52.1360 Y48.0205 
N21120 G01 X-52.1360 Y48.4995 
N21130 G01 X-52.3193 Y48.9420 
N21140 G01 X-52.6580 Y49.2807 
N21150 G01 X-52.7326 Y49.3116 
N21160 G01 X-52.8129 Y49.3448 
N21170 G01 X-52.8734 Y49.4053 
N21180 G01 X-52.8934 Y49.4523 
N21190 G01 X-52.9076 Y49.4865 
N21200 G01 X-52.9076 Y49.5735 
N21210 G01 X-52.8743 Y49.6537 
N21220 G01 X-52.8138 Y49.7142 
N21230 G01 X-52.7656 Y49.7347 
N21240 G01 X-52.7326 Y49.7484 
N21250 G01 X-52.6580 Y49.7793 
N21260 G01 X-52.4156 Y50.0217 
N21270 G01 X-52.3354 Y50.0550 
N21280 G01 X-52.2485 Y50.0550 
N21290 G01 X-52.1682 Y50.0217 
N21300 G01 X-52.1067 Y49.9603 
N21310 G01 X-51.4530 Y49.3065 
N21320 G01 X-51.4198 Y49.2263 
N21330 G01 X-51.4198 Y42.8487 
N21340 G01 X-51.4530 Y42.7685 
N21350 G01 X-51.5145 Y42.7070 
N21360 G01 X-52.8670 Y41.3545 
N21370 G01 X-52.9285 Y41.2930 
N21380 G01 X-53.0087 Y41.2598 
N21390 G01 X-56.6383 Y41.2598 
N21400 G01 X-56.8661 Y41.1654 
N21410 G01 X-59.5804 Y38.4511 
N21420 G01 X-59.6748 Y38.2233 
N21430 G01 X-59.6748 Y30.3567 
N21440 G01 X-59.5804 Y30.1289 
N21450 G01 X-59.3446 Y29.8931 
N21460 G01 X-58.1361 Y28.6846 
N21470 G01 X-57.9083 Y28.5902 
N21480 G01 X-57.0099 Y28.5902 
N21490 G01 X-56.9296 Y28.5570 
N21500 G01 X-56.8682 Y28.4955 
N21510 G01 X-56.5620 Y28.1893 
N21520 G01 X-56.1195 Y28.0060 
N21530 G01 X-53.1005 Y28.0060 
N21540 G01 X-52.6580 Y28.1893 
N21550 G01 X-52.3969 Y28.4504 
N21560 G00 Z3.0000 
N21570 G00 X-52.6869 Y27.2061 
N21580 G01 Z-0.1000 F254.00 
N21590 G01 X-52.7785 Y27.2977 F508.00 
N21600 G01 X-52.8833 Y27.3739 
N21610 G01 X-52.9987 Y27.4327 
N21620 G01 X-53.1219 Y27.4727 
N21630 G01 X-53.2498 Y27.4930 
N21640 G01 X-53.6804 Y27.4930 
N21650 G01 X-53.6804 Y27.4218 
N21660 G01 X-53.2405 Y27.4218 
N21670 G01 X-53.0953 Y27.3929 
N21680 G01 X-52.9585 Y27.3363 
N21690 G01 X-52.8353 Y27.2540 
N21700 G01 X-52.7306 Y27.1493 
N21710 G01 X-52.6483 Y27.0261 
N21720 G01 X-52.6229 Y26.9646 
N21730 G01 X-52.5450 Y26.9646 
N21740 G01 X-52.5519 Y26.9859 
N21750 G01 X-52.6107 Y27.1013 
N21760 G01 X-52.6869 Y27.2061 
N21770 G00 Z3.0000 
N21780 G00 X-52.6229 Y26.3754 
N21790 G01 Z-0.1000 F254.00 
N21800 G01 X-52.6483 Y26.3139 F508.00 
N21810 G01 X-52.7306 Y26.1907 
N21820 G01 X-52.8353 Y26.0860 
N21830 G01 X-52.9585 Y26.0037 
N21840 G01 X-53.0953 Y25.9471 
N21850 G01 X-53.2405 Y25.9182 
N21860 G01 X-53.6804 Y25.9182 
N21870 G01 X-53.6804 Y25.8470 
N21880 G01 X-53.2498 Y25.8470 
N21890 G01 X-53.1219 Y25.8673 
N21900 G01 X-52.9987 Y25.9073 
N21910 G01 X-52.8833 Y25.9661 
N21920 G01 X-52.7785 Y26.0423 
N21930 G01 X-52.6869 Y26.1339 
N21940 G01 X-52.6107 Y26.2387 
N21950 G01 X-52.5519 Y26.3541 
N21960 G01 X-52.5450 Y26.3754 
N21970 G01 X-52.6229 Y26.3754 
N21980 G00 Z3.0000 
N21990 G00 X-52.8353 Y24.7140 
N22000 G01 Z-0.1000 F254.00 
N22010 G01 X-52.7306 Y24.6093 F508.00 
N22020 G01 X-52.6483 Y24.4861 
N22030 G01 X-52.5917 Y24.3493 
N22040 G01 X-52.5628 Y24.2040 
N22050 G01 X-52.5628 Y24.0559 
N22060 G01 X-52.5917 Y23.9107 
N22070 G01 X-52.6483 Y23.7739 
N22080 G01 X-52.7306 Y23.6507 
N22090 G01 X-52.8353 Y23.5460 
N22100 G01 X-52.9585 Y23.4637 
N22110 G01 X-53.0122 Y23.4415 
N22120 G01 X-53.0722 Y23.3589 
N22130 G01 X-53.2039 Y23.2272 
N22140 G01 X-53.3546 Y23.1177 
N22150 G01 X-53.5206 Y23.0331 
N22160 G01 X-53.6978 Y22.9755 
N22170 G01 X-53.8818 Y22.9464 
N22180 G01 X-55.9732 Y22.9464 
N22190 G01 X-56.1572 Y22.9755 
N22200 G01 X-56.3344 Y23.0331 
N22210 G01 X-56.5004 Y23.1177 
N22220 G01 X-56.6511 Y23.2272 
N22230 G01 X-56.7828 Y23.3589 
N22240 G01 X-56.8923 Y23.5096 
N22250 G01 X-56.9030 Y23.5306 
N22260 G01 X-57.8440 Y23.5306 
N22270 G01 X-57.9599 Y23.5536 
N22280 G01 X-58.0689 Y23.5988 
N22290 G01 X-58.1671 Y23.6644 
N22300 G01 X-61.9771 Y27.4744 
N22310 G01 X-62.0606 Y27.5579 
N22320 G01 X-62.1262 Y27.6561 
N22330 G01 X-62.1714 Y27.7651 
N22340 G01 X-62.1944 Y27.8810 
N22350 G01 X-62.1944 Y40.6990 
N22360 G01 X-62.1714 Y40.8148 
N22370 G01 X-62.1262 Y40.9239 
N22380 G01 X-62.0606 Y41.0221 
N22390 G01 X-57.0099 Y46.0728 
N22400 G01 X-56.9769 Y46.1744 
N22410 G01 X-56.8923 Y46.3404 
N22420 G01 X-56.7828 Y46.4911 
N22430 G01 X-56.6511 Y46.6228 
N22440 G01 X-56.5004 Y46.7323 
N22450 G01 X-56.3344 Y46.8169 
N22460 G01 X-56.1572 Y46.8745 
N22470 G01 X-55.9732 Y46.9036 
N22480 G01 X-53.2468 Y46.9036 
N22490 G01 X-53.0628 Y46.8745 
N22500 G01 X-52.8856 Y46.8169 
N22510 G01 X-52.7196 Y46.7323 
N22520 G01 X-52.5689 Y46.6228 
N22530 G01 X-52.4372 Y46.4911 
N22540 G01 X-52.3277 Y46.3404 
N22550 G01 X-52.2431 Y46.1744 
N22560 G01 X-52.1855 Y45.9972 
N22570 G01 X-52.1564 Y45.8132 
N22580 G01 X-52.1564 Y45.6268 
N22590 G01 X-52.1855 Y45.4428 
N22600 G01 X-52.2431 Y45.2656 
N22610 G01 X-52.3277 Y45.0996 
N22620 G01 X-52.4372 Y44.9489 
N22630 G01 X-52.5689 Y44.8172 
N22640 G01 X-52.7196 Y44.7077 
N22650 G01 X-52.8856 Y44.6231 
N22660 G01 X-53.0628 Y44.5655 
N22670 G01 X-53.2468 Y44.5364 
N22680 G01 X-55.9732 Y44.5364 
N22690 G01 X-56.1572 Y44.5655 
N22700 G01 X-56.3344 Y44.6231 
N22710 G01 X-56.5004 Y44.7077 
N22720 G01 X-56.6042 Y44.7831 
N22730 G01 X-60.9956 Y40.3917 
N22740 G01 X-60.9956 Y28.1883 
N22750 G01 X-57.5367 Y24.7294 
N22760 G01 X-56.9030 Y24.7294 
N22770 G01 X-56.8923 Y24.7504 
N22780 G01 X-56.7828 Y24.9011 
N22790 G01 X-56.6511 Y25.0328 
N22800 G01 X-56.5004 Y25.1423 
N22810 G01 X-56.3344 Y25.2269 
N22820 G01 X-56.1572 Y25.2845 
N22830 G01 X-55.9732 Y25.3136 
N22840 G01 X-53.8818 Y25.3136 
N22850 G01 X-53.6978 Y25.2845 
N22860 G01 X-53.5206 Y25.2269 
N22870 G01 X-53.3546 Y25.1423 
N22880 G01 X-53.2039 Y25.0328 
N22890 G01 X-53.0722 Y24.9011 
N22900 G01 X-53.0122 Y24.8185 
N22910 G01 X-52.9585 Y24.7963 
N22920 G01 X-52.8353 Y24.7140 
N22930 G00 Z3.0000 
N22940 G00 X-52.8833 Y22.2938 
N22950 G01 Z-0.1000 F254.00 
N22960 G01 X-52.9987 Y22.3527 F508.00 
N22970 G01 X-53.1219 Y22.3927 
N22980 G01 X-53.2498 Y22.4130 
N22990 G01 X-53.6804 Y22.4130 
N23000 G01 X-53.6804 Y22.3418 
N23010 G01 X-53.2405 Y22.3418 
N23020 G01 X-53.0953 Y22.3129 
N23030 G01 X-52.9585 Y22.2563 
N23040 G01 X-52.8353 Y22.1740 
N23050 G01 X-52.7306 Y22.0693 
N23060 G01 X-52.6483 Y21.9461 
N23070 G01 X-52.6229 Y21.8846 
N23080 G01 X-52.5450 Y21.8846 
N23090 G01 X-52.5519 Y21.9059 
N23100 G01 X-52.6107 Y22.0213 
N23110 G01 X-52.6869 Y22.1261 
N23120 G01 X-52.7785 Y22.2177 
N23130 G01 X-52.8833 Y22.2938 
N23140 G00 Z3.0000 
N23150 G00 X-52.6229 Y21.2954 
N23160 G01 Z-0.1000 F254.00 
N23170 G01 X-52.6483 Y21.2339 F508.00 
N23180 G01 X-52.7306 Y21.1107 
N23190 G01 X-52.8353 Y21.0060 
N23200 G01 X-52.9585 Y20.9237 
N23210 G01 X-53.0953 Y20.8671 
N23220 G01 X-53.2405 Y20.8382 
N23230 G01 X-53.6804 Y20.8382 
N23240 G01 X-53.6804 Y20.7670 
N23250 G01 X-53.2498 Y20.7670 
N23260 G01 X-53.1219 Y20.7873 
N23270 G01 X-52.9987 Y20.8273 
N23280 G01 X-52.8833 Y20.8861 
N23290 G01 X-52.7785 Y20.9623 
N23300 G01 X-52.6869 Y21.0539 
N23310 G01 X-52.6107 Y21.1587 
N23320 G01 X-52.5519 Y21.2741 
N23330 G01 X-52.5450 Y21.2954 
N23340 G01 X-52.6229 Y21.2954 
N23350 G00 Z3.0000 
N23360 G00 X-54.2696 Y20.8382 
N23370 G01 Z-0.1000 F254.00 
N23380 G01 X-54.7094 Y20.8382 F508.00 
N23390 G01 X-54.8547 Y20.8671 
N23400 G01 X-54.9915 Y20.9237 
N23410 G01 X-55.1147 Y21.0060 
N23420 G01 X-55.2194 Y21.1107 
N23430 G01 X-55.3017 Y21.2339 
N23440 G01 X-55.3271 Y21.2954 
N23450 G01 X-55.4050 Y21.2954 
N23460 G01 X-55.3981 Y21.2741 
N23470 G01 X-55.3392 Y21.1587 
N23480 G01 X-55.2631 Y21.0539 
N23490 G01 X-55.1715 Y20.9623 
N23500 G01 X-55.0667 Y20.8861 
N23510 G01 X-54.9513 Y20.8273 
N23520 G01 X-54.8281 Y20.7873 
N23530 G01 X-54.7002 Y20.7670 
N23540 G01 X-54.2696 Y20.7670 
N23550 G01 X-54.2696 Y20.8382 
N23560 G00 Z3.0000 
N23570 G00 X-54.2696 Y22.3418 
N23580 G01 Z-0.1000 F254.00 
N23590 G01 X-54.2696 Y22.4130 F508.00 
N23600 G01 X-54.7002 Y22.4130 
N23610 G01 X-54.8281 Y22.3927 
N23620 G01 X-54.9513 Y22.3527 
N23630 G01 X-55.0667 Y22.2938 
N23640 G01 X-55.1715 Y22.2177 
N23650 G01 X-55.2631 Y22.1261 
N23660 G01 X-55.3392 Y22.0213 
N23670 G01 X-55.3981 Y21.9059 
N23680 G01 X-55.4050 Y21.8846 
N23690 G01 X-55.3271 Y21.8846 
N23700 G01 X-55.3017 Y21.9461 
N23710 G01 X-55.2194 Y22.0693 
N23720 G01 X-55.1147 Y22.1740 
N23730 G01 X-54.9915 Y22.2563 
N23740 G01 X-54.8547 Y22.3129 
N23750 G01 X-54.7094 Y22.3418 
N23760 G01 X-54.2696 Y22.3418 
N23770 G00 Z3.0000 
N23780 G00 X-54.2696 Y25.8470 
N23790 G01 Z-0.1000 F254.00 
N23800 G01 X-54.2696 Y25.9182 F508.00 
N23810 G01 X-54.7094 Y25.9182 
N23820 G01 X-54.8547 Y25.9471 
N23830 G01 X-54.9915 Y26.0037 
N23840 G01 X-55.1147 Y26.0860 
N23850 G01 X-55.2194 Y26.1907 
N23860 G01 X-55.3017 Y26.3139 
N23870 G01 X-55.3271 Y26.3754 
N23880 G01 X-55.4050 Y26.3754 
N23890 G01 X-55.3981 Y26.3541 
N23900 G01 X-55.3392 Y26.2387 
N23910 G01 X-55.2631 Y26.1339 
N23920 G01 X-55.1715 Y26.0423 
N23930 G01 X-55.0667 Y25.9661 
N23940 G01 X-54.9513 Y25.9073 
N23950 G01 X-54.8281 Y25.8673 
N23960 G01 X-54.7002 Y25.8470 
N23970 G01 X-54.2696 Y25.8470 
N23980 G00 Z3.0000 
N23990 G00 X-54.2696 Y27.4218 
N24000 G01 Z-0.1000 F254.00 
N24010 G01 X-54.2696 Y27.4930 F508.00 
N24020 G01 X-54.7002 Y27.4930 
N24030 G01 X-54.8281 Y27.4727 
N24040 G01 X-54.9513 Y27.4327 
N24050 G01 X-55.0667 Y27.3739 
N24060 G01 X-55.1715 Y27.2977 
N24070 G01 X-55.2631 Y27.2061 
N24080 G01 X-55.3392 Y27.1013 
N24090 G01 X-55.3981 Y26.9859 
N24100 G01 X-55.4050 Y26.9646 
N24110 G01 X-55.3271 Y26.9646 
N24120 G01 X-55.3017 Y27.0261 
N24130 G01 X-55.2194 Y27.1493 
N24140 G01 X-55.1147 Y27.2540 
N24150 G01 X-54.9915 Y27.3363 
N24160 G01 X-54.8547 Y27.3929 
N24170 G01 X-54.7094 Y27.4218 
N24180 G01 X-54.2696 Y27.4218 
N24190 G00 Z3.0000 
N24200 G00 X-53.2468 Y35.6464 
N24210 G01 Z-0.1000 F254.00 
N24220 G01 X-55.9732 Y35.6464 F508.00 
N24230 G01 X-56.1572 Y35.6755 
N24240 G01 X-56.3344 Y35.7331 
N24250 G01 X-56.5004 Y35.8177 
N24260 G01 X-56.6511 Y35.9272 
N24270 G01 X-56.7828 Y36.0589 
N24280 G01 X-56.8923 Y36.2096 
N24290 G01 X-56.9769 Y36.3756 
N24300 G01 X-57.0345 Y36.5528 
N24310 G01 X-57.0636 Y36.7368 
N24320 G01 X-57.0636 Y36.9232 
N24330 G01 X-57.0345 Y37.1072 
N24340 G01 X-56.9769 Y37.2844 
N24350 G01 X-56.8923 Y37.4504 
N24360 G01 X-56.7828 Y37.6011 
N24370 G01 X-56.6511 Y37.7328 
N24380 G01 X-56.5004 Y37.8423 
N24390 G01 X-56.3344 Y37.9269 
N24400 G01 X-56.1572 Y37.9845 
N24410 G01 X-55.9732 Y38.0136 
N24420 G01 X-53.2468 Y38.0136 
N24430 G01 X-53.0628 Y37.9845 
N24440 G01 X-52.8856 Y37.9269 
N24450 G01 X-52.7196 Y37.8423 
N24460 G01 X-52.5689 Y37.7328 
N24470 G01 X-52.4372 Y37.6011 
N24480 G01 X-52.3277 Y37.4504 
N24490 G01 X-52.3170 Y37.4294 
N24500 G01 X-51.3760 Y37.4294 
N24510 G01 X-51.2601 Y37.4064 
N24520 G01 X-51.1511 Y37.3612 
N24530 G01 X-51.0529 Y37.2956 
N24540 G01 X-50.9694 Y37.2121 
N24550 G01 X-49.7829 Y36.0256 
N24560 G01 X-49.6994 Y35.9421 
N24570 G01 X-49.6338 Y35.8439 
N24580 G01 X-49.5886 Y35.7349 
N24590 G01 X-49.5656 Y35.6190 
N24600 G01 X-49.5656 Y12.8990 
N24610 G01 X-49.4425 Y12.8480 
N24620 G01 X-49.2296 Y12.7175 
N24630 G01 X-49.0397 Y12.5553 
N24640 G01 X-48.8775 Y12.3654 
N24650 G01 X-48.7470 Y12.1525 
N24660 G01 X-48.6514 Y11.9218 
N24670 G01 X-48.5932 Y11.6790 
N24680 G01 X-48.5736 Y11.4300 
N24690 G01 X-48.5932 Y11.1810 
N24700 G01 X-48.6417 Y10.9790 
N24710 G01 X-43.6047 Y6.9494 
N24720 G01 X-42.9330 Y6.9494 
N24730 G01 X-42.9223 Y6.9704 
N24740 G01 X-42.8128 Y7.1211 
N24750 G01 X-42.6811 Y7.2528 
N24760 G01 X-42.5304 Y7.3623 
N24770 G01 X-42.3644 Y7.4469 
N24780 G01 X-42.1872 Y7.5045 
N24790 G01 X-42.0032 Y7.5336 
N24800 G01 X-38.0068 Y7.5336 
N24810 G01 X-37.8228 Y7.5045 
N24820 G01 X-37.6456 Y7.4469 
N24830 G01 X-37.4796 Y7.3623 
N24840 G01 X-37.3289 Y7.2528 
N24850 G01 X-37.1972 Y7.1211 
N24860 G01 X-37.0877 Y6.9704 
N24870 G01 X-37.0770 Y6.9494 
N24880 G01 X-23.7433 Y6.9494 
N24890 G01 X-19.0144 Y11.6783 
N24900 G01 X-19.0144 Y48.9306 
N24910 G01 X-31.1740 Y48.9306 
N24920 G01 X-31.2899 Y48.9536 
N24930 G01 X-31.3989 Y48.9988 
N24940 G01 X-31.4971 Y49.0644 
N24950 G01 X-31.5806 Y49.1479 
N24960 G01 X-36.5771 Y54.1444 
N24970 G01 X-36.6606 Y54.2279 
N24980 G01 X-36.7262 Y54.3261 
N24990 G01 X-36.7714 Y54.4351 
N25000 G01 X-36.7944 Y54.5510 
N25010 G01 X-36.7944 Y59.4417 
N25020 G01 X-37.7124 Y60.3597 
N25030 G01 X-37.7227 Y60.3396 
N25040 G01 X-37.8322 Y60.1889 
N25050 G01 X-37.9639 Y60.0572 
N25060 G01 X-38.1146 Y59.9477 
N25070 G01 X-38.2806 Y59.8631 
N25080 G01 X-38.4578 Y59.8055 
N25090 G01 X-38.6418 Y59.7764 
N25100 G01 X-41.3682 Y59.7764 
N25110 G01 X-41.5522 Y59.8055 
N25120 G01 X-41.7294 Y59.8631 
N25130 G01 X-41.8954 Y59.9477 
N25140 G01 X-42.0461 Y60.0572 
N25150 G01 X-42.1778 Y60.1889 
N25160 G01 X-42.2873 Y60.3396 
N25170 G01 X-42.3719 Y60.5056 
N25180 G01 X-42.4295 Y60.6828 
N25190 G01 X-42.4586 Y60.8668 
N25200 G01 X-42.4586 Y61.0532 
N25210 G01 X-42.4295 Y61.2372 
N25220 G01 X-42.3719 Y61.4144 
N25230 G01 X-42.2873 Y61.5804 
N25240 G01 X-42.1778 Y61.7311 
N25250 G01 X-42.0461 Y61.8628 
N25260 G01 X-41.8954 Y61.9723 
N25270 G01 X-41.7294 Y62.0569 
N25280 G01 X-41.5522 Y62.1145 
N25290 G01 X-41.3682 Y62.1436 
N25300 G01 X-38.6418 Y62.1436 
N25310 G01 X-38.4578 Y62.1145 
N25320 G01 X-38.2806 Y62.0569 
N25330 G01 X-38.1146 Y61.9723 
N25340 G01 X-37.9639 Y61.8628 
N25350 G01 X-37.8322 Y61.7311 
N25360 G01 X-37.7227 Y61.5804 
N25370 G01 X-37.7120 Y61.5594 
N25380 G01 X-37.4060 Y61.5594 
N25390 G01 X-37.2901 Y61.5364 
N25400 G01 X-37.1811 Y61.4912 
N25410 G01 X-37.0829 Y61.4256 
N25420 G01 X-35.7294 Y60.0721 
N25430 G01 X-35.6638 Y59.9739 
N25440 G01 X-35.6186 Y59.8648 
N25450 G01 X-35.5956 Y59.7490 
N25460 G01 X-35.5956 Y54.8583 
N25470 G01 X-30.8667 Y50.1294 
N25480 G01 X-19.0144 Y50.1294 
N25490 G01 X-19.0144 Y55.4920 
N25500 G01 X-19.0354 Y55.5027 
N25510 G01 X-19.1861 Y55.6122 
N25520 G01 X-19.3178 Y55.7439 
N25530 G01 X-19.4273 Y55.8946 
N25540 G01 X-19.5119 Y56.0606 
N25550 G01 X-19.5695 Y56.2378 
N25560 G01 X-19.5805 Y56.3076 
N25570 G01 X-19.6340 Y56.3894 
N25580 G01 X-19.6309 Y56.3786 
N25590 G01 X-19.6190 Y56.3498 
N25600 G01 X-19.6190 Y56.3372 
N25610 G01 X-19.6155 Y56.3251 
N25620 G01 X-19.6190 Y56.2941 
N25630 G01 X-19.6190 Y56.2755 
N25640 G01 X-19.4357 Y55.8330 
N25650 G01 X-19.0680 Y55.4654 
N25660 G01 X-19.0348 Y55.3851 
N25670 G01 X-19.0348 Y50.3247 
N25680 G01 X-19.0680 Y50.2445 
N25690 G01 X-19.1295 Y50.1830 
N25700 G01 X-19.2097 Y50.1498 
N25710 G01 X-30.8113 Y50.1498 
N25720 G01 X-30.8915 Y50.1830 
N25730 G01 X-30.9530 Y50.2445 
N25740 G01 X-35.5420 Y54.8335 
N25750 G01 X-35.5752 Y54.9137 
N25760 G01 X-35.5752 Y59.8133 
N25770 G01 X-35.6696 Y60.0411 
N25780 G01 X-37.1139 Y61.4854 
N25790 G01 X-37.3417 Y61.5798 
N25800 G01 X-37.6051 Y61.5798 
N25810 G01 X-37.6854 Y61.6130 
N25820 G01 X-37.7468 Y61.6745 
N25830 G01 X-38.0530 Y61.9807 
N25840 G01 X-38.1276 Y62.0116 
N25850 G01 X-38.2079 Y62.0448 
N25860 G01 X-38.2684 Y62.1053 
N25870 G01 X-38.2884 Y62.1523 
N25880 G01 X-38.3026 Y62.1865 
N25890 G01 X-38.3026 Y62.2735 
N25900 G01 X-38.2693 Y62.3537 
N25910 G01 X-38.2088 Y62.4142 
N25920 G01 X-38.1606 Y62.4347 
N25930 G01 X-38.1276 Y62.4484 
N25940 G01 X-38.0530 Y62.4793 
N25950 G01 X-37.6854 Y62.8470 
N25960 G01 X-37.6051 Y62.8802 
N25970 G01 X-36.4987 Y62.8802 
N25980 G01 X-36.4185 Y62.8470 
N25990 G01 X-36.3570 Y62.7855 
N26000 G01 X-34.3080 Y60.7365 
N26010 G01 X-34.2748 Y60.6563 
N26020 G01 X-34.2748 Y59.5499 
N26030 G01 X-34.3080 Y59.4696 
N26040 G01 X-34.3695 Y59.4082 
N26050 G01 X-34.6757 Y59.1020 
N26060 G01 X-34.8590 Y58.6595 
N26070 G01 X-34.8590 Y58.0059 
N26080 G01 X-34.8555 Y57.9749 
N26090 G01 X-34.8590 Y57.9628 
N26100 G01 X-34.8590 Y57.9502 
N26110 G01 X-34.8709 Y57.9214 
N26120 G01 X-34.8740 Y57.9106 
N26130 G01 X-34.8386 Y57.9647 
N26140 G01 X-34.8386 Y58.5132 
N26150 G01 X-34.8095 Y58.6972 
N26160 G01 X-34.7519 Y58.8744 
N26170 G01 X-34.6673 Y59.0404 
N26180 G01 X-34.5578 Y59.1911 
N26190 G01 X-34.4261 Y59.3228 
N26200 G01 X-34.2754 Y59.4323 
N26210 G01 X-34.2544 Y59.4430 
N26220 G01 X-34.2544 Y60.7117 
N26230 G01 X-36.4433 Y62.9006 
N26240 G01 X-37.7120 Y62.9006 
N26250 G01 X-37.7227 Y62.8796 
N26260 G01 X-37.8322 Y62.7289 
N26270 G01 X-37.9639 Y62.5972 
N26280 G01 X-38.1146 Y62.4877 
N26290 G01 X-38.2806 Y62.4031 
N26300 G01 X-38.4578 Y62.3455 
N26310 G01 X-38.6418 Y62.3164 
N26320 G01 X-41.3682 Y62.3164 
N26330 G01 X-41.5522 Y62.3455 
N26340 G01 X-41.7294 Y62.4031 
N26350 G01 X-41.8954 Y62.4877 
N26360 G01 X-42.0461 Y62.5972 
N26370 G01 X-42.1778 Y62.7289 
N26380 G01 X-42.2873 Y62.8796 
N26390 G01 X-42.2976 Y62.8997 
N26400 G01 X-43.5131 Y61.6842 
N26410 G01 X-43.4377 Y61.5804 
N26420 G01 X-43.3531 Y61.4144 
N26430 G01 X-43.2955 Y61.2372 
N26440 G01 X-43.2664 Y61.0532 
N26450 G01 X-43.2664 Y60.8668 
N26460 G01 X-43.2955 Y60.6828 
N26470 G01 X-43.3531 Y60.5056 
N26480 G01 X-43.4377 Y60.3396 
N26490 G01 X-43.5472 Y60.1889 
N26500 G01 X-43.6789 Y60.0572 
N26510 G01 X-43.8296 Y59.9477 
N26520 G01 X-43.9956 Y59.8631 
N26530 G01 X-44.1728 Y59.8055 
N26540 G01 X-44.3568 Y59.7764 
N26550 G01 X-47.0832 Y59.7764 
N26560 G01 X-47.2672 Y59.8055 
N26570 G01 X-47.4444 Y59.8631 
N26580 G01 X-47.6104 Y59.9477 
N26590 G01 X-47.7611 Y60.0572 
N26600 G01 X-47.8928 Y60.1889 
N26610 G01 X-48.0023 Y60.3396 
N26620 G01 X-48.0869 Y60.5056 
N26630 G01 X-48.1445 Y60.6828 
N26640 G01 X-48.1736 Y60.8668 
N26650 G01 X-48.1736 Y61.0532 
N26660 G01 X-48.1445 Y61.2372 
N26670 G01 X-48.0869 Y61.4144 
N26680 G01 X-48.0023 Y61.5804 
N26690 G01 X-47.8928 Y61.7311 
N26700 G01 X-47.7611 Y61.8628 
N26710 G01 X-47.6104 Y61.9723 
N26720 G01 X-47.4444 Y62.0569 
N26730 G01 X-47.2672 Y62.1145 
N26740 G01 X-47.0832 Y62.1436 
N26750 G01 X-44.7491 Y62.1436 
N26760 G01 X-42.9271 Y63.9656 
N26770 G01 X-42.8289 Y64.0312 
N26780 G01 X-42.7199 Y64.0764 
N26790 G01 X-42.6040 Y64.0994 
N26800 G01 X-42.2980 Y64.0994 
N26810 G01 X-42.2873 Y64.1204 
N26820 G01 X-42.1778 Y64.2711 
N26830 G01 X-42.0461 Y64.4028 
N26840 G01 X-41.8954 Y64.5123 
N26850 G01 X-41.7294 Y64.5969 
N26860 G01 X-41.5522 Y64.6545 
N26870 G01 X-41.3682 Y64.6836 
N26880 G01 X-38.6418 Y64.6836 
N26890 G01 X-38.4578 Y64.6545 
N26900 G01 X-38.2806 Y64.5969 
N26910 G01 X-38.1146 Y64.5123 
N26920 G01 X-37.9639 Y64.4028 
N26930 G01 X-37.8322 Y64.2711 
N26940 G01 X-37.7227 Y64.1204 
N26950 G01 X-37.7120 Y64.0994 
N26960 G01 X-36.1360 Y64.0994 
N26970 G01 X-36.0201 Y64.0764 
N26980 G01 X-35.9111 Y64.0312 
N26990 G01 X-35.8129 Y63.9656 
N27000 G01 X-33.2729 Y61.4256 
N27010 G01 X-33.1894 Y61.3421 
N27020 G01 X-33.1238 Y61.2439 
N27030 G01 X-33.0786 Y61.1349 
N27040 G01 X-33.0556 Y61.0190 
N27050 G01 X-33.0556 Y59.4430 
N27060 G01 X-33.0346 Y59.4323 
N27070 G01 X-32.8839 Y59.3228 
N27080 G01 X-32.7522 Y59.1911 
N27090 G01 X-32.6427 Y59.0404 
N27100 G01 X-32.5581 Y58.8744 
N27110 G01 X-32.5005 Y58.6972 
N27120 G01 X-32.4714 Y58.5132 
N27130 G01 X-32.4714 Y57.9647 
N27140 G01 X-32.4360 Y57.9106 
N27150 G01 X-32.4391 Y57.9214 
N27160 G01 X-32.4510 Y57.9502 
N27170 G01 X-32.4510 Y57.9628 
N27180 G01 X-32.4545 Y57.9749 
N27190 G01 X-32.4510 Y58.0059 
N27200 G01 X-32.4510 Y58.6595 
N27210 G01 X-32.6343 Y59.1020 
N27220 G01 X-33.0020 Y59.4696 
N27230 G01 X-33.0352 Y59.5499 
N27240 G01 X-33.0352 Y61.0833 
N27250 G01 X-33.1296 Y61.3111 
N27260 G01 X-33.3654 Y61.5468 
N27270 G01 X-35.8439 Y64.0254 
N27280 G01 X-36.0717 Y64.1198 
N27290 G01 X-37.6051 Y64.1198 
N27300 G01 X-37.6854 Y64.1530 
N27310 G01 X-37.7468 Y64.2145 
N27320 G01 X-38.0530 Y64.5207 
N27330 G01 X-38.1276 Y64.5516 
N27340 G01 X-38.1587 Y64.5644 
N27350 G01 X-38.2079 Y64.5848 
N27360 G01 X-38.2693 Y64.6463 
N27370 G01 X-38.3026 Y64.7265 
N27380 G01 X-38.3026 Y64.8134 
N27390 G01 X-38.2892 Y64.8458 
N27400 G01 X-38.2693 Y64.8937 
N27410 G01 X-38.2079 Y64.9552 
N27420 G01 X-38.1276 Y64.9884 
N27430 G01 X-38.0530 Y65.0193 
N27440 G01 X-37.6854 Y65.3870 
N27450 G01 X-37.6051 Y65.4202 
N27460 G01 X-36.0549 Y65.4202 
N27470 G01 X-35.9746 Y65.3870 
N27480 G01 X-35.9132 Y65.3255 
N27490 G01 X-35.6070 Y65.0193 
N27500 G01 X-35.1645 Y64.8360 
N27510 G01 X-34.4497 Y64.8360 
N27520 G01 X-34.4437 Y64.8336 
N27530 G01 X-34.4730 Y64.8564 
N27540 G01 X-35.0182 Y64.8564 
N27550 G01 X-35.2022 Y64.8855 
N27560 G01 X-35.3794 Y64.9431 
N27570 G01 X-35.5454 Y65.0277 
N27580 G01 X-35.6961 Y65.1372 
N27590 G01 X-35.8278 Y65.2689 
N27600 G01 X-35.9373 Y65.4196 
N27610 G01 X-35.9480 Y65.4406 
N27620 G01 X-37.7120 Y65.4406 
N27630 G01 X-37.7227 Y65.4196 
N27640 G01 X-37.8322 Y65.2689 
N27650 G01 X-37.9639 Y65.1372 
N27660 G01 X-38.1146 Y65.0277 
N27670 G01 X-38.2806 Y64.9431 
N27680 G01 X-38.4578 Y64.8855 
N27690 G01 X-38.6418 Y64.8564 
N27700 G01 X-41.3682 Y64.8564 
N27710 G01 X-41.5522 Y64.8855 
N27720 G01 X-41.7294 Y64.9431 
N27730 G01 X-41.8954 Y65.0277 
N27740 G01 X-42.0461 Y65.1372 
N27750 G01 X-42.1778 Y65.2689 
N27760 G01 X-42.2873 Y65.4196 
N27770 G01 X-42.2980 Y65.4406 
N27780 G01 X-43.2390 Y65.4406 
N27790 G01 X-43.2632 Y65.4454 
N27800 G01 X-43.7014 Y65.4454 
N27810 G01 X-43.7350 Y65.4593 
N27820 G01 X-43.7607 Y65.4850 
N27830 G01 X-43.7746 Y65.5186 
N27840 G01 X-43.7746 Y65.9568 
N27850 G01 X-43.7794 Y65.9810 
N27860 G01 X-43.7794 Y66.0990 
N27870 G01 X-43.7746 Y66.1232 
N27880 G01 X-43.7746 Y66.5614 
N27890 G01 X-43.7607 Y66.5950 
N27900 G01 X-43.7350 Y66.6207 
N27910 G01 X-43.7014 Y66.6346 
N27920 G01 X-43.2632 Y66.6346 
N27930 G01 X-43.2390 Y66.6394 
N27940 G01 X-42.2980 Y66.6394 
N27950 G01 X-42.2873 Y66.6604 
N27960 G01 X-42.1778 Y66.8111 
N27970 G01 X-42.0461 Y66.9428 
N27980 G01 X-41.8954 Y67.0523 
N27990 G01 X-41.7294 Y67.1369 
N28000 G01 X-41.5522 Y67.1945 
N28010 G01 X-41.3682 Y67.2236 
N28020 G01 X-38.6418 Y67.2236 
N28030 G01 X-38.4578 Y67.1945 
N28040 G01 X-38.2806 Y67.1369 
N28050 G01 X-38.1146 Y67.0523 
N28060 G01 X-37.9639 Y66.9428 
N28070 G01 X-37.8322 Y66.8111 
N28080 G01 X-37.7227 Y66.6604 
N28090 G01 X-37.7120 Y66.6394 
N28100 G01 X-35.9480 Y66.6394 
N28110 G01 X-35.9373 Y66.6604 
N28120 G01 X-35.8278 Y66.8111 
N28130 G01 X-35.6961 Y66.9428 
N28140 G01 X-35.5454 Y67.0523 
N28150 G01 X-35.3794 Y67.1369 
N28160 G01 X-35.2022 Y67.1945 
N28170 G01 X-35.0182 Y67.2236 
N28180 G01 X-34.4730 Y67.2236 
N28190 G01 X-34.4469 Y67.2440 
N28200 G01 X-34.4706 Y67.2440 
N28210 G01 X-34.5079 Y67.2419 
N28220 G01 X-34.5138 Y67.2440 
N28230 G01 X-35.1645 Y67.2440 
N28240 G01 X-35.6070 Y67.0607 
N28250 G01 X-35.9746 Y66.6930 
N28260 G01 X-36.0549 Y66.6598 
N28270 G01 X-37.6051 Y66.6598 
N28280 G01 X-37.6854 Y66.6930 
N28290 G01 X-37.7468 Y66.7545 
N28300 G01 X-38.0530 Y67.0607 
N28310 G01 X-38.1276 Y67.0916 
N28320 G01 X-38.2079 Y67.1248 
N28330 G01 X-38.2684 Y67.1853 
N28340 G01 X-38.2884 Y67.2323 
N28350 G01 X-38.3026 Y67.2665 
N28360 G01 X-38.3026 Y67.3535 
N28370 G01 X-38.2693 Y67.4337 
N28380 G01 X-38.2088 Y67.4942 
N28390 G01 X-38.1606 Y67.5147 
N28400 G01 X-38.1276 Y67.5284 
N28410 G01 X-38.0530 Y67.5593 
N28420 G01 X-37.6854 Y67.9270 
N28430 G01 X-37.6051 Y67.9602 
N28440 G01 X-35.0294 Y67.9602 
N28450 G01 X-35.0078 Y67.9645 
N28460 G01 X-34.9864 Y67.9602 
N28470 G01 X-34.9645 Y67.9602 
N28480 G01 X-34.9442 Y67.9518 
N28490 G01 X-34.9257 Y67.9481 
N28500 G01 X-34.9065 Y67.9519 
N28510 G01 X-34.8863 Y67.9602 
N28520 G01 X-34.8643 Y67.9602 
N28530 G01 X-34.8426 Y67.9645 
N28540 G01 X-34.8213 Y67.9602 
N28550 G01 X-34.8017 Y67.9602 
N28560 G01 X-34.7843 Y67.9675 
N28570 G01 X-34.7659 Y67.9797 
N28580 G01 X-34.7445 Y67.9839 
N28590 G01 X-34.7244 Y67.9923 
N28600 G01 X-34.7023 Y67.9923 
N28610 G01 X-34.6838 Y67.9959 
N28620 G01 X-34.6675 Y68.0068 
N28630 G01 X-34.6521 Y68.0222 
N28640 G01 X-34.6317 Y68.0307 
N28650 G01 X-34.6134 Y68.0429 
N28660 G01 X-34.5920 Y68.0471 
N28670 G01 X-34.5739 Y68.0546 
N28680 G01 X-34.5606 Y68.0679 
N28690 G01 X-34.5483 Y68.0863 
N28700 G01 X-34.5302 Y68.0984 
N28710 G01 X-34.5147 Y68.1138 
N28720 G01 X-34.4944 Y68.1222 
N28730 G01 X-32.2377 Y69.6267 
N28740 G01 X-32.2222 Y69.6421 
N28750 G01 X-32.2019 Y69.6506 
N28760 G01 X-32.1835 Y69.6628 
N28770 G01 X-32.1621 Y69.6670 
N28780 G01 X-32.1420 Y69.6754 
N28790 G01 X-32.1199 Y69.6754 
N28800 G01 X-32.0983 Y69.6797 
N28810 G01 X-32.0769 Y69.6754 
N28820 G01 X-32.0551 Y69.6754 
N28830 G01 X-32.0347 Y69.6669 
N28840 G01 X-32.0131 Y69.6626 
N28850 G01 X-31.9949 Y69.6505 
N28860 G01 X-31.9748 Y69.6421 
N28870 G01 X-31.9592 Y69.6265 
N28880 G01 X-31.9409 Y69.6143 
N28890 G01 X-31.9288 Y69.5961 
N28900 G01 X-31.7970 Y69.4643 
N28910 G01 X-31.3545 Y69.2810 
N28920 G01 X-30.8755 Y69.2810 
N28930 G01 X-30.4330 Y69.4643 
N28940 G01 X-30.0943 Y69.8030 
N28950 G01 X-29.9110 Y70.2455 
N28960 G01 X-29.9110 Y70.2641 
N28970 G01 X-29.9145 Y70.2951 
N28980 G01 X-29.9110 Y70.3072 
N28990 G01 X-29.9110 Y70.3198 
N29000 G01 X-29.8991 Y70.3486 
N29010 G01 X-29.8960 Y70.3594 
N29020 G01 X-29.9495 Y70.2776 
N29030 G01 X-29.9605 Y70.2078 
N29040 G01 X-30.0181 Y70.0306 
N29050 G01 X-30.1027 Y69.8646 
N29060 G01 X-30.2122 Y69.7139 
N29070 G01 X-30.3439 Y69.5822 
N29080 G01 X-30.4946 Y69.4727 
N29090 G01 X-30.6606 Y69.3881 
N29100 G01 X-30.8378 Y69.3305 
N29110 G01 X-31.0218 Y69.3014 
N29120 G01 X-31.2082 Y69.3014 
N29130 G01 X-31.3922 Y69.3305 
N29140 G01 X-31.5694 Y69.3881 
N29150 G01 X-31.7354 Y69.4727 
N29160 G01 X-31.8861 Y69.5822 
N29170 G01 X-32.0178 Y69.7139 
N29180 G01 X-32.0588 Y69.7703 
N29190 G01 X-34.5930 Y68.0809 
N29200 G01 X-34.6411 Y68.0488 
N29210 G01 X-34.6966 Y68.0258 
N29220 G01 X-34.7501 Y68.0036 
N29230 G01 X-34.8096 Y67.9918 
N29240 G01 X-34.8660 Y67.9806 
N29250 G01 X-34.9257 Y67.9806 
N29260 G01 X-37.7120 Y67.9806 
N29270 G01 X-37.7227 Y67.9596 
N29280 G01 X-37.8322 Y67.8089 
N29290 G01 X-37.9639 Y67.6772 
N29300 G01 X-38.1146 Y67.5677 
N29310 G01 X-38.2806 Y67.4831 
N29320 G01 X-38.4578 Y67.4255 
N29330 G01 X-38.6418 Y67.3964 
N29340 G01 X-41.3682 Y67.3964 
N29350 G01 X-41.5522 Y67.4255 
N29360 G01 X-41.7294 Y67.4831 
N29370 G01 X-41.8954 Y67.5677 
N29380 G01 X-42.0461 Y67.6772 
N29390 G01 X-42.1778 Y67.8089 
N29400 G01 X-42.2873 Y67.9596 
N29410 G01 X-42.2980 Y67.9806 
N29420 G01 X-47.3767 Y67.9806 
N29430 G01 X-48.2956 Y67.0617 
N29440 G01 X-48.2956 Y57.3983 
N29450 G01 X-47.7142 Y56.8169 
N29460 G01 X-47.6104 Y56.8923 
N29470 G01 X-47.4444 Y56.9769 
N29480 G01 X-47.2672 Y57.0345 
N29490 G01 X-47.0832 Y57.0636 
N29500 G01 X-44.3568 Y57.0636 
N29510 G01 X-44.1728 Y57.0345 
N29520 G01 X-43.9956 Y56.9769 
N29530 G01 X-43.8296 Y56.8923 
N29540 G01 X-43.6789 Y56.7828 
N29550 G01 X-43.5472 Y56.6511 
N29560 G01 X-43.4377 Y56.5004 
N29570 G01 X-43.3531 Y56.3344 
N29580 G01 X-43.2955 Y56.1572 
N29590 G01 X-43.2664 Y55.9732 
N29600 G01 X-43.2664 Y55.7868 
N29610 G01 X-43.2955 Y55.6028 
N29620 G01 X-43.3531 Y55.4256 
N29630 G01 X-43.4377 Y55.2596 
N29640 G01 X-43.5472 Y55.1089 
N29650 G01 X-43.6789 Y54.9772 
N29660 G01 X-43.8296 Y54.8677 
N29670 G01 X-43.9956 Y54.7831 
N29680 G01 X-44.1728 Y54.7255 
N29690 G01 X-44.3568 Y54.6964 
N29700 G01 X-47.0832 Y54.6964 
N29710 G01 X-47.2672 Y54.7255 
N29720 G01 X-47.4444 Y54.7831 
N29730 G01 X-47.6104 Y54.8677 
N29740 G01 X-47.7611 Y54.9772 
N29750 G01 X-47.8928 Y55.1089 
N29760 G01 X-48.0023 Y55.2596 
N29770 G01 X-48.0869 Y55.4256 
N29780 G01 X-48.1199 Y55.5272 
N29790 G01 X-49.3606 Y56.7679 
N29800 G01 X-49.4262 Y56.8661 
N29810 G01 X-49.4714 Y56.9751 
N29820 G01 X-49.4944 Y57.0910 
N29830 G01 X-49.4944 Y67.3690 
N29840 G01 X-49.4714 Y67.4848 
N29850 G01 X-49.4262 Y67.5939 
N29860 G01 X-49.3606 Y67.6921 
N29870 G01 X-48.0906 Y68.9621 
N29880 G01 X-48.0071 Y69.0456 
N29890 G01 X-47.9089 Y69.1112 
N29900 G01 X-47.7998 Y69.1564 
N29910 G01 X-47.6840 Y69.1794 
N29920 G01 X-42.2980 Y69.1794 
N29930 G01 X-42.2873 Y69.2004 
N29940 G01 X-42.1778 Y69.3511 
N29950 G01 X-42.0461 Y69.4828 
N29960 G01 X-41.8954 Y69.5923 
N29970 G01 X-41.7294 Y69.6769 
N29980 G01 X-41.5522 Y69.7345 
N29990 G01 X-41.3682 Y69.7636 
N30000 G01 X-38.6418 Y69.7636 
N30010 G01 X-38.4578 Y69.7345 
N30020 G01 X-38.2806 Y69.6769 
N30030 G01 X-38.1146 Y69.5923 
N30040 G01 X-37.9639 Y69.4828 
N30050 G01 X-37.8322 Y69.3511 
N30060 G01 X-37.7227 Y69.2004 
N30070 G01 X-37.7120 Y69.1794 
N30080 G01 X-35.1065 Y69.1794 
N30090 G01 X-32.5376 Y70.8921 
N30100 G01 X-32.5564 Y71.1200 
N30110 G01 X-32.5481 Y71.2211 
N30120 G01 X-32.5711 Y71.1200 
N30130 G01 X-32.5688 Y71.1099 
N30140 G01 X-32.5670 Y71.1072 
N30150 G01 X-32.5592 Y71.0676 
N30160 G01 X-32.5502 Y71.0284 
N30170 G01 X-32.5508 Y71.0251 
N30180 G01 X-32.5501 Y71.0219 
N30190 G01 X-32.5580 Y70.9824 
N30200 G01 X-32.5648 Y70.9427 
N30210 G01 X-32.5665 Y70.9399 
N30220 G01 X-32.5672 Y70.9367 
N30230 G01 X-32.5896 Y70.9032 
N30240 G01 X-32.6110 Y70.8691 
N30250 G01 X-32.6137 Y70.8672 
N30260 G01 X-32.6155 Y70.8645 
N30270 G01 X-32.6491 Y70.8421 
N30280 G01 X-32.6819 Y70.8188 
N30290 G01 X-32.6851 Y70.8181 
N30300 G01 X-35.0396 Y69.2484 
N30310 G01 X-35.0550 Y69.2330 
N30320 G01 X-35.0754 Y69.2246 
N30330 G01 X-35.0938 Y69.2123 
N30340 G01 X-35.1152 Y69.2081 
N30350 G01 X-35.1353 Y69.1998 
N30360 G01 X-35.1574 Y69.1998 
N30370 G01 X-35.1790 Y69.1955 
N30380 G01 X-35.2004 Y69.1998 
N30390 G01 X-37.6051 Y69.1998 
N30400 G01 X-37.6854 Y69.2330 
N30410 G01 X-37.7468 Y69.2945 
N30420 G01 X-38.0530 Y69.6007 
N30430 G01 X-38.4955 Y69.7840 
N30440 G01 X-41.5145 Y69.7840 
N30450 G01 X-41.9570 Y69.6007 
N30460 G01 X-42.3246 Y69.2330 
N30470 G01 X-42.4049 Y69.1998 
N30480 G01 X-47.7483 Y69.1998 
N30490 G01 X-47.9761 Y69.1054 
N30500 G01 X-48.2118 Y68.8696 
N30510 G01 X-49.4204 Y67.6611 
N30520 G01 X-49.5148 Y67.4333 
N30530 G01 X-49.5148 Y66.7501 
N30540 G01 X-49.5480 Y66.6698 
N30550 G01 X-49.6095 Y66.6084 
N30560 G01 X-49.6897 Y66.5751 
N30570 G01 X-49.7766 Y66.5751 
N30580 G01 X-49.8569 Y66.6084 
N30590 G01 X-49.9184 Y66.6698 
N30600 G01 X-52.3539 Y69.1054 
N30610 G01 X-52.5817 Y69.1998 
N30620 G01 X-57.9251 Y69.1998 
N30630 G01 X-58.0054 Y69.2330 
N30640 G01 X-58.0668 Y69.2945 
N30650 G01 X-58.3730 Y69.6007 
N30660 G01 X-58.8155 Y69.7840 
N30670 G01 X-61.8345 Y69.7840 
N30680 G01 X-62.2770 Y69.6007 
N30690 G01 X-62.6446 Y69.2330 
N30700 G01 X-62.7249 Y69.1998 
N30710 G01 X-66.3713 Y69.1998 
N30720 G01 X-66.4515 Y69.2330 
N30730 G01 X-66.4725 Y69.2540 
N30740 G01 X-67.7682 Y70.5496 
N30750 G01 X-67.7886 Y70.5641 
N30760 G01 X-67.7986 Y70.5801 
N30770 G01 X-67.8119 Y70.5934 
N30780 G01 X-67.8215 Y70.6165 
N30790 G01 X-67.8348 Y70.6377 
N30800 G01 X-67.8380 Y70.6563 
N30810 G01 X-67.8452 Y70.6737 
N30820 G01 X-67.8452 Y70.6775 
N30830 G01 X-67.8517 Y70.6520 
N30840 G01 X-67.8662 Y70.6189 
N30850 G01 X-66.4267 Y69.1794 
N30860 G01 X-62.6180 Y69.1794 
N30870 G01 X-62.6073 Y69.2004 
N30880 G01 X-62.4978 Y69.3511 
N30890 G01 X-62.3661 Y69.4828 
N30900 G01 X-62.2154 Y69.5923 
N30910 G01 X-62.0494 Y69.6769 
N30920 G01 X-61.8722 Y69.7345 
N30930 G01 X-61.6882 Y69.7636 
N30940 G01 X-58.9618 Y69.7636 
N30950 G01 X-58.7778 Y69.7345 
N30960 G01 X-58.6006 Y69.6769 
N30970 G01 X-58.4346 Y69.5923 
N30980 G01 X-58.2839 Y69.4828 
N30990 G01 X-58.1522 Y69.3511 
N31000 G01 X-58.0427 Y69.2004 
N31010 G01 X-58.0320 Y69.1794 
N31020 G01 X-52.6460 Y69.1794 
N31030 G01 X-52.5301 Y69.1564 
N31040 G01 X-52.4211 Y69.1112 
N31050 G01 X-52.3229 Y69.0456 
N31060 G01 X-49.6994 Y66.4221 
N31070 G01 X-49.6338 Y66.3239 
N31080 G01 X-49.5886 Y66.2148 
N31090 G01 X-49.5656 Y66.0990 
N31100 G01 X-49.5656 Y54.5510 
N31110 G01 X-49.5886 Y54.4351 
N31120 G01 X-49.6338 Y54.3261 
N31130 G01 X-49.6994 Y54.2279 
N31140 G01 X-50.9694 Y52.9579 
N31150 G01 X-51.0529 Y52.8744 
N31160 G01 X-51.1511 Y52.8088 
N31170 G01 X-51.2601 Y52.7636 
N31180 G01 X-51.3760 Y52.7406 
N31190 G01 X-52.3170 Y52.7406 
N31200 G01 X-52.3277 Y52.7196 
N31210 G01 X-52.4372 Y52.5689 
N31220 G01 X-52.5689 Y52.4372 
N31230 G01 X-52.7196 Y52.3277 
N31240 G01 X-52.8856 Y52.2431 
N31250 G01 X-53.0628 Y52.1855 
N31260 G01 X-53.2468 Y52.1564 
N31270 G01 X-55.9732 Y52.1564 
N31280 G01 X-56.1572 Y52.1855 
N31290 G01 X-56.3344 Y52.2431 
N31300 G01 X-56.5004 Y52.3277 
N31310 G01 X-56.6511 Y52.4372 
N31320 G01 X-56.7828 Y52.5689 
