N00000 (.../pcb-gcode-3.6.2.4/pcb-gcode.ulp)
N00010 (Copyright 2005 - 2012 by John Johnson)
N00020 (See readme.txt for licensing terms.)
N00030 (This file generated from the board:)
N00040 (.../RotaryEncoder/RotaryEncoder.brd)
N00050 (Current profile is .../pcb-gcode-3.6.2.4/profiles/emc.pp  )
N00060 (This file generated 9/18/2016 7:00:06 PM)
N00070 (Settings from pcb-machine.h)
N00080 (spindle on time = 3.0000)
N00090 (  Tool Size)
N00100 (0.1778 )
N00110 (spindle speed = 30000.0000)
N00120 (tool change at 0.0000 0.0000 25.4000 )
N00130 (feed rate xy = F508.00 )
N00140 (feed rate z  = F254.00 )
N00150 (Z Axis Settings)
N00160 (  High     Up        Down     Drill)
N00170 (12.0000 	3.0000 	-0.1000 	-3.8128 )
N00180 (Settings from pcb-defaults.h)
N00190 (isolate min = 0.0025)
N00200 (isolate max = 0.2540)
N00210 (isolate step = 0.1270)
N00220 (Generated top outlines, top drill, bottom outlines, bottom drill, )
N00230 (Unit of measure: mm)
N00240 (Metric Mode)
N00250 G21
N00260 (Absolute Coordinates)
N00270 G90
N00280 S30000
N00290 G00 Z12.0000 
N00300 G00 X0.0000 Y0.0000 
N00310 M03
N00320 G04 P3.000000
N00330 G00 Z3.0000 
N00340 G00 X11.2624 Y14.9075 
N00350 G01 Z-0.1000 F254.00 
N00360 G01 X11.2624 Y15.5725 F508.00 
N00370 G01 X11.7325 Y16.0426 
N00380 G01 X12.3975 Y16.0426 
N00390 G01 X12.8676 Y15.5725 
N00400 G01 X12.8676 Y14.9075 
N00410 G01 X12.3975 Y14.4374 
N00420 G01 X11.7325 Y14.4374 
N00430 G01 X11.2624 Y14.9075 
N00440 G00 Z3.0000 
N00450 G00 X11.2624 Y22.5275 
N00460 G01 Z-0.1000 F254.00 
N00470 G01 X11.2624 Y23.1925 F508.00 
N00480 G01 X11.7325 Y23.6626 
N00490 G01 X12.3975 Y23.6626 
N00500 G01 X12.8676 Y23.1925 
N00510 G01 X12.8676 Y22.5275 
N00520 G01 X12.3975 Y22.0574 
N00530 G01 X11.7325 Y22.0574 
N00540 G01 X11.2624 Y22.5275 
N00550 G00 Z3.0000 
N00560 G00 X11.2624 Y30.1475 
N00570 G01 Z-0.1000 F254.00 
N00580 G01 X11.2624 Y30.8125 F508.00 
N00590 G01 X11.7325 Y31.2826 
N00600 G01 X12.3975 Y31.2826 
N00610 G01 X12.8676 Y30.8125 
N00620 G01 X12.8676 Y30.1475 
N00630 G01 X12.3975 Y29.6774 
N00640 G01 X11.7325 Y29.6774 
N00650 G01 X11.2624 Y30.1475 
N00660 G00 Z3.0000 
N00670 G00 X12.1193 Y42.6250 
N00680 G01 Z-0.1000 F254.00 
N00690 G01 X12.1054 Y42.6586 F508.00 
N00700 G01 X12.1054 Y43.7014 
N00710 G01 X12.1193 Y43.7350 
N00720 G01 X12.1450 Y43.7607 
N00730 G01 X12.1786 Y43.7746 
N00740 G01 X13.2214 Y43.7746 
N00750 G01 X13.2550 Y43.7607 
N00760 G01 X13.2807 Y43.7350 
N00770 G01 X13.2946 Y43.7014 
N00780 G01 X13.2946 Y43.4746 
N00790 G01 X27.3454 Y43.4746 
N00800 G01 X27.3454 Y43.7014 
N00810 G01 X27.3593 Y43.7350 
N00820 G01 X27.3850 Y43.7607 
N00830 G01 X27.4186 Y43.7746 
N00840 G01 X28.4614 Y43.7746 
N00850 G01 X28.4950 Y43.7607 
N00860 G01 X28.5207 Y43.7350 
N00870 G01 X28.5346 Y43.7014 
N00880 G01 X28.5346 Y42.6586 
N00890 G01 X28.5207 Y42.6250 
N00900 G01 X28.4950 Y42.5993 
N00910 G01 X28.4614 Y42.5854 
N00920 G01 X27.4186 Y42.5854 
N00930 G01 X27.3850 Y42.5993 
N00940 G01 X27.3593 Y42.6250 
N00950 G01 X27.3454 Y42.6586 
N00960 G01 X27.3454 Y42.8854 
N00970 G01 X13.2946 Y42.8854 
N00980 G01 X13.2946 Y42.6586 
N00990 G01 X13.2807 Y42.6250 
N01000 G01 X13.2550 Y42.5993 
N01010 G01 X13.2214 Y42.5854 
N01020 G01 X12.1786 Y42.5854 
N01030 G01 X12.1450 Y42.5993 
N01040 G01 X12.1193 Y42.6250 
N01050 G00 Z3.0000 
N01060 G00 X29.8993 Y42.6250 
N01070 G01 Z-0.1000 F254.00 
N01080 G01 X29.8854 Y42.6586 F508.00 
N01090 G01 X29.8854 Y43.7014 
N01100 G01 X29.8993 Y43.7350 
N01110 G01 X29.9250 Y43.7607 
N01120 G01 X29.9586 Y43.7746 
N01130 G01 X31.0014 Y43.7746 
N01140 G01 X31.0350 Y43.7607 
N01150 G01 X31.0607 Y43.7350 
N01160 G01 X31.0746 Y43.7014 
N01170 G01 X31.0746 Y43.4746 
N01180 G01 X45.1254 Y43.4746 
N01190 G01 X45.1254 Y43.7014 
N01200 G01 X45.1393 Y43.7350 
N01210 G01 X45.1650 Y43.7607 
N01220 G01 X45.1986 Y43.7746 
N01230 G01 X46.2414 Y43.7746 
N01240 G01 X46.2750 Y43.7607 
N01250 G01 X46.3007 Y43.7350 
N01260 G01 X46.3146 Y43.7014 
N01270 G01 X46.3146 Y42.6586 
N01280 G01 X46.3007 Y42.6250 
N01290 G01 X46.2750 Y42.5993 
N01300 G01 X46.2414 Y42.5854 
N01310 G01 X45.1986 Y42.5854 
N01320 G01 X45.1650 Y42.5993 
N01330 G01 X45.1393 Y42.6250 
N01340 G01 X45.1254 Y42.6586 
N01350 G01 X45.1254 Y42.8854 
N01360 G01 X31.0746 Y42.8854 
N01370 G01 X31.0746 Y42.6586 
N01380 G01 X31.0607 Y42.6250 
N01390 G01 X31.0350 Y42.5993 
N01400 G01 X31.0014 Y42.5854 
N01410 G01 X29.9586 Y42.5854 
N01420 G01 X29.9250 Y42.5993 
N01430 G01 X29.8993 Y42.6250 
N01440 G00 Z3.0000 
N01450 G00 X30.0711 Y52.9076 
N01460 G01 Z-0.1000 F254.00 
N01470 G01 X30.0711 Y53.7724 F508.00 
N01480 G01 X30.6826 Y54.3839 
N01490 G01 X31.5474 Y54.3839 
N01500 G01 X32.1589 Y53.7724 
N01510 G01 X32.1589 Y52.9076 
N01520 G01 X31.5474 Y52.2961 
N01530 G01 X30.6826 Y52.2961 
N01540 G01 X30.0711 Y52.9076 
N01550 G00 Z3.0000 
N01560 G00 X24.5389 Y52.9076 
N01570 G01 Z-0.1000 F254.00 
N01580 G01 X23.9274 Y52.2961 F508.00 
N01590 G01 X23.0626 Y52.2961 
N01600 G01 X22.4511 Y52.9076 
N01610 G01 X22.4511 Y53.7724 
N01620 G01 X23.0626 Y54.3839 
N01630 G01 X23.9274 Y54.3839 
N01640 G01 X24.5389 Y53.7724 
N01650 G01 X24.5389 Y52.9076 
N01660 G00 Z3.0000 
N01670 G00 X24.5389 Y61.7976 
N01680 G01 Z-0.1000 F254.00 
N01690 G01 X23.9274 Y61.1861 F508.00 
N01700 G01 X23.0626 Y61.1861 
N01710 G01 X22.4511 Y61.7976 
N01720 G01 X22.4511 Y62.6624 
N01730 G01 X23.0626 Y63.2739 
N01740 G01 X23.9274 Y63.2739 
N01750 G01 X24.5389 Y62.6624 
N01760 G01 X24.5389 Y61.7976 
N01770 G00 Z3.0000 
N01780 G00 X30.0711 Y61.7976 
N01790 G01 Z-0.1000 F254.00 
N01800 G01 X30.0711 Y62.6624 F508.00 
N01810 G01 X30.6826 Y63.2739 
N01820 G01 X31.5474 Y63.2739 
N01830 G01 X32.1589 Y62.6624 
N01840 G01 X32.1589 Y61.7976 
N01850 G01 X31.5474 Y61.1861 
N01860 G01 X30.6826 Y61.1861 
N01870 G01 X30.0711 Y61.7976 
N01880 G00 Z3.0000 
N01890 G00 X32.8524 Y65.7075 
N01900 G01 Z-0.1000 F254.00 
N01910 G01 X32.8524 Y66.3725 F508.00 
N01920 G01 X33.3225 Y66.8426 
N01930 G01 X33.9875 Y66.8426 
N01940 G01 X34.4576 Y66.3725 
N01950 G01 X34.4576 Y65.7075 
N01960 G01 X33.9875 Y65.2374 
N01970 G01 X33.3225 Y65.2374 
N01980 G01 X32.8524 Y65.7075 
N01990 G00 Z3.0000 
N02000 G00 X38.4224 Y65.7911 
N02010 G01 Z-0.1000 F254.00 
N02020 G01 X38.3896 Y65.9559 F508.00 
N02030 G01 X38.3896 Y66.1241 
N02040 G01 X38.4224 Y66.2889 
N02050 G01 X38.4867 Y66.4443 
N02060 G01 X38.5801 Y66.5840 
N02070 G01 X38.6990 Y66.7029 
N02080 G01 X38.8387 Y66.7963 
N02090 G01 X38.9941 Y66.8606 
N02100 G01 X39.1589 Y66.8934 
N02110 G01 X40.8511 Y66.8934 
N02120 G01 X41.0159 Y66.8606 
N02130 G01 X41.1713 Y66.7963 
N02140 G01 X41.3110 Y66.7029 
N02150 G01 X41.4299 Y66.5840 
N02160 G01 X41.5233 Y66.4443 
N02170 G01 X41.5876 Y66.2889 
N02180 G01 X41.6204 Y66.1241 
N02190 G01 X41.6204 Y65.9559 
N02200 G01 X41.5876 Y65.7911 
N02210 G01 X41.5233 Y65.6357 
N02220 G01 X41.4299 Y65.4960 
N02230 G01 X41.3110 Y65.3771 
N02240 G01 X41.1713 Y65.2837 
N02250 G01 X41.0159 Y65.2194 
N02260 G01 X40.8511 Y65.1866 
N02270 G01 X39.1589 Y65.1866 
N02280 G01 X38.9941 Y65.2194 
N02290 G01 X38.8387 Y65.2837 
N02300 G01 X38.6990 Y65.3771 
N02310 G01 X38.5801 Y65.4960 
N02320 G01 X38.4867 Y65.6357 
N02330 G01 X38.4224 Y65.7911 
N02340 G00 Z3.0000 
N02350 G00 X38.6990 Y64.1629 
N02360 G01 Z-0.1000 F254.00 
N02370 G01 X38.8387 Y64.2563 F508.00 
N02380 G01 X38.9941 Y64.3206 
N02390 G01 X39.1589 Y64.3534 
N02400 G01 X40.8511 Y64.3534 
N02410 G01 X41.0159 Y64.3206 
N02420 G01 X41.1713 Y64.2563 
N02430 G01 X41.3110 Y64.1629 
N02440 G01 X41.4299 Y64.0440 
N02450 G01 X41.5233 Y63.9043 
N02460 G01 X41.5876 Y63.7489 
N02470 G01 X41.6204 Y63.5841 
N02480 G01 X41.6204 Y63.4159 
N02490 G01 X41.5876 Y63.2511 
N02500 G01 X41.5233 Y63.0957 
N02510 G01 X41.4299 Y62.9560 
N02520 G01 X41.3110 Y62.8371 
N02530 G01 X41.1713 Y62.7437 
N02540 G01 X41.0159 Y62.6794 
N02550 G01 X40.8511 Y62.6466 
N02560 G01 X39.1589 Y62.6466 
N02570 G01 X38.9941 Y62.6794 
N02580 G01 X38.8387 Y62.7437 
N02590 G01 X38.6990 Y62.8371 
N02600 G01 X38.5801 Y62.9560 
N02610 G01 X38.4867 Y63.0957 
N02620 G01 X38.4224 Y63.2511 
N02630 G01 X38.3896 Y63.4159 
N02640 G01 X38.3896 Y63.5841 
N02650 G01 X38.4224 Y63.7489 
N02660 G01 X38.4867 Y63.9043 
N02670 G01 X38.5801 Y64.0440 
N02680 G01 X38.6990 Y64.1629 
N02690 G00 Z3.0000 
N02700 G00 X38.6990 Y61.6229 
N02710 G01 Z-0.1000 F254.00 
N02720 G01 X38.8387 Y61.7163 F508.00 
N02730 G01 X38.9941 Y61.7806 
N02740 G01 X39.1589 Y61.8134 
N02750 G01 X40.8511 Y61.8134 
N02760 G01 X41.0159 Y61.7806 
N02770 G01 X41.1713 Y61.7163 
N02780 G01 X41.3110 Y61.6229 
N02790 G01 X41.4299 Y61.5040 
N02800 G01 X41.5233 Y61.3643 
N02810 G01 X41.5876 Y61.2089 
N02820 G01 X41.6204 Y61.0441 
N02830 G01 X41.6204 Y60.8759 
N02840 G01 X41.5876 Y60.7111 
N02850 G01 X41.5233 Y60.5557 
N02860 G01 X41.4299 Y60.4160 
N02870 G01 X41.3110 Y60.2971 
N02880 G01 X41.1713 Y60.2037 
N02890 G01 X41.0159 Y60.1394 
N02900 G01 X40.8511 Y60.1066 
N02910 G01 X39.1589 Y60.1066 
N02920 G01 X38.9941 Y60.1394 
N02930 G01 X38.8387 Y60.2037 
N02940 G01 X38.6990 Y60.2971 
N02950 G01 X38.5801 Y60.4160 
N02960 G01 X38.4867 Y60.5557 
N02970 G01 X38.4224 Y60.7111 
N02980 G01 X38.3896 Y60.8759 
N02990 G01 X38.3896 Y61.0441 
N03000 G01 X38.4224 Y61.2089 
N03010 G01 X38.4867 Y61.3643 
N03020 G01 X38.5801 Y61.5040 
N03030 G01 X38.6990 Y61.6229 
N03040 G00 Z3.0000 
N03050 G00 X38.6990 Y59.0829 
N03060 G01 Z-0.1000 F254.00 
N03070 G01 X38.8387 Y59.1763 F508.00 
N03080 G01 X38.9941 Y59.2406 
N03090 G01 X39.1589 Y59.2734 
N03100 G01 X40.8511 Y59.2734 
N03110 G01 X41.0159 Y59.2406 
N03120 G01 X41.1713 Y59.1763 
N03130 G01 X41.3110 Y59.0829 
N03140 G01 X41.4299 Y58.9640 
N03150 G01 X41.5233 Y58.8243 
N03160 G01 X41.5876 Y58.6689 
N03170 G01 X41.6204 Y58.5041 
N03180 G01 X41.6204 Y58.3359 
N03190 G01 X41.5876 Y58.1711 
N03200 G01 X41.5233 Y58.0157 
N03210 G01 X41.4299 Y57.8760 
N03220 G01 X41.3110 Y57.7571 
N03230 G01 X41.1713 Y57.6637 
N03240 G01 X41.0159 Y57.5994 
N03250 G01 X40.8511 Y57.5666 
N03260 G01 X39.1589 Y57.5666 
N03270 G01 X38.9941 Y57.5994 
N03280 G01 X38.8387 Y57.6637 
N03290 G01 X38.6990 Y57.7571 
N03300 G01 X38.5801 Y57.8760 
N03310 G01 X38.4867 Y58.0157 
N03320 G01 X38.4224 Y58.1711 
N03330 G01 X38.3896 Y58.3359 
N03340 G01 X38.3896 Y58.5041 
N03350 G01 X38.4224 Y58.6689 
N03360 G01 X38.4867 Y58.8243 
N03370 G01 X38.5801 Y58.9640 
N03380 G01 X38.6990 Y59.0829 
N03390 G00 Z3.0000 
N03400 G00 X34.4576 Y57.4825 
N03410 G01 Z-0.1000 F254.00 
N03420 G01 X34.4576 Y56.8175 F508.00 
N03430 G01 X33.9875 Y56.3474 
N03440 G01 X33.3225 Y56.3474 
N03450 G01 X32.8524 Y56.8175 
N03460 G01 X32.8524 Y57.4825 
N03470 G01 X33.3225 Y57.9526 
N03480 G01 X33.9875 Y57.9526 
N03490 G01 X34.4576 Y57.4825 
N03500 G00 Z3.0000 
N03510 G00 X45.1106 Y57.9407 
N03520 G01 Z-0.1000 F254.00 
N03530 G01 X45.0283 Y58.0639 F508.00 
N03540 G01 X44.9717 Y58.2007 
N03550 G01 X44.9428 Y58.3459 
N03560 G01 X44.9428 Y58.4941 
N03570 G01 X44.9717 Y58.6393 
N03580 G01 X45.0283 Y58.7761 
N03590 G01 X45.1106 Y58.8993 
N03600 G01 X45.2153 Y59.0040 
N03610 G01 X45.3385 Y59.0863 
N03620 G01 X45.4753 Y59.1429 
N03630 G01 X45.6205 Y59.1718 
N03640 G01 X47.0894 Y59.1718 
N03650 G01 X47.2347 Y59.1429 
N03660 G01 X47.3715 Y59.0863 
N03670 G01 X47.4947 Y59.0040 
N03680 G01 X47.5994 Y58.8993 
N03690 G01 X47.6817 Y58.7761 
N03700 G01 X47.7383 Y58.6393 
N03710 G01 X47.7672 Y58.4941 
N03720 G01 X47.7672 Y58.3459 
N03730 G01 X47.7383 Y58.2007 
N03740 G01 X47.6817 Y58.0639 
N03750 G01 X47.5994 Y57.9407 
N03760 G01 X47.4947 Y57.8360 
N03770 G01 X47.3715 Y57.7537 
N03780 G01 X47.2347 Y57.6971 
N03790 G01 X47.0894 Y57.6682 
N03800 G01 X45.6205 Y57.6682 
N03810 G01 X45.4753 Y57.6971 
N03820 G01 X45.3385 Y57.7537 
N03830 G01 X45.2153 Y57.8360 
N03840 G01 X45.1106 Y57.9407 
N03850 G00 Z3.0000 
N03860 G00 X45.2153 Y56.4640 
N03870 G01 Z-0.1000 F254.00 
N03880 G01 X45.3385 Y56.5463 F508.00 
N03890 G01 X45.4753 Y56.6029 
N03900 G01 X45.6205 Y56.6318 
N03910 G01 X47.0894 Y56.6318 
N03920 G01 X47.2347 Y56.6029 
N03930 G01 X47.3715 Y56.5463 
N03940 G01 X47.4947 Y56.4640 
N03950 G01 X47.5994 Y56.3593 
N03960 G01 X47.6817 Y56.2361 
N03970 G01 X47.7383 Y56.0993 
N03980 G01 X47.7672 Y55.9541 
N03990 G01 X47.7672 Y55.8059 
N04000 G01 X47.7383 Y55.6607 
N04010 G01 X47.6817 Y55.5239 
N04020 G01 X47.5994 Y55.4007 
N04030 G01 X47.4947 Y55.2960 
N04040 G01 X47.3715 Y55.2137 
N04050 G01 X47.2347 Y55.1571 
N04060 G01 X47.0894 Y55.1282 
N04070 G01 X45.6205 Y55.1282 
N04080 G01 X45.4753 Y55.1571 
N04090 G01 X45.3385 Y55.2137 
N04100 G01 X45.2153 Y55.2960 
N04110 G01 X45.1106 Y55.4007 
N04120 G01 X45.0283 Y55.5239 
N04130 G01 X44.9717 Y55.6607 
N04140 G01 X44.9428 Y55.8059 
N04150 G01 X44.9428 Y55.9541 
N04160 G01 X44.9717 Y56.0993 
N04170 G01 X45.0283 Y56.2361 
N04180 G01 X45.1106 Y56.3593 
N04190 G01 X45.2153 Y56.4640 
N04200 G00 Z3.0000 
N04210 G00 X45.2153 Y53.9240 
N04220 G01 Z-0.1000 F254.00 
N04230 G01 X45.3385 Y54.0063 F508.00 
N04240 G01 X45.4753 Y54.0629 
N04250 G01 X45.6205 Y54.0918 
N04260 G01 X47.0894 Y54.0918 
N04270 G01 X47.2347 Y54.0629 
N04280 G01 X47.3715 Y54.0063 
N04290 G01 X47.4947 Y53.9240 
N04300 G01 X47.5994 Y53.8193 
N04310 G01 X47.6817 Y53.6961 
N04320 G01 X47.7383 Y53.5593 
N04330 G01 X47.7672 Y53.4141 
N04340 G01 X47.7672 Y53.2659 
N04350 G01 X47.7383 Y53.1207 
N04360 G01 X47.6817 Y52.9839 
N04370 G01 X47.5994 Y52.8607 
N04380 G01 X47.4947 Y52.7560 
N04390 G01 X47.3715 Y52.6737 
N04400 G01 X47.2347 Y52.6171 
N04410 G01 X47.0894 Y52.5882 
N04420 G01 X45.6205 Y52.5882 
N04430 G01 X45.4753 Y52.6171 
N04440 G01 X45.3385 Y52.6737 
N04450 G01 X45.2153 Y52.7560 
N04460 G01 X45.1106 Y52.8607 
N04470 G01 X45.0283 Y52.9839 
N04480 G01 X44.9717 Y53.1207 
N04490 G01 X44.9428 Y53.2659 
N04500 G01 X44.9428 Y53.4141 
N04510 G01 X44.9717 Y53.5593 
N04520 G01 X45.0283 Y53.6961 
N04530 G01 X45.1106 Y53.8193 
N04540 G01 X45.2153 Y53.9240 
N04550 G00 Z3.0000 
N04560 G00 X45.2153 Y51.3840 
N04570 G01 Z-0.1000 F254.00 
N04580 G01 X45.3385 Y51.4663 F508.00 
N04590 G01 X45.4753 Y51.5229 
N04600 G01 X45.6205 Y51.5518 
N04610 G01 X47.0894 Y51.5518 
N04620 G01 X47.2347 Y51.5229 
N04630 G01 X47.3715 Y51.4663 
N04640 G01 X47.4947 Y51.3840 
N04650 G01 X47.5994 Y51.2793 
N04660 G01 X47.6817 Y51.1561 
N04670 G01 X47.7383 Y51.0193 
N04680 G01 X47.7672 Y50.8740 
N04690 G01 X47.7672 Y50.7259 
N04700 G01 X47.7383 Y50.5807 
N04710 G01 X47.6817 Y50.4439 
N04720 G01 X47.5994 Y50.3207 
N04730 G01 X47.4947 Y50.2160 
N04740 G01 X47.3715 Y50.1337 
N04750 G01 X47.2347 Y50.0771 
N04760 G01 X47.0894 Y50.0482 
N04770 G01 X45.6205 Y50.0482 
N04780 G01 X45.4753 Y50.0771 
N04790 G01 X45.3385 Y50.1337 
N04800 G01 X45.2153 Y50.2160 
N04810 G01 X45.1106 Y50.3207 
N04820 G01 X45.0283 Y50.4439 
N04830 G01 X44.9717 Y50.5807 
N04840 G01 X44.9428 Y50.7259 
N04850 G01 X44.9428 Y50.8740 
N04860 G01 X44.9717 Y51.0193 
N04870 G01 X45.0283 Y51.1561 
N04880 G01 X45.1106 Y51.2793 
N04890 G01 X45.2153 Y51.3840 
N04900 G00 Z3.0000 
N04910 G00 X43.7607 Y51.3550 
N04920 G01 Z-0.1000 F254.00 
N04930 G01 X43.7746 Y51.3214 F508.00 
N04940 G01 X43.7746 Y50.2786 
N04950 G01 X43.7607 Y50.2450 
N04960 G01 X43.7350 Y50.2193 
N04970 G01 X43.7014 Y50.2054 
N04980 G01 X42.6586 Y50.2054 
N04990 G01 X42.6250 Y50.2193 
N05000 G01 X42.5993 Y50.2450 
N05010 G01 X42.5854 Y50.2786 
N05020 G01 X42.5854 Y51.3214 
N05030 G01 X42.5993 Y51.3550 
N05040 G01 X42.6250 Y51.3807 
N05050 G01 X42.6586 Y51.3946 
N05060 G01 X42.8854 Y51.3946 
N05070 G01 X42.8854 Y65.4454 
N05080 G01 X42.6586 Y65.4454 
N05090 G01 X42.6250 Y65.4593 
N05100 G01 X42.5993 Y65.4850 
N05110 G01 X42.5854 Y65.5186 
N05120 G01 X42.5854 Y66.5614 
N05130 G01 X42.5993 Y66.5950 
N05140 G01 X42.6250 Y66.6207 
N05150 G01 X42.6586 Y66.6346 
N05160 G01 X43.7014 Y66.6346 
N05170 G01 X43.7350 Y66.6207 
N05180 G01 X43.7607 Y66.5950 
N05190 G01 X43.7746 Y66.5614 
N05200 G01 X43.7746 Y65.5186 
N05210 G01 X43.7607 Y65.4850 
N05220 G01 X43.7350 Y65.4593 
N05230 G01 X43.7014 Y65.4454 
N05240 G01 X43.4746 Y65.4454 
N05250 G01 X43.4746 Y51.3946 
N05260 G01 X43.7014 Y51.3946 
N05270 G01 X43.7350 Y51.3807 
N05280 G01 X43.7607 Y51.3550 
N05290 G00 Z3.0000 
N05300 G00 X45.2153 Y48.8440 
N05310 G01 Z-0.1000 F254.00 
N05320 G01 X45.3385 Y48.9263 F508.00 
N05330 G01 X45.4753 Y48.9829 
N05340 G01 X45.6205 Y49.0118 
N05350 G01 X47.0894 Y49.0118 
N05360 G01 X47.2347 Y48.9829 
N05370 G01 X47.3715 Y48.9263 
N05380 G01 X47.4947 Y48.8440 
N05390 G01 X47.5994 Y48.7393 
N05400 G01 X47.6817 Y48.6161 
N05410 G01 X47.7383 Y48.4793 
N05420 G01 X47.7672 Y48.3340 
N05430 G01 X47.7672 Y48.1859 
N05440 G01 X47.7383 Y48.0407 
N05450 G01 X47.6817 Y47.9039 
N05460 G01 X47.5994 Y47.7807 
N05470 G01 X47.4947 Y47.6760 
N05480 G01 X47.3715 Y47.5937 
N05490 G01 X47.2347 Y47.5371 
N05500 G01 X47.0894 Y47.5082 
N05510 G01 X45.6205 Y47.5082 
N05520 G01 X45.4753 Y47.5371 
N05530 G01 X45.3385 Y47.5937 
N05540 G01 X45.2153 Y47.6760 
N05550 G01 X45.1106 Y47.7807 
N05560 G01 X45.0283 Y47.9039 
N05570 G01 X44.9717 Y48.0407 
N05580 G01 X44.9428 Y48.1859 
N05590 G01 X44.9428 Y48.3340 
N05600 G01 X44.9717 Y48.4793 
N05610 G01 X45.0283 Y48.6161 
N05620 G01 X45.1106 Y48.7393 
N05630 G01 X45.2153 Y48.8440 
N05640 G00 Z3.0000 
N05650 G00 X45.2153 Y46.3040 
N05660 G01 Z-0.1000 F254.00 
N05670 G01 X45.3385 Y46.3863 F508.00 
N05680 G01 X45.4753 Y46.4429 
N05690 G01 X45.6205 Y46.4718 
N05700 G01 X47.0894 Y46.4718 
N05710 G01 X47.2347 Y46.4429 
N05720 G01 X47.3715 Y46.3863 
N05730 G01 X47.4947 Y46.3040 
N05740 G01 X47.5994 Y46.1993 
N05750 G01 X47.6817 Y46.0761 
N05760 G01 X47.7383 Y45.9393 
N05770 G01 X47.7672 Y45.7940 
N05780 G01 X47.7672 Y45.6459 
N05790 G01 X47.7383 Y45.5007 
N05800 G01 X47.6817 Y45.3639 
N05810 G01 X47.5994 Y45.2407 
N05820 G01 X47.4947 Y45.1360 
N05830 G01 X47.3715 Y45.0537 
N05840 G01 X47.2347 Y44.9971 
N05850 G01 X47.0894 Y44.9682 
N05860 G01 X45.6205 Y44.9682 
N05870 G01 X45.4753 Y44.9971 
N05880 G01 X45.3385 Y45.0537 
N05890 G01 X45.2153 Y45.1360 
N05900 G01 X45.1106 Y45.2407 
N05910 G01 X45.0283 Y45.3639 
N05920 G01 X44.9717 Y45.5007 
N05930 G01 X44.9428 Y45.6459 
N05940 G01 X44.9428 Y45.7940 
N05950 G01 X44.9717 Y45.9393 
N05960 G01 X45.0283 Y46.0761 
N05970 G01 X45.1106 Y46.1993 
N05980 G01 X45.2153 Y46.3040 
N05990 G00 Z3.0000 
N06000 G00 X52.8353 Y46.3040 
N06010 G01 Z-0.1000 F254.00 
N06020 G01 X52.9585 Y46.3863 F508.00 
N06030 G01 X53.0953 Y46.4429 
N06040 G01 X53.2405 Y46.4718 
N06050 G01 X54.7094 Y46.4718 
N06060 G01 X54.8547 Y46.4429 
N06070 G01 X54.9915 Y46.3863 
N06080 G01 X55.1147 Y46.3040 
N06090 G01 X55.2194 Y46.1993 
N06100 G01 X55.3017 Y46.0761 
N06110 G01 X55.3583 Y45.9393 
N06120 G01 X55.3872 Y45.7940 
N06130 G01 X55.3872 Y45.6459 
N06140 G01 X55.3583 Y45.5007 
N06150 G01 X55.3017 Y45.3639 
N06160 G01 X55.2194 Y45.2407 
N06170 G01 X55.1147 Y45.1360 
N06180 G01 X54.9915 Y45.0537 
N06190 G01 X54.8547 Y44.9971 
N06200 G01 X54.7094 Y44.9682 
N06210 G01 X53.2405 Y44.9682 
N06220 G01 X53.0953 Y44.9971 
N06230 G01 X52.9585 Y45.0537 
N06240 G01 X52.8353 Y45.1360 
N06250 G01 X52.7306 Y45.2407 
N06260 G01 X52.6483 Y45.3639 
N06270 G01 X52.5917 Y45.5007 
N06280 G01 X52.5628 Y45.6459 
N06290 G01 X52.5628 Y45.7940 
N06300 G01 X52.5917 Y45.9393 
N06310 G01 X52.6483 Y46.0761 
N06320 G01 X52.7306 Y46.1993 
N06330 G01 X52.8353 Y46.3040 
N06340 G00 Z3.0000 
N06350 G00 X52.8353 Y47.6760 
N06360 G01 Z-0.1000 F254.00 
N06370 G01 X52.7306 Y47.7807 F508.00 
N06380 G01 X52.6483 Y47.9039 
N06390 G01 X52.5917 Y48.0407 
N06400 G01 X52.5628 Y48.1859 
N06410 G01 X52.5628 Y48.3340 
N06420 G01 X52.5917 Y48.4793 
N06430 G01 X52.6483 Y48.6161 
N06440 G01 X52.7306 Y48.7393 
N06450 G01 X52.8353 Y48.8440 
N06460 G01 X52.9585 Y48.9263 
N06470 G01 X53.0953 Y48.9829 
N06480 G01 X53.2405 Y49.0118 
N06490 G01 X54.7094 Y49.0118 
N06500 G01 X54.8547 Y48.9829 
N06510 G01 X54.9915 Y48.9263 
N06520 G01 X55.1147 Y48.8440 
N06530 G01 X55.2194 Y48.7393 
N06540 G01 X55.3017 Y48.6161 
N06550 G01 X55.3583 Y48.4793 
N06560 G01 X55.3872 Y48.3340 
N06570 G01 X55.3872 Y48.1859 
N06580 G01 X55.3583 Y48.0407 
N06590 G01 X55.3017 Y47.9039 
N06600 G01 X55.2194 Y47.7807 
N06610 G01 X55.1147 Y47.6760 
N06620 G01 X54.9915 Y47.5937 
N06630 G01 X54.8547 Y47.5371 
N06640 G01 X54.7094 Y47.5082 
N06650 G01 X53.2405 Y47.5082 
N06660 G01 X53.0953 Y47.5371 
N06670 G01 X52.9585 Y47.5937 
N06680 G01 X52.8353 Y47.6760 
N06690 G00 Z3.0000 
N06700 G00 X52.8353 Y50.2160 
N06710 G01 Z-0.1000 F254.00 
N06720 G01 X52.7306 Y50.3207 F508.00 
N06730 G01 X52.6483 Y50.4439 
N06740 G01 X52.5917 Y50.5807 
N06750 G01 X52.5628 Y50.7259 
N06760 G01 X52.5628 Y50.8740 
N06770 G01 X52.5917 Y51.0193 
N06780 G01 X52.6483 Y51.1561 
N06790 G01 X52.7306 Y51.2793 
N06800 G01 X52.8353 Y51.3840 
N06810 G01 X52.9585 Y51.4663 
N06820 G01 X53.0953 Y51.5229 
N06830 G01 X53.2405 Y51.5518 
N06840 G01 X54.7094 Y51.5518 
N06850 G01 X54.8547 Y51.5229 
N06860 G01 X54.9915 Y51.4663 
N06870 G01 X55.1147 Y51.3840 
N06880 G01 X55.2194 Y51.2793 
N06890 G01 X55.3017 Y51.1561 
N06900 G01 X55.3583 Y51.0193 
N06910 G01 X55.3872 Y50.8740 
N06920 G01 X55.3872 Y50.7259 
N06930 G01 X55.3583 Y50.5807 
N06940 G01 X55.3017 Y50.4439 
N06950 G01 X55.2194 Y50.3207 
N06960 G01 X55.1147 Y50.2160 
N06970 G01 X54.9915 Y50.1337 
N06980 G01 X54.8547 Y50.0771 
N06990 G01 X54.7094 Y50.0482 
N07000 G01 X53.2405 Y50.0482 
N07010 G01 X53.0953 Y50.0771 
N07020 G01 X52.9585 Y50.1337 
N07030 G01 X52.8353 Y50.2160 
N07040 G00 Z3.0000 
N07050 G00 X52.8353 Y52.7560 
N07060 G01 Z-0.1000 F254.00 
N07070 G01 X52.7306 Y52.8607 F508.00 
N07080 G01 X52.6483 Y52.9839 
N07090 G01 X52.5917 Y53.1207 
N07100 G01 X52.5628 Y53.2659 
N07110 G01 X52.5628 Y53.4141 
N07120 G01 X52.5917 Y53.5593 
N07130 G01 X52.6483 Y53.6961 
N07140 G01 X52.7306 Y53.8193 
N07150 G01 X52.8353 Y53.9240 
N07160 G01 X52.9585 Y54.0063 
N07170 G01 X53.0953 Y54.0629 
N07180 G01 X53.2405 Y54.0918 
N07190 G01 X54.7094 Y54.0918 
N07200 G01 X54.8547 Y54.0629 
N07210 G01 X54.9915 Y54.0063 
N07220 G01 X55.1147 Y53.9240 
N07230 G01 X55.2194 Y53.8193 
N07240 G01 X55.3017 Y53.6961 
N07250 G01 X55.3583 Y53.5593 
N07260 G01 X55.3872 Y53.4141 
N07270 G01 X55.3872 Y53.2659 
N07280 G01 X55.3583 Y53.1207 
N07290 G01 X55.3017 Y52.9839 
N07300 G01 X55.2194 Y52.8607 
N07310 G01 X55.1147 Y52.7560 
N07320 G01 X54.9915 Y52.6737 
N07330 G01 X54.8547 Y52.6171 
N07340 G01 X54.7094 Y52.5882 
N07350 G01 X53.2405 Y52.5882 
N07360 G01 X53.0953 Y52.6171 
N07370 G01 X52.9585 Y52.6737 
N07380 G01 X52.8353 Y52.7560 
N07390 G00 Z3.0000 
N07400 G00 X52.8353 Y55.2960 
N07410 G01 Z-0.1000 F254.00 
N07420 G01 X52.7306 Y55.4007 F508.00 
N07430 G01 X52.6483 Y55.5239 
N07440 G01 X52.5917 Y55.6607 
N07450 G01 X52.5628 Y55.8059 
N07460 G01 X52.5628 Y55.9541 
N07470 G01 X52.5917 Y56.0993 
N07480 G01 X52.6483 Y56.2361 
N07490 G01 X52.7306 Y56.3593 
N07500 G01 X52.8353 Y56.4640 
N07510 G01 X52.9585 Y56.5463 
N07520 G01 X53.0953 Y56.6029 
N07530 G01 X53.2405 Y56.6318 
N07540 G01 X54.7094 Y56.6318 
N07550 G01 X54.8547 Y56.6029 
N07560 G01 X54.9915 Y56.5463 
N07570 G01 X55.1147 Y56.4640 
N07580 G01 X55.2194 Y56.3593 
N07590 G01 X55.3017 Y56.2361 
N07600 G01 X55.3583 Y56.0993 
N07610 G01 X55.3872 Y55.9541 
N07620 G01 X55.3872 Y55.8059 
N07630 G01 X55.3583 Y55.6607 
N07640 G01 X55.3017 Y55.5239 
N07650 G01 X55.2194 Y55.4007 
N07660 G01 X55.1147 Y55.2960 
N07670 G01 X54.9915 Y55.2137 
N07680 G01 X54.8547 Y55.1571 
N07690 G01 X54.7094 Y55.1282 
N07700 G01 X53.2405 Y55.1282 
N07710 G01 X53.0953 Y55.1571 
N07720 G01 X52.9585 Y55.2137 
N07730 G01 X52.8353 Y55.2960 
N07740 G00 Z3.0000 
N07750 G00 X52.8353 Y57.8360 
N07760 G01 Z-0.1000 F254.00 
N07770 G01 X52.7306 Y57.9407 F508.00 
N07780 G01 X52.6483 Y58.0639 
N07790 G01 X52.5917 Y58.2007 
N07800 G01 X52.5628 Y58.3459 
N07810 G01 X52.5628 Y58.4941 
N07820 G01 X52.5917 Y58.6393 
N07830 G01 X52.6483 Y58.7761 
N07840 G01 X52.7306 Y58.8993 
N07850 G01 X52.8353 Y59.0040 
N07860 G01 X52.9585 Y59.0863 
N07870 G01 X53.0953 Y59.1429 
N07880 G01 X53.2405 Y59.1718 
N07890 G01 X54.7094 Y59.1718 
N07900 G01 X54.8547 Y59.1429 
N07910 G01 X54.9915 Y59.0863 
N07920 G01 X55.1147 Y59.0040 
N07930 G01 X55.2194 Y58.8993 
N07940 G01 X55.3017 Y58.7761 
N07950 G01 X55.3583 Y58.6393 
N07960 G01 X55.3872 Y58.4941 
N07970 G01 X55.3872 Y58.3459 
N07980 G01 X55.3583 Y58.2007 
N07990 G01 X55.3017 Y58.0639 
N08000 G01 X55.2194 Y57.9407 
N08010 G01 X55.1147 Y57.8360 
N08020 G01 X54.9915 Y57.7537 
N08030 G01 X54.8547 Y57.6971 
N08040 G01 X54.7094 Y57.6682 
N08050 G01 X53.2405 Y57.6682 
N08060 G01 X53.0953 Y57.6971 
N08070 G01 X52.9585 Y57.7537 
N08080 G01 X52.8353 Y57.8360 
N08090 G00 Z3.0000 
N08100 G00 X52.8353 Y60.3760 
N08110 G01 Z-0.1000 F254.00 
N08120 G01 X52.7306 Y60.4807 F508.00 
N08130 G01 X52.6483 Y60.6039 
N08140 G01 X52.5917 Y60.7407 
N08150 G01 X52.5628 Y60.8859 
N08160 G01 X52.5628 Y61.0341 
N08170 G01 X52.5917 Y61.1793 
N08180 G01 X52.6483 Y61.3161 
N08190 G01 X52.7306 Y61.4393 
N08200 G01 X52.8353 Y61.5440 
N08210 G01 X52.9585 Y61.6263 
N08220 G01 X53.0953 Y61.6829 
N08230 G01 X53.2405 Y61.7118 
N08240 G01 X54.7094 Y61.7118 
N08250 G01 X54.8547 Y61.6829 
N08260 G01 X54.9915 Y61.6263 
N08270 G01 X55.1147 Y61.5440 
N08280 G01 X55.2194 Y61.4393 
N08290 G01 X55.3017 Y61.3161 
N08300 G01 X55.3583 Y61.1793 
N08310 G01 X55.3872 Y61.0341 
N08320 G01 X55.3872 Y60.8859 
N08330 G01 X55.3583 Y60.7407 
N08340 G01 X55.3017 Y60.6039 
N08350 G01 X55.2194 Y60.4807 
N08360 G01 X55.1147 Y60.3760 
N08370 G01 X54.9915 Y60.2937 
N08380 G01 X54.8547 Y60.2371 
N08390 G01 X54.7094 Y60.2082 
N08400 G01 X53.2405 Y60.2082 
N08410 G01 X53.0953 Y60.2371 
N08420 G01 X52.9585 Y60.2937 
N08430 G01 X52.8353 Y60.3760 
N08440 G00 Z3.0000 
N08450 G00 X47.4947 Y60.3760 
N08460 G01 Z-0.1000 F254.00 
N08470 G01 X47.3715 Y60.2937 F508.00 
N08480 G01 X47.2347 Y60.2371 
N08490 G01 X47.0894 Y60.2082 
N08500 G01 X45.6205 Y60.2082 
N08510 G01 X45.4753 Y60.2371 
N08520 G01 X45.3385 Y60.2937 
N08530 G01 X45.2153 Y60.3760 
N08540 G01 X45.1106 Y60.4807 
N08550 G01 X45.0283 Y60.6039 
N08560 G01 X44.9717 Y60.7407 
N08570 G01 X44.9428 Y60.8859 
N08580 G01 X44.9428 Y61.0341 
N08590 G01 X44.9717 Y61.1793 
N08600 G01 X45.0283 Y61.3161 
N08610 G01 X45.1106 Y61.4393 
N08620 G01 X45.2153 Y61.5440 
N08630 G01 X45.3385 Y61.6263 
N08640 G01 X45.4753 Y61.6829 
N08650 G01 X45.6205 Y61.7118 
N08660 G01 X47.0894 Y61.7118 
N08670 G01 X47.2347 Y61.6829 
N08680 G01 X47.3715 Y61.6263 
N08690 G01 X47.4947 Y61.5440 
N08700 G01 X47.5994 Y61.4393 
N08710 G01 X47.6817 Y61.3161 
N08720 G01 X47.7383 Y61.1793 
N08730 G01 X47.7672 Y61.0341 
N08740 G01 X47.7672 Y60.8859 
N08750 G01 X47.7383 Y60.7407 
N08760 G01 X47.6817 Y60.6039 
N08770 G01 X47.5994 Y60.4807 
N08780 G01 X47.4947 Y60.3760 
N08790 G00 Z3.0000 
N08800 G00 X58.9001 Y60.4160 
N08810 G01 Z-0.1000 F254.00 
N08820 G01 X58.8067 Y60.5557 F508.00 
N08830 G01 X58.7424 Y60.7111 
N08840 G01 X58.7096 Y60.8759 
N08850 G01 X58.7096 Y61.0441 
N08860 G01 X58.7424 Y61.2089 
N08870 G01 X58.8067 Y61.3643 
N08880 G01 X58.9001 Y61.5040 
N08890 G01 X59.0190 Y61.6229 
N08900 G01 X59.1587 Y61.7163 
N08910 G01 X59.3141 Y61.7806 
N08920 G01 X59.4789 Y61.8134 
N08930 G01 X61.1711 Y61.8134 
N08940 G01 X61.3359 Y61.7806 
N08950 G01 X61.4913 Y61.7163 
N08960 G01 X61.6310 Y61.6229 
N08970 G01 X61.7499 Y61.5040 
N08980 G01 X61.8433 Y61.3643 
N08990 G01 X61.9076 Y61.2089 
N09000 G01 X61.9404 Y61.0441 
N09010 G01 X61.9404 Y60.8759 
N09020 G01 X61.9076 Y60.7111 
N09030 G01 X61.8433 Y60.5557 
N09040 G01 X61.7499 Y60.4160 
N09050 G01 X61.6310 Y60.2971 
N09060 G01 X61.4913 Y60.2037 
N09070 G01 X61.3359 Y60.1394 
N09080 G01 X61.1711 Y60.1066 
N09090 G01 X59.4789 Y60.1066 
N09100 G01 X59.3141 Y60.1394 
N09110 G01 X59.1587 Y60.2037 
N09120 G01 X59.0190 Y60.2971 
N09130 G01 X58.9001 Y60.4160 
N09140 G00 Z3.0000 
N09150 G00 X59.0190 Y59.0829 
N09160 G01 Z-0.1000 F254.00 
N09170 G01 X59.1587 Y59.1763 F508.00 
N09180 G01 X59.3141 Y59.2406 
N09190 G01 X59.4789 Y59.2734 
N09200 G01 X61.1711 Y59.2734 
N09210 G01 X61.3359 Y59.2406 
N09220 G01 X61.4913 Y59.1763 
N09230 G01 X61.6310 Y59.0829 
N09240 G01 X61.7499 Y58.9640 
N09250 G01 X61.8433 Y58.8243 
N09260 G01 X61.9076 Y58.6689 
N09270 G01 X61.9404 Y58.5041 
N09280 G01 X61.9404 Y58.3359 
N09290 G01 X61.9076 Y58.1711 
N09300 G01 X61.8433 Y58.0157 
N09310 G01 X61.7499 Y57.8760 
N09320 G01 X61.6310 Y57.7571 
N09330 G01 X61.4913 Y57.6637 
N09340 G01 X61.3359 Y57.5994 
N09350 G01 X61.1711 Y57.5666 
N09360 G01 X59.4789 Y57.5666 
N09370 G01 X59.3141 Y57.5994 
N09380 G01 X59.1587 Y57.6637 
N09390 G01 X59.0190 Y57.7571 
N09400 G01 X58.9001 Y57.8760 
N09410 G01 X58.8067 Y58.0157 
N09420 G01 X58.7424 Y58.1711 
N09430 G01 X58.7096 Y58.3359 
N09440 G01 X58.7096 Y58.5041 
N09450 G01 X58.7424 Y58.6689 
N09460 G01 X58.8067 Y58.8243 
N09470 G01 X58.9001 Y58.9640 
N09480 G01 X59.0190 Y59.0829 
N09490 G00 Z3.0000 
N09500 G00 X59.0190 Y62.8371 
N09510 G01 Z-0.1000 F254.00 
N09520 G01 X58.9001 Y62.9560 F508.00 
N09530 G01 X58.8067 Y63.0957 
N09540 G01 X58.7424 Y63.2511 
N09550 G01 X58.7096 Y63.4159 
N09560 G01 X58.7096 Y63.5841 
N09570 G01 X58.7424 Y63.7489 
N09580 G01 X58.8067 Y63.9043 
N09590 G01 X58.9001 Y64.0440 
N09600 G01 X59.0190 Y64.1629 
N09610 G01 X59.1587 Y64.2563 
N09620 G01 X59.3141 Y64.3206 
N09630 G01 X59.4789 Y64.3534 
N09640 G01 X61.1711 Y64.3534 
N09650 G01 X61.3359 Y64.3206 
N09660 G01 X61.4913 Y64.2563 
N09670 G01 X61.6310 Y64.1629 
N09680 G01 X61.7499 Y64.0440 
N09690 G01 X61.8433 Y63.9043 
N09700 G01 X61.9076 Y63.7489 
N09710 G01 X61.9404 Y63.5841 
N09720 G01 X61.9404 Y63.4159 
N09730 G01 X61.9076 Y63.2511 
N09740 G01 X61.8433 Y63.0957 
N09750 G01 X61.7499 Y62.9560 
N09760 G01 X61.6310 Y62.8371 
N09770 G01 X61.4913 Y62.7437 
N09780 G01 X61.3359 Y62.6794 
N09790 G01 X61.1711 Y62.6466 
N09800 G01 X59.4789 Y62.6466 
N09810 G01 X59.3141 Y62.6794 
N09820 G01 X59.1587 Y62.7437 
N09830 G01 X59.0190 Y62.8371 
N09840 G00 Z3.0000 
N09850 G00 X59.0190 Y65.3771 
N09860 G01 Z-0.1000 F254.00 
N09870 G01 X58.9001 Y65.4960 F508.00 
N09880 G01 X58.8067 Y65.6357 
N09890 G01 X58.7424 Y65.7911 
N09900 G01 X58.7096 Y65.9559 
N09910 G01 X58.7096 Y66.1241 
N09920 G01 X58.7424 Y66.2889 
N09930 G01 X58.8067 Y66.4443 
N09940 G01 X58.9001 Y66.5840 
N09950 G01 X59.0190 Y66.7029 
N09960 G01 X59.1587 Y66.7963 
N09970 G01 X59.3141 Y66.8606 
N09980 G01 X59.4789 Y66.8934 
N09990 G01 X61.1711 Y66.8934 
N10000 G01 X61.3359 Y66.8606 
N10010 G01 X61.4913 Y66.7963 
N10020 G01 X61.6310 Y66.7029 
N10030 G01 X61.7499 Y66.5840 
N10040 G01 X61.8433 Y66.4443 
N10050 G01 X61.9076 Y66.2889 
N10060 G01 X61.9404 Y66.1241 
N10070 G01 X61.9404 Y65.9559 
N10080 G01 X61.9076 Y65.7911 
N10090 G01 X61.8433 Y65.6357 
N10100 G01 X61.7499 Y65.4960 
N10110 G01 X61.6310 Y65.3771 
N10120 G01 X61.4913 Y65.2837 
N10130 G01 X61.3359 Y65.2194 
N10140 G01 X61.1711 Y65.1866 
N10150 G01 X59.4789 Y65.1866 
N10160 G01 X59.3141 Y65.2194 
N10170 G01 X59.1587 Y65.2837 
N10180 G01 X59.0190 Y65.3771 
N10190 G00 Z3.0000 
N10200 G00 X57.7050 Y65.4593 
N10210 G01 Z-0.1000 F254.00 
N10220 G01 X57.6714 Y65.4454 F508.00 
N10230 G01 X57.4446 Y65.4454 
N10240 G01 X57.4446 Y48.8546 
N10250 G01 X57.6714 Y48.8546 
N10260 G01 X57.7050 Y48.8407 
N10270 G01 X57.7307 Y48.8150 
N10280 G01 X57.7446 Y48.7814 
N10290 G01 X57.7446 Y47.7386 
N10300 G01 X57.7307 Y47.7050 
N10310 G01 X57.7050 Y47.6793 
N10320 G01 X57.6714 Y47.6654 
N10330 G01 X56.6286 Y47.6654 
N10340 G01 X56.5950 Y47.6793 
N10350 G01 X56.5693 Y47.7050 
N10360 G01 X56.5554 Y47.7386 
N10370 G01 X56.5554 Y48.7814 
N10380 G01 X56.5693 Y48.8150 
N10390 G01 X56.5950 Y48.8407 
N10400 G01 X56.6286 Y48.8546 
N10410 G01 X56.8554 Y48.8546 
N10420 G01 X56.8554 Y65.4454 
N10430 G01 X56.6286 Y65.4454 
N10440 G01 X56.5950 Y65.4593 
N10450 G01 X56.5693 Y65.4850 
N10460 G01 X56.5554 Y65.5186 
N10470 G01 X56.5554 Y66.5614 
N10480 G01 X56.5693 Y66.5950 
N10490 G01 X56.5950 Y66.6207 
N10500 G01 X56.6286 Y66.6346 
N10510 G01 X57.6714 Y66.6346 
N10520 G01 X57.7050 Y66.6207 
N10530 G01 X57.7307 Y66.5950 
N10540 G01 X57.7446 Y66.5614 
N10550 G01 X57.7446 Y65.5186 
N10560 G01 X57.7307 Y65.4850 
N10570 G01 X57.7050 Y65.4593 
N10580 G00 Z3.0000 
N10590 G00 X58.9001 Y68.0360 
N10600 G01 Z-0.1000 F254.00 
N10610 G01 X58.8067 Y68.1757 F508.00 
N10620 G01 X58.7424 Y68.3311 
N10630 G01 X58.7096 Y68.4959 
N10640 G01 X58.7096 Y68.6641 
N10650 G01 X58.7424 Y68.8289 
N10660 G01 X58.8067 Y68.9843 
N10670 G01 X58.9001 Y69.1240 
N10680 G01 X59.0190 Y69.2429 
N10690 G01 X59.1587 Y69.3363 
N10700 G01 X59.3141 Y69.4006 
N10710 G01 X59.4789 Y69.4334 
N10720 G01 X61.1711 Y69.4334 
N10730 G01 X61.3359 Y69.4006 
N10740 G01 X61.4913 Y69.3363 
N10750 G01 X61.6310 Y69.2429 
N10760 G01 X61.7499 Y69.1240 
N10770 G01 X61.8433 Y68.9843 
N10780 G01 X61.9076 Y68.8289 
N10790 G01 X61.9404 Y68.6641 
N10800 G01 X61.9404 Y68.4959 
N10810 G01 X61.9076 Y68.3311 
N10820 G01 X61.8433 Y68.1757 
N10830 G01 X61.7499 Y68.0360 
N10840 G01 X61.6310 Y67.9171 
N10850 G01 X61.4913 Y67.8237 
N10860 G01 X61.3359 Y67.7594 
N10870 G01 X61.1711 Y67.7266 
N10880 G01 X59.4789 Y67.7266 
N10890 G01 X59.3141 Y67.7594 
N10900 G01 X59.1587 Y67.8237 
N10910 G01 X59.0190 Y67.9171 
N10920 G01 X58.9001 Y68.0360 
N10930 G00 Z3.0000 
N10940 G00 X66.3425 Y66.8426 
N10950 G01 Z-0.1000 F254.00 
N10960 G01 X67.0075 Y66.8426 F508.00 
N10970 G01 X67.4776 Y66.3725 
N10980 G01 X67.4776 Y65.7075 
N10990 G01 X67.0075 Y65.2374 
N11000 G01 X66.3425 Y65.2374 
N11010 G01 X65.8724 Y65.7075 
N11020 G01 X65.8724 Y66.3725 
N11030 G01 X66.3425 Y66.8426 
N11040 G00 Z3.0000 
N11050 G00 X68.1711 Y70.6876 
N11060 G01 Z-0.1000 F254.00 
N11070 G01 X68.1711 Y71.5524 F508.00 
N11080 G01 X68.7826 Y72.1639 
N11090 G01 X69.6474 Y72.1639 
N11100 G01 X70.2589 Y71.5524 
N11110 G01 X70.2589 Y70.6876 
N11120 G01 X69.6474 Y70.0761 
N11130 G01 X68.7826 Y70.0761 
N11140 G01 X68.1711 Y70.6876 
N11150 G00 Z3.0000 
N11160 G00 X67.4776 Y74.5975 
N11170 G01 Z-0.1000 F254.00 
N11180 G01 X67.0075 Y74.1274 F508.00 
N11190 G01 X66.3425 Y74.1274 
N11200 G01 X65.8724 Y74.5975 
N11210 G01 X65.8724 Y75.2625 
N11220 G01 X66.3425 Y75.7326 
N11230 G01 X67.0075 Y75.7326 
N11240 G01 X67.4776 Y75.2625 
N11250 G01 X67.4776 Y74.5975 
N11260 G00 Z3.0000 
N11270 G00 X76.4026 Y72.1639 
N11280 G01 Z-0.1000 F254.00 
N11290 G01 X77.2674 Y72.1639 F508.00 
N11300 G01 X77.8789 Y71.5524 
N11310 G01 X77.8789 Y70.6876 
N11320 G01 X77.2674 Y70.0761 
N11330 G01 X76.4026 Y70.0761 
N11340 G01 X75.7911 Y70.6876 
N11350 G01 X75.7911 Y71.5524 
N11360 G01 X76.4026 Y72.1639 
N11370 G00 Z3.0000 
N11380 G00 X81.1124 Y74.5975 
N11390 G01 Z-0.1000 F254.00 
N11400 G01 X81.1124 Y75.2625 F508.00 
N11410 G01 X81.5825 Y75.7326 
N11420 G01 X82.2475 Y75.7326 
N11430 G01 X82.7176 Y75.2625 
N11440 G01 X82.7176 Y74.5975 
N11450 G01 X82.2475 Y74.1274 
N11460 G01 X81.5825 Y74.1274 
N11470 G01 X81.1124 Y74.5975 
N11480 G00 Z3.0000 
N11490 G00 X81.5825 Y66.8426 
N11500 G01 Z-0.1000 F254.00 
N11510 G01 X82.2475 Y66.8426 F508.00 
N11520 G01 X82.7176 Y66.3725 
N11530 G01 X82.7176 Y65.7075 
N11540 G01 X82.2475 Y65.2374 
N11550 G01 X81.5825 Y65.2374 
N11560 G01 X81.1124 Y65.7075 
N11570 G01 X81.1124 Y66.3725 
N11580 G01 X81.5825 Y66.8426 
N11590 G00 Z3.0000 
N11600 G00 X77.8789 Y62.6624 
N11610 G01 Z-0.1000 F254.00 
N11620 G01 X77.8789 Y61.7976 F508.00 
N11630 G01 X77.2674 Y61.1861 
N11640 G01 X76.4026 Y61.1861 
N11650 G01 X75.7911 Y61.7976 
N11660 G01 X75.7911 Y62.6624 
N11670 G01 X76.4026 Y63.2739 
N11680 G01 X77.2674 Y63.2739 
N11690 G01 X77.8789 Y62.6624 
N11700 G00 Z3.0000 
N11710 G00 X70.2589 Y62.6624 
N11720 G01 Z-0.1000 F254.00 
N11730 G01 X70.2589 Y61.7976 F508.00 
N11740 G01 X69.6474 Y61.1861 
N11750 G01 X68.7826 Y61.1861 
N11760 G01 X68.1711 Y61.7976 
N11770 G01 X68.1711 Y62.6624 
N11780 G01 X68.7826 Y63.2739 
N11790 G01 X69.6474 Y63.2739 
N11800 G01 X70.2589 Y62.6624 
N11810 G00 Z3.0000 
N11820 G00 X67.4776 Y57.4825 
N11830 G01 Z-0.1000 F254.00 
N11840 G01 X67.4776 Y56.8175 F508.00 
N11850 G01 X67.0075 Y56.3474 
N11860 G01 X66.3425 Y56.3474 
N11870 G01 X65.8724 Y56.8175 
N11880 G01 X65.8724 Y57.4825 
N11890 G01 X66.3425 Y57.9526 
N11900 G01 X67.0075 Y57.9526 
N11910 G01 X67.4776 Y57.4825 
N11920 G00 Z3.0000 
N11930 G00 X68.7826 Y54.3839 
N11940 G01 Z-0.1000 F254.00 
N11950 G01 X69.6474 Y54.3839 F508.00 
N11960 G01 X70.2589 Y53.7724 
N11970 G01 X70.2589 Y52.9076 
N11980 G01 X69.6474 Y52.2961 
N11990 G01 X68.7826 Y52.2961 
N12000 G01 X68.1711 Y52.9076 
N12010 G01 X68.1711 Y53.7724 
N12020 G01 X68.7826 Y54.3839 
N12030 G00 Z3.0000 
N12040 G00 X76.4026 Y54.3839 
N12050 G01 Z-0.1000 F254.00 
N12060 G01 X77.2674 Y54.3839 F508.00 
N12070 G01 X77.8789 Y53.7724 
N12080 G01 X77.8789 Y52.9076 
N12090 G01 X77.2674 Y52.2961 
N12100 G01 X76.4026 Y52.2961 
N12110 G01 X75.7911 Y52.9076 
N12120 G01 X75.7911 Y53.7724 
N12130 G01 X76.4026 Y54.3839 
N12140 G00 Z3.0000 
N12150 G00 X81.1124 Y56.8175 
N12160 G01 Z-0.1000 F254.00 
N12170 G01 X81.1124 Y57.4825 F508.00 
N12180 G01 X81.5825 Y57.9526 
N12190 G01 X82.2475 Y57.9526 
N12200 G01 X82.7176 Y57.4825 
N12210 G01 X82.7176 Y56.8175 
N12220 G01 X82.2475 Y56.3474 
N12230 G01 X81.5825 Y56.3474 
N12240 G01 X81.1124 Y56.8175 
N12250 G00 Z3.0000 
N12260 G00 X74.2407 Y43.7350 
N12270 G01 Z-0.1000 F254.00 
N12280 G01 X74.2546 Y43.7014 F508.00 
N12290 G01 X74.2546 Y43.4746 
N12300 G01 X88.3054 Y43.4746 
N12310 G01 X88.3054 Y43.7014 
N12320 G01 X88.3193 Y43.7350 
N12330 G01 X88.3450 Y43.7607 
N12340 G01 X88.3786 Y43.7746 
N12350 G01 X89.4214 Y43.7746 
N12360 G01 X89.4550 Y43.7607 
N12370 G01 X89.4807 Y43.7350 
N12380 G01 X89.4946 Y43.7014 
N12390 G01 X89.4946 Y42.6586 
N12400 G01 X89.4807 Y42.6250 
N12410 G01 X89.4550 Y42.5993 
N12420 G01 X89.4214 Y42.5854 
N12430 G01 X88.3786 Y42.5854 
N12440 G01 X88.3450 Y42.5993 
N12450 G01 X88.3193 Y42.6250 
N12460 G01 X88.3054 Y42.6586 
N12470 G01 X88.3054 Y42.8854 
N12480 G01 X74.2546 Y42.8854 
N12490 G01 X74.2546 Y42.6586 
N12500 G01 X74.2407 Y42.6250 
N12510 G01 X74.2150 Y42.5993 
N12520 G01 X74.1814 Y42.5854 
N12530 G01 X73.1386 Y42.5854 
N12540 G01 X73.1050 Y42.5993 
N12550 G01 X73.0793 Y42.6250 
N12560 G01 X73.0654 Y42.6586 
N12570 G01 X73.0654 Y43.7014 
N12580 G01 X73.0793 Y43.7350 
N12590 G01 X73.1050 Y43.7607 
N12600 G01 X73.1386 Y43.7746 
N12610 G01 X74.1814 Y43.7746 
N12620 G01 X74.2150 Y43.7607 
N12630 G01 X74.2407 Y43.7350 
N12640 G00 Z3.0000 
N12650 G00 X69.1607 Y43.7350 
N12660 G01 Z-0.1000 F254.00 
N12670 G01 X69.1746 Y43.7014 F508.00 
N12680 G01 X69.1746 Y42.6586 
N12690 G01 X69.1607 Y42.6250 
N12700 G01 X69.1350 Y42.5993 
N12710 G01 X69.1014 Y42.5854 
N12720 G01 X68.0586 Y42.5854 
N12730 G01 X68.0250 Y42.5993 
N12740 G01 X67.9993 Y42.6250 
N12750 G01 X67.9854 Y42.6586 
N12760 G01 X67.9854 Y42.8854 
N12770 G01 X55.2046 Y42.8854 
N12780 G01 X55.2046 Y42.6586 
N12790 G01 X55.1907 Y42.6250 
N12800 G01 X55.1650 Y42.5993 
N12810 G01 X55.1314 Y42.5854 
N12820 G01 X54.0886 Y42.5854 
N12830 G01 X54.0550 Y42.5993 
N12840 G01 X54.0293 Y42.6250 
N12850 G01 X54.0154 Y42.6586 
N12860 G01 X54.0154 Y43.7014 
N12870 G01 X54.0293 Y43.7350 
N12880 G01 X54.0550 Y43.7607 
N12890 G01 X54.0886 Y43.7746 
N12900 G01 X55.1314 Y43.7746 
N12910 G01 X55.1650 Y43.7607 
N12920 G01 X55.1907 Y43.7350 
N12930 G01 X55.2046 Y43.7014 
N12940 G01 X55.2046 Y43.4746 
N12950 G01 X67.9854 Y43.4746 
N12960 G01 X67.9854 Y43.7014 
N12970 G01 X67.9993 Y43.7350 
N12980 G01 X68.0250 Y43.7607 
N12990 G01 X68.0586 Y43.7746 
N13000 G01 X69.1014 Y43.7746 
N13010 G01 X69.1350 Y43.7607 
N13020 G01 X69.1607 Y43.7350 
N13030 G00 Z3.0000 
N13040 G00 X68.6968 Y30.7914 
N13050 G01 Z-0.1000 F254.00 
N13060 G01 X68.6968 Y30.1686 F508.00 
N13070 G01 X68.2564 Y29.7282 
N13080 G01 X67.6336 Y29.7282 
N13090 G01 X67.1932 Y30.1686 
N13100 G01 X67.1932 Y30.7914 
N13110 G01 X67.6336 Y31.2318 
N13120 G01 X68.2564 Y31.2318 
N13130 G01 X68.6968 Y30.7914 
N13140 G00 Z3.0000 
N13150 G00 X68.6968 Y28.2514 
N13160 G01 Z-0.1000 F254.00 
N13170 G01 X68.6968 Y27.6286 F508.00 
N13180 G01 X68.2564 Y27.1882 
N13190 G01 X67.6336 Y27.1882 
N13200 G01 X67.1932 Y27.6286 
N13210 G01 X67.1932 Y28.2514 
N13220 G01 X67.6336 Y28.6918 
N13230 G01 X68.2564 Y28.6918 
N13240 G01 X68.6968 Y28.2514 
N13250 G00 Z3.0000 
N13260 G00 X68.6968 Y23.1714 
N13270 G01 Z-0.1000 F254.00 
N13280 G01 X68.6968 Y22.5486 F508.00 
N13290 G01 X68.2564 Y22.1082 
N13300 G01 X67.6336 Y22.1082 
N13310 G01 X67.1932 Y22.5486 
N13320 G01 X67.1932 Y23.1714 
N13330 G01 X67.6336 Y23.6118 
N13340 G01 X68.2564 Y23.6118 
N13350 G01 X68.6968 Y23.1714 
N13360 G00 Z3.0000 
N13370 G00 X68.6968 Y20.6314 
N13380 G01 Z-0.1000 F254.00 
N13390 G01 X68.6968 Y20.0086 F508.00 
N13400 G01 X68.2564 Y19.5682 
N13410 G01 X67.6336 Y19.5682 
N13420 G01 X67.1932 Y20.0086 
N13430 G01 X67.1932 Y20.6314 
N13440 G01 X67.6336 Y21.0718 
N13450 G01 X68.2564 Y21.0718 
N13460 G01 X68.6968 Y20.6314 
N13470 G00 Z3.0000 
N13480 G00 X68.6968 Y15.5514 
N13490 G01 Z-0.1000 F254.00 
N13500 G01 X68.6968 Y14.9286 F508.00 
N13510 G01 X68.2564 Y14.4882 
N13520 G01 X67.6336 Y14.4882 
N13530 G01 X67.1932 Y14.9286 
N13540 G01 X67.1932 Y15.5514 
N13550 G01 X67.6336 Y15.9918 
N13560 G01 X68.2564 Y15.9918 
N13570 G01 X68.6968 Y15.5514 
N13580 G00 Z3.0000 
N13590 G00 X68.6968 Y13.0114 
N13600 G01 Z-0.1000 F254.00 
N13610 G01 X68.6968 Y12.3886 F508.00 
N13620 G01 X68.2564 Y11.9482 
N13630 G01 X67.6336 Y11.9482 
N13640 G01 X67.1932 Y12.3886 
N13650 G01 X67.1932 Y13.0114 
N13660 G01 X67.6336 Y13.4518 
N13670 G01 X68.2564 Y13.4518 
N13680 G01 X68.6968 Y13.0114 
N13690 G00 Z3.0000 
N13700 G00 X72.2224 Y14.9075 
N13710 G01 Z-0.1000 F254.00 
N13720 G01 X72.2224 Y15.5725 F508.00 
N13730 G01 X72.6925 Y16.0426 
N13740 G01 X73.3575 Y16.0426 
N13750 G01 X73.8276 Y15.5725 
N13760 G01 X73.8276 Y14.9075 
N13770 G01 X73.3575 Y14.4374 
N13780 G01 X72.6925 Y14.4374 
N13790 G01 X72.2224 Y14.9075 
N13800 G00 Z3.0000 
N13810 G00 X72.2224 Y22.5275 
N13820 G01 Z-0.1000 F254.00 
N13830 G01 X72.2224 Y23.1925 F508.00 
N13840 G01 X72.6925 Y23.6626 
N13850 G01 X73.3575 Y23.6626 
N13860 G01 X73.8276 Y23.1925 
N13870 G01 X73.8276 Y22.5275 
N13880 G01 X73.3575 Y22.0574 
N13890 G01 X72.6925 Y22.0574 
N13900 G01 X72.2224 Y22.5275 
N13910 G00 Z3.0000 
N13920 G00 X72.2224 Y30.1475 
N13930 G01 Z-0.1000 F254.00 
N13940 G01 X72.2224 Y30.8125 F508.00 
N13950 G01 X72.6925 Y31.2826 
N13960 G01 X73.3575 Y31.2826 
N13970 G01 X73.8276 Y30.8125 
N13980 G01 X73.8276 Y30.1475 
N13990 G01 X73.3575 Y29.6774 
N14000 G01 X72.6925 Y29.6774 
N14010 G01 X72.2224 Y30.1475 
N14020 G00 Z3.0000 
N14030 G00 X87.4624 Y30.1475 
N14040 G01 Z-0.1000 F254.00 
N14050 G01 X87.4624 Y30.8125 F508.00 
N14060 G01 X87.9325 Y31.2826 
N14070 G01 X88.5975 Y31.2826 
N14080 G01 X89.0676 Y30.8125 
N14090 G01 X89.0676 Y30.1475 
N14100 G01 X88.5975 Y29.6774 
N14110 G01 X87.9325 Y29.6774 
N14120 G01 X87.4624 Y30.1475 
N14130 G00 Z3.0000 
N14140 G00 X87.9325 Y23.6626 
N14150 G01 Z-0.1000 F254.00 
N14160 G01 X88.5975 Y23.6626 F508.00 
N14170 G01 X89.0676 Y23.1925 
N14180 G01 X89.0676 Y22.5275 
N14190 G01 X88.5975 Y22.0574 
N14200 G01 X87.9325 Y22.0574 
N14210 G01 X87.4624 Y22.5275 
N14220 G01 X87.4624 Y23.1925 
N14230 G01 X87.9325 Y23.6626 
N14240 G00 Z3.0000 
N14250 G00 X87.9325 Y16.0426 
N14260 G01 Z-0.1000 F254.00 
N14270 G01 X88.5975 Y16.0426 F508.00 
N14280 G01 X89.0676 Y15.5725 
N14290 G01 X89.0676 Y14.9075 
N14300 G01 X88.5975 Y14.4374 
N14310 G01 X87.9325 Y14.4374 
N14320 G01 X87.4624 Y14.9075 
N14330 G01 X87.4624 Y15.5725 
N14340 G01 X87.9325 Y16.0426 
N14350 G00 Z3.0000 
N14360 G00 X61.7499 Y14.5140 
N14370 G01 Z-0.1000 F254.00 
N14380 G01 X61.8433 Y14.3743 F508.00 
N14390 G01 X61.9076 Y14.2189 
N14400 G01 X61.9404 Y14.0541 
N14410 G01 X61.9404 Y13.8859 
N14420 G01 X61.9076 Y13.7211 
N14430 G01 X61.8433 Y13.5657 
N14440 G01 X61.7499 Y13.4260 
N14450 G01 X61.6310 Y13.3071 
N14460 G01 X61.4913 Y13.2137 
N14470 G01 X61.3359 Y13.1494 
N14480 G01 X61.1711 Y13.1166 
N14490 G01 X59.4789 Y13.1166 
N14500 G01 X59.3141 Y13.1494 
N14510 G01 X59.1587 Y13.2137 
N14520 G01 X59.0190 Y13.3071 
N14530 G01 X58.9001 Y13.4260 
N14540 G01 X58.8067 Y13.5657 
N14550 G01 X58.7424 Y13.7211 
N14560 G01 X58.7096 Y13.8859 
N14570 G01 X58.7096 Y14.0541 
N14580 G01 X58.7424 Y14.2189 
N14590 G01 X58.8067 Y14.3743 
N14600 G01 X58.9001 Y14.5140 
N14610 G01 X59.0190 Y14.6329 
N14620 G01 X59.1587 Y14.7263 
N14630 G01 X59.3141 Y14.7906 
N14640 G01 X59.4789 Y14.8234 
N14650 G01 X61.1711 Y14.8234 
N14660 G01 X61.3359 Y14.7906 
N14670 G01 X61.4913 Y14.7263 
N14680 G01 X61.6310 Y14.6329 
N14690 G01 X61.7499 Y14.5140 
N14700 G00 Z3.0000 
N14710 G00 X61.7499 Y11.9740 
N14720 G01 Z-0.1000 F254.00 
N14730 G01 X61.8433 Y11.8343 F508.00 
N14740 G01 X61.9076 Y11.6789 
N14750 G01 X61.9404 Y11.5141 
N14760 G01 X61.9404 Y11.3459 
N14770 G01 X61.9076 Y11.1811 
N14780 G01 X61.8433 Y11.0257 
N14790 G01 X61.7499 Y10.8860 
N14800 G01 X61.6310 Y10.7671 
N14810 G01 X61.4913 Y10.6737 
N14820 G01 X61.3359 Y10.6094 
N14830 G01 X61.1711 Y10.5766 
N14840 G01 X59.4789 Y10.5766 
N14850 G01 X59.3141 Y10.6094 
N14860 G01 X59.1587 Y10.6737 
N14870 G01 X59.0190 Y10.7671 
N14880 G01 X58.9001 Y10.8860 
N14890 G01 X58.8067 Y11.0257 
N14900 G01 X58.7424 Y11.1811 
N14910 G01 X58.7096 Y11.3459 
N14920 G01 X58.7096 Y11.5141 
N14930 G01 X58.7424 Y11.6789 
N14940 G01 X58.8067 Y11.8343 
N14950 G01 X58.9001 Y11.9740 
N14960 G01 X59.0190 Y12.0929 
N14970 G01 X59.1587 Y12.1863 
N14980 G01 X59.3141 Y12.2506 
N14990 G01 X59.4789 Y12.2834 
N15000 G01 X61.1711 Y12.2834 
N15010 G01 X61.3359 Y12.2506 
N15020 G01 X61.4913 Y12.1863 
N15030 G01 X61.6310 Y12.0929 
N15040 G01 X61.7499 Y11.9740 
N15050 G00 Z3.0000 
N15060 G00 X61.7499 Y9.4340 
N15070 G01 Z-0.1000 F254.00 
N15080 G01 X61.8433 Y9.2943 F508.00 
N15090 G01 X61.9076 Y9.1389 
N15100 G01 X61.9404 Y8.9741 
N15110 G01 X61.9404 Y8.8059 
N15120 G01 X61.9076 Y8.6411 
N15130 G01 X61.8433 Y8.4857 
N15140 G01 X61.7499 Y8.3460 
N15150 G01 X61.6310 Y8.2271 
N15160 G01 X61.4913 Y8.1337 
N15170 G01 X61.3359 Y8.0694 
N15180 G01 X61.1711 Y8.0366 
N15190 G01 X59.4789 Y8.0366 
N15200 G01 X59.3141 Y8.0694 
N15210 G01 X59.1587 Y8.1337 
N15220 G01 X59.0190 Y8.2271 
N15230 G01 X58.9001 Y8.3460 
N15240 G01 X58.8067 Y8.4857 
N15250 G01 X58.7424 Y8.6411 
N15260 G01 X58.7096 Y8.8059 
N15270 G01 X58.7096 Y8.9741 
N15280 G01 X58.7424 Y9.1389 
N15290 G01 X58.8067 Y9.2943 
N15300 G01 X58.9001 Y9.4340 
N15310 G01 X59.0190 Y9.5529 
N15320 G01 X59.1587 Y9.6463 
N15330 G01 X59.3141 Y9.7106 
N15340 G01 X59.4789 Y9.7434 
N15350 G01 X61.1711 Y9.7434 
N15360 G01 X61.3359 Y9.7106 
N15370 G01 X61.4913 Y9.6463 
N15380 G01 X61.6310 Y9.5529 
N15390 G01 X61.7499 Y9.4340 
N15400 G00 Z3.0000 
N15410 G00 X61.7499 Y6.8940 
N15420 G01 Z-0.1000 F254.00 
N15430 G01 X61.8433 Y6.7543 F508.00 
N15440 G01 X61.9076 Y6.5989 
N15450 G01 X61.9404 Y6.4341 
N15460 G01 X61.9404 Y6.2659 
N15470 G01 X61.9076 Y6.1011 
N15480 G01 X61.8433 Y5.9457 
N15490 G01 X61.7499 Y5.8060 
N15500 G01 X61.6310 Y5.6871 
N15510 G01 X61.4913 Y5.5937 
N15520 G01 X61.3359 Y5.5294 
N15530 G01 X61.1711 Y5.4966 
N15540 G01 X59.4789 Y5.4966 
N15550 G01 X59.3141 Y5.5294 
N15560 G01 X59.1587 Y5.5937 
N15570 G01 X59.0190 Y5.6871 
N15580 G01 X58.9001 Y5.8060 
N15590 G01 X58.8067 Y5.9457 
N15600 G01 X58.7424 Y6.1011 
N15610 G01 X58.7096 Y6.2659 
N15620 G01 X58.7096 Y6.4341 
N15630 G01 X58.7424 Y6.5989 
N15640 G01 X58.8067 Y6.7543 
N15650 G01 X58.9001 Y6.8940 
N15660 G01 X59.0190 Y7.0129 
N15670 G01 X59.1587 Y7.1063 
N15680 G01 X59.3141 Y7.1706 
N15690 G01 X59.4789 Y7.2034 
N15700 G01 X61.1711 Y7.2034 
N15710 G01 X61.3359 Y7.1706 
N15720 G01 X61.4913 Y7.1063 
N15730 G01 X61.6310 Y7.0129 
N15740 G01 X61.7499 Y6.8940 
N15750 G00 Z3.0000 
N15760 G00 X61.7499 Y4.3540 
N15770 G01 Z-0.1000 F254.00 
N15780 G01 X61.8433 Y4.2143 F508.00 
N15790 G01 X61.9076 Y4.0589 
N15800 G01 X61.9404 Y3.8941 
N15810 G01 X61.9404 Y3.7259 
N15820 G01 X61.9076 Y3.5611 
N15830 G01 X61.8433 Y3.4057 
N15840 G01 X61.7499 Y3.2660 
N15850 G01 X61.6310 Y3.1471 
N15860 G01 X61.4913 Y3.0537 
N15870 G01 X61.3359 Y2.9894 
N15880 G01 X61.1711 Y2.9566 
N15890 G01 X59.4789 Y2.9566 
N15900 G01 X59.3141 Y2.9894 
N15910 G01 X59.1587 Y3.0537 
N15920 G01 X59.0190 Y3.1471 
N15930 G01 X58.9001 Y3.2660 
N15940 G01 X58.8067 Y3.4057 
N15950 G01 X58.7424 Y3.5611 
N15960 G01 X58.7096 Y3.7259 
N15970 G01 X58.7096 Y3.8941 
N15980 G01 X58.7424 Y4.0589 
N15990 G01 X58.8067 Y4.2143 
N16000 G01 X58.9001 Y4.3540 
N16010 G01 X59.0190 Y4.4729 
N16020 G01 X59.1587 Y4.5663 
N16030 G01 X59.3141 Y4.6306 
N16040 G01 X59.4789 Y4.6634 
N16050 G01 X61.1711 Y4.6634 
N16060 G01 X61.3359 Y4.6306 
N16070 G01 X61.4913 Y4.5663 
N16080 G01 X61.6310 Y4.4729 
N16090 G01 X61.7499 Y4.3540 
N16100 G00 Z3.0000 
N16110 G00 X56.4746 Y4.3314 
N16120 G01 Z-0.1000 F254.00 
N16130 G01 X56.4746 Y3.2886 F508.00 
N16140 G01 X56.4607 Y3.2550 
N16150 G01 X56.4350 Y3.2293 
N16160 G01 X56.4014 Y3.2154 
N16170 G01 X55.3586 Y3.2154 
N16180 G01 X55.3250 Y3.2293 
N16190 G01 X55.2993 Y3.2550 
N16200 G01 X55.2854 Y3.2886 
N16210 G01 X55.2854 Y4.3314 
N16220 G01 X55.2993 Y4.3650 
N16230 G01 X55.3250 Y4.3907 
N16240 G01 X55.3586 Y4.4046 
N16250 G01 X55.5854 Y4.4046 
N16260 G01 X55.5854 Y17.1854 
N16270 G01 X55.3586 Y17.1854 
N16280 G01 X55.3250 Y17.1993 
N16290 G01 X55.2993 Y17.2250 
N16300 G01 X55.2854 Y17.2586 
N16310 G01 X55.2854 Y18.3014 
N16320 G01 X55.2993 Y18.3350 
N16330 G01 X55.3250 Y18.3607 
N16340 G01 X55.3586 Y18.3746 
N16350 G01 X56.4014 Y18.3746 
N16360 G01 X56.4350 Y18.3607 
N16370 G01 X56.4607 Y18.3350 
N16380 G01 X56.4746 Y18.3014 
N16390 G01 X56.4746 Y17.2586 
N16400 G01 X56.4607 Y17.2250 
N16410 G01 X56.4350 Y17.1993 
N16420 G01 X56.4014 Y17.1854 
N16430 G01 X56.1746 Y17.1854 
N16440 G01 X56.1746 Y4.4046 
N16450 G01 X56.4014 Y4.4046 
N16460 G01 X56.4350 Y4.3907 
N16470 G01 X56.4607 Y4.3650 
N16480 G01 X56.4746 Y4.3314 
N16490 G00 Z3.0000 
N16500 G00 X51.2089 Y4.2424 
N16510 G01 Z-0.1000 F254.00 
N16520 G01 X51.2089 Y3.3776 F508.00 
N16530 G01 X50.5974 Y2.7661 
N16540 G01 X49.7326 Y2.7661 
N16550 G01 X49.1211 Y3.3776 
N16560 G01 X49.1211 Y4.2424 
N16570 G01 X49.7326 Y4.8539 
N16580 G01 X50.5974 Y4.8539 
N16590 G01 X51.2089 Y4.2424 
N16600 G00 Z3.0000 
N16610 G00 X45.0446 Y4.3314 
N16620 G01 Z-0.1000 F254.00 
N16630 G01 X45.0446 Y3.2886 F508.00 
N16640 G01 X45.0307 Y3.2550 
N16650 G01 X45.0050 Y3.2293 
N16660 G01 X44.9714 Y3.2154 
N16670 G01 X43.9286 Y3.2154 
N16680 G01 X43.8950 Y3.2293 
N16690 G01 X43.8693 Y3.2550 
N16700 G01 X43.8554 Y3.2886 
N16710 G01 X43.8554 Y4.3314 
N16720 G01 X43.8693 Y4.3650 
N16730 G01 X43.8950 Y4.3907 
N16740 G01 X43.9286 Y4.4046 
N16750 G01 X44.1554 Y4.4046 
N16760 G01 X44.1554 Y17.1854 
N16770 G01 X43.9286 Y17.1854 
N16780 G01 X43.8950 Y17.1993 
N16790 G01 X43.8693 Y17.2250 
N16800 G01 X43.8554 Y17.2586 
N16810 G01 X43.8554 Y18.3014 
N16820 G01 X43.8693 Y18.3350 
N16830 G01 X43.8950 Y18.3607 
N16840 G01 X43.9286 Y18.3746 
N16850 G01 X44.9714 Y18.3746 
N16860 G01 X45.0050 Y18.3607 
N16870 G01 X45.0307 Y18.3350 
N16880 G01 X45.0446 Y18.3014 
N16890 G01 X45.0446 Y17.2586 
N16900 G01 X45.0307 Y17.2250 
N16910 G01 X45.0050 Y17.1993 
N16920 G01 X44.9714 Y17.1854 
N16930 G01 X44.7446 Y17.1854 
N16940 G01 X44.7446 Y4.4046 
N16950 G01 X44.9714 Y4.4046 
N16960 G01 X45.0050 Y4.3907 
N16970 G01 X45.0307 Y4.3650 
N16980 G01 X45.0446 Y4.3314 
N16990 G00 Z3.0000 
N17000 G00 X41.4299 Y4.3540 
N17010 G01 Z-0.1000 F254.00 
N17020 G01 X41.5233 Y4.2143 F508.00 
N17030 G01 X41.5876 Y4.0589 
N17040 G01 X41.6204 Y3.8941 
N17050 G01 X41.6204 Y3.7259 
N17060 G01 X41.5876 Y3.5611 
N17070 G01 X41.5233 Y3.4057 
N17080 G01 X41.4299 Y3.2660 
N17090 G01 X41.3110 Y3.1471 
N17100 G01 X41.1713 Y3.0537 
N17110 G01 X41.0159 Y2.9894 
N17120 G01 X40.8511 Y2.9566 
N17130 G01 X39.1589 Y2.9566 
N17140 G01 X38.9941 Y2.9894 
N17150 G01 X38.8387 Y3.0537 
N17160 G01 X38.6990 Y3.1471 
N17170 G01 X38.5801 Y3.2660 
N17180 G01 X38.4867 Y3.4057 
N17190 G01 X38.4224 Y3.5611 
N17200 G01 X38.3896 Y3.7259 
N17210 G01 X38.3896 Y3.8941 
N17220 G01 X38.4224 Y4.0589 
N17230 G01 X38.4867 Y4.2143 
N17240 G01 X38.5801 Y4.3540 
N17250 G01 X38.6990 Y4.4729 
N17260 G01 X38.8387 Y4.5663 
N17270 G01 X38.9941 Y4.6306 
N17280 G01 X39.1589 Y4.6634 
N17290 G01 X40.8511 Y4.6634 
N17300 G01 X41.0159 Y4.6306 
N17310 G01 X41.1713 Y4.5663 
N17320 G01 X41.3110 Y4.4729 
N17330 G01 X41.4299 Y4.3540 
N17340 G00 Z3.0000 
N17350 G00 X41.3110 Y5.6871 
N17360 G01 Z-0.1000 F254.00 
N17370 G01 X41.1713 Y5.5937 F508.00 
N17380 G01 X41.0159 Y5.5294 
N17390 G01 X40.8511 Y5.4966 
N17400 G01 X39.1589 Y5.4966 
N17410 G01 X38.9941 Y5.5294 
N17420 G01 X38.8387 Y5.5937 
N17430 G01 X38.6990 Y5.6871 
N17440 G01 X38.5801 Y5.8060 
N17450 G01 X38.4867 Y5.9457 
N17460 G01 X38.4224 Y6.1011 
N17470 G01 X38.3896 Y6.2659 
N17480 G01 X38.3896 Y6.4341 
N17490 G01 X38.4224 Y6.5989 
N17500 G01 X38.4867 Y6.7543 
N17510 G01 X38.5801 Y6.8940 
N17520 G01 X38.6990 Y7.0129 
N17530 G01 X38.8387 Y7.1063 
N17540 G01 X38.9941 Y7.1706 
N17550 G01 X39.1589 Y7.2034 
N17560 G01 X40.8511 Y7.2034 
N17570 G01 X41.0159 Y7.1706 
N17580 G01 X41.1713 Y7.1063 
N17590 G01 X41.3110 Y7.0129 
N17600 G01 X41.4299 Y6.8940 
N17610 G01 X41.5233 Y6.7543 
N17620 G01 X41.5876 Y6.5989 
N17630 G01 X41.6204 Y6.4341 
N17640 G01 X41.6204 Y6.2659 
N17650 G01 X41.5876 Y6.1011 
N17660 G01 X41.5233 Y5.9457 
N17670 G01 X41.4299 Y5.8060 
N17680 G01 X41.3110 Y5.6871 
N17690 G00 Z3.0000 
N17700 G00 X41.3110 Y8.2271 
N17710 G01 Z-0.1000 F254.00 
N17720 G01 X41.1713 Y8.1337 F508.00 
N17730 G01 X41.0159 Y8.0694 
N17740 G01 X40.8511 Y8.0366 
N17750 G01 X39.1589 Y8.0366 
N17760 G01 X38.9941 Y8.0694 
N17770 G01 X38.8387 Y8.1337 
N17780 G01 X38.6990 Y8.2271 
N17790 G01 X38.5801 Y8.3460 
N17800 G01 X38.4867 Y8.4857 
N17810 G01 X38.4224 Y8.6411 
N17820 G01 X38.3896 Y8.8059 
N17830 G01 X38.3896 Y8.9741 
N17840 G01 X38.4224 Y9.1389 
N17850 G01 X38.4867 Y9.2943 
N17860 G01 X38.5801 Y9.4340 
N17870 G01 X38.6990 Y9.5529 
N17880 G01 X38.8387 Y9.6463 
N17890 G01 X38.9941 Y9.7106 
N17900 G01 X39.1589 Y9.7434 
N17910 G01 X40.8511 Y9.7434 
N17920 G01 X41.0159 Y9.7106 
N17930 G01 X41.1713 Y9.6463 
N17940 G01 X41.3110 Y9.5529 
N17950 G01 X41.4299 Y9.4340 
N17960 G01 X41.5233 Y9.2943 
N17970 G01 X41.5876 Y9.1389 
N17980 G01 X41.6204 Y8.9741 
N17990 G01 X41.6204 Y8.8059 
N18000 G01 X41.5876 Y8.6411 
N18010 G01 X41.5233 Y8.4857 
N18020 G01 X41.4299 Y8.3460 
N18030 G01 X41.3110 Y8.2271 
N18040 G00 Z3.0000 
N18050 G00 X41.3110 Y10.7671 
N18060 G01 Z-0.1000 F254.00 
N18070 G01 X41.1713 Y10.6737 F508.00 
N18080 G01 X41.0159 Y10.6094 
N18090 G01 X40.8511 Y10.5766 
N18100 G01 X39.1589 Y10.5766 
N18110 G01 X38.9941 Y10.6094 
N18120 G01 X38.8387 Y10.6737 
N18130 G01 X38.6990 Y10.7671 
N18140 G01 X38.5801 Y10.8860 
N18150 G01 X38.4867 Y11.0257 
N18160 G01 X38.4224 Y11.1811 
N18170 G01 X38.3896 Y11.3459 
N18180 G01 X38.3896 Y11.5141 
N18190 G01 X38.4224 Y11.6789 
N18200 G01 X38.4867 Y11.8343 
N18210 G01 X38.5801 Y11.9740 
N18220 G01 X38.6990 Y12.0929 
N18230 G01 X38.8387 Y12.1863 
N18240 G01 X38.9941 Y12.2506 
N18250 G01 X39.1589 Y12.2834 
N18260 G01 X40.8511 Y12.2834 
N18270 G01 X41.0159 Y12.2506 
N18280 G01 X41.1713 Y12.1863 
N18290 G01 X41.3110 Y12.0929 
N18300 G01 X41.4299 Y11.9740 
N18310 G01 X41.5233 Y11.8343 
N18320 G01 X41.5876 Y11.6789 
N18330 G01 X41.6204 Y11.5141 
N18340 G01 X41.6204 Y11.3459 
N18350 G01 X41.5876 Y11.1811 
N18360 G01 X41.5233 Y11.0257 
N18370 G01 X41.4299 Y10.8860 
N18380 G01 X41.3110 Y10.7671 
N18390 G00 Z3.0000 
N18400 G00 X41.3110 Y13.3071 
N18410 G01 Z-0.1000 F254.00 
N18420 G01 X41.1713 Y13.2137 F508.00 
N18430 G01 X41.0159 Y13.1494 
N18440 G01 X40.8511 Y13.1166 
N18450 G01 X39.1589 Y13.1166 
N18460 G01 X38.9941 Y13.1494 
N18470 G01 X38.8387 Y13.2137 
N18480 G01 X38.6990 Y13.3071 
N18490 G01 X38.5801 Y13.4260 
N18500 G01 X38.4867 Y13.5657 
N18510 G01 X38.4224 Y13.7211 
N18520 G01 X38.3896 Y13.8859 
N18530 G01 X38.3896 Y14.0541 
N18540 G01 X38.4224 Y14.2189 
N18550 G01 X38.4867 Y14.3743 
N18560 G01 X38.5801 Y14.5140 
N18570 G01 X38.6990 Y14.6329 
N18580 G01 X38.8387 Y14.7263 
N18590 G01 X38.9941 Y14.7906 
N18600 G01 X39.1589 Y14.8234 
N18610 G01 X40.8511 Y14.8234 
N18620 G01 X41.0159 Y14.7906 
N18630 G01 X41.1713 Y14.7263 
N18640 G01 X41.3110 Y14.6329 
N18650 G01 X41.4299 Y14.5140 
N18660 G01 X41.5233 Y14.3743 
N18670 G01 X41.5876 Y14.2189 
N18680 G01 X41.6204 Y14.0541 
N18690 G01 X41.6204 Y13.8859 
N18700 G01 X41.5876 Y13.7211 
N18710 G01 X41.5233 Y13.5657 
N18720 G01 X41.4299 Y13.4260 
N18730 G01 X41.3110 Y13.3071 
N18740 G00 Z3.0000 
N18750 G00 X33.1368 Y13.0114 
N18760 G01 Z-0.1000 F254.00 
N18770 G01 X33.1368 Y12.3886 F508.00 
N18780 G01 X32.6964 Y11.9482 
N18790 G01 X32.0736 Y11.9482 
N18800 G01 X31.6332 Y12.3886 
N18810 G01 X31.6332 Y13.0114 
N18820 G01 X32.0736 Y13.4518 
N18830 G01 X32.6964 Y13.4518 
N18840 G01 X33.1368 Y13.0114 
N18850 G00 Z3.0000 
N18860 G00 X33.1368 Y14.9286 
N18870 G01 Z-0.1000 F254.00 
N18880 G01 X32.6964 Y14.4882 F508.00 
N18890 G01 X32.0736 Y14.4882 
N18900 G01 X31.6332 Y14.9286 
N18910 G01 X31.6332 Y15.5514 
N18920 G01 X32.0736 Y15.9918 
N18930 G01 X32.6964 Y15.9918 
N18940 G01 X33.1368 Y15.5514 
N18950 G01 X33.1368 Y14.9286 
N18960 G00 Z3.0000 
N18970 G00 X28.1076 Y14.9075 
N18980 G01 Z-0.1000 F254.00 
N18990 G01 X27.6375 Y14.4374 F508.00 
N19000 G01 X26.9725 Y14.4374 
N19010 G01 X26.5024 Y14.9075 
N19020 G01 X26.5024 Y15.5725 
N19030 G01 X26.9725 Y16.0426 
N19040 G01 X27.6375 Y16.0426 
N19050 G01 X28.1076 Y15.5725 
N19060 G01 X28.1076 Y14.9075 
N19070 G00 Z3.0000 
N19080 G00 X28.1076 Y22.5275 
N19090 G01 Z-0.1000 F254.00 
N19100 G01 X27.6375 Y22.0574 F508.00 
N19110 G01 X26.9725 Y22.0574 
N19120 G01 X26.5024 Y22.5275 
N19130 G01 X26.5024 Y23.1925 
N19140 G01 X26.9725 Y23.6626 
N19150 G01 X27.6375 Y23.6626 
N19160 G01 X28.1076 Y23.1925 
N19170 G01 X28.1076 Y22.5275 
N19180 G00 Z3.0000 
N19190 G00 X31.6332 Y22.5486 
N19200 G01 Z-0.1000 F254.00 
N19210 G01 X31.6332 Y23.1714 F508.00 
N19220 G01 X32.0736 Y23.6118 
N19230 G01 X32.6964 Y23.6118 
N19240 G01 X33.1368 Y23.1714 
N19250 G01 X33.1368 Y22.5486 
N19260 G01 X32.6964 Y22.1082 
N19270 G01 X32.0736 Y22.1082 
N19280 G01 X31.6332 Y22.5486 
N19290 G00 Z3.0000 
N19300 G00 X32.0736 Y21.0718 
N19310 G01 Z-0.1000 F254.00 
N19320 G01 X32.6964 Y21.0718 F508.00 
N19330 G01 X33.1368 Y20.6314 
N19340 G01 X33.1368 Y20.0086 
N19350 G01 X32.6964 Y19.5682 
N19360 G01 X32.0736 Y19.5682 
N19370 G01 X31.6332 Y20.0086 
N19380 G01 X31.6332 Y20.6314 
N19390 G01 X32.0736 Y21.0718 
N19400 G00 Z3.0000 
N19410 G00 X32.0736 Y27.1882 
N19420 G01 Z-0.1000 F254.00 
N19430 G01 X31.6332 Y27.6286 F508.00 
N19440 G01 X31.6332 Y28.2514 
N19450 G01 X32.0736 Y28.6918 
N19460 G01 X32.6964 Y28.6918 
N19470 G01 X33.1368 Y28.2514 
N19480 G01 X33.1368 Y27.6286 
N19490 G01 X32.6964 Y27.1882 
N19500 G01 X32.0736 Y27.1882 
N19510 G00 Z3.0000 
N19520 G00 X32.0736 Y29.7282 
N19530 G01 Z-0.1000 F254.00 
N19540 G01 X31.6332 Y30.1686 F508.00 
N19550 G01 X31.6332 Y30.7914 
N19560 G01 X32.0736 Y31.2318 
N19570 G01 X32.6964 Y31.2318 
N19580 G01 X33.1368 Y30.7914 
N19590 G01 X33.1368 Y30.1686 
N19600 G01 X32.6964 Y29.7282 
N19610 G01 X32.0736 Y29.7282 
N19620 G00 Z3.0000 
N19630 G00 X28.1076 Y30.1475 
N19640 G01 Z-0.1000 F254.00 
N19650 G01 X27.6375 Y29.6774 F508.00 
N19660 G01 X26.9725 Y29.6774 
N19670 G01 X26.5024 Y30.1475 
N19680 G01 X26.5024 Y30.8125 
N19690 G01 X26.9725 Y31.2826 
N19700 G01 X27.6375 Y31.2826 
N19710 G01 X28.1076 Y30.8125 
N19720 G01 X28.1076 Y30.1475 
N19730 G00 Z3.0000 
N19740 G00 X42.6250 Y29.7907 
N19750 G01 Z-0.1000 F254.00 
N19760 G01 X42.6586 Y29.8046 F508.00 
N19770 G01 X43.7014 Y29.8046 
N19780 G01 X43.7350 Y29.7907 
N19790 G01 X43.7607 Y29.7650 
N19800 G01 X43.7746 Y29.7314 
N19810 G01 X43.7746 Y28.6886 
N19820 G01 X43.7607 Y28.6550 
N19830 G01 X43.7350 Y28.6293 
N19840 G01 X43.7014 Y28.6154 
N19850 G01 X43.4746 Y28.6154 
N19860 G01 X43.4746 Y24.7246 
N19870 G01 X43.7014 Y24.7246 
N19880 G01 X43.7350 Y24.7107 
N19890 G01 X43.7607 Y24.6850 
N19900 G01 X43.7746 Y24.6514 
N19910 G01 X43.7746 Y23.6086 
N19920 G01 X43.7607 Y23.5750 
N19930 G01 X43.7350 Y23.5493 
N19940 G01 X43.7014 Y23.5354 
N19950 G01 X42.6586 Y23.5354 
N19960 G01 X42.6250 Y23.5493 
N19970 G01 X42.5993 Y23.5750 
N19980 G01 X42.5854 Y23.6086 
N19990 G01 X42.5854 Y24.6514 
N20000 G01 X42.5993 Y24.6850 
N20010 G01 X42.6250 Y24.7107 
N20020 G01 X42.6586 Y24.7246 
N20030 G01 X42.8854 Y24.7246 
N20040 G01 X42.8854 Y28.6154 
N20050 G01 X42.6586 Y28.6154 
N20060 G01 X42.6250 Y28.6293 
N20070 G01 X42.5993 Y28.6550 
N20080 G01 X42.5854 Y28.6886 
N20090 G01 X42.5854 Y29.7314 
N20100 G01 X42.5993 Y29.7650 
N20110 G01 X42.6250 Y29.7907 
N20120 G00 Z3.0000 
N20130 G00 X45.1106 Y29.6893 
N20140 G01 Z-0.1000 F254.00 
N20150 G01 X45.2153 Y29.7940 F508.00 
N20160 G01 X45.3385 Y29.8763 
N20170 G01 X45.4753 Y29.9329 
N20180 G01 X45.6205 Y29.9618 
N20190 G01 X47.0894 Y29.9618 
N20200 G01 X47.2347 Y29.9329 
N20210 G01 X47.3715 Y29.8763 
N20220 G01 X47.4947 Y29.7940 
N20230 G01 X47.5994 Y29.6893 
N20240 G01 X47.6817 Y29.5661 
N20250 G01 X47.7383 Y29.4293 
N20260 G01 X47.7672 Y29.2841 
N20270 G01 X47.7672 Y29.1359 
N20280 G01 X47.7383 Y28.9907 
N20290 G01 X47.6817 Y28.8539 
N20300 G01 X47.5994 Y28.7307 
N20310 G01 X47.4947 Y28.6260 
N20320 G01 X47.3715 Y28.5437 
N20330 G01 X47.2347 Y28.4871 
N20340 G01 X47.0894 Y28.4582 
N20350 G01 X45.6205 Y28.4582 
N20360 G01 X45.4753 Y28.4871 
N20370 G01 X45.3385 Y28.5437 
N20380 G01 X45.2153 Y28.6260 
N20390 G01 X45.1106 Y28.7307 
N20400 G01 X45.0283 Y28.8539 
N20410 G01 X44.9717 Y28.9907 
N20420 G01 X44.9428 Y29.1359 
N20430 G01 X44.9428 Y29.2841 
N20440 G01 X44.9717 Y29.4293 
N20450 G01 X45.0283 Y29.5661 
N20460 G01 X45.1106 Y29.6893 
N20470 G00 Z3.0000 
N20480 G00 X45.1106 Y31.2707 
N20490 G01 Z-0.1000 F254.00 
N20500 G01 X45.0283 Y31.3939 F508.00 
N20510 G01 X44.9717 Y31.5307 
N20520 G01 X44.9428 Y31.6759 
N20530 G01 X44.9428 Y31.8240 
N20540 G01 X44.9717 Y31.9693 
N20550 G01 X45.0283 Y32.1061 
N20560 G01 X45.1106 Y32.2293 
N20570 G01 X45.2153 Y32.3340 
N20580 G01 X45.3385 Y32.4163 
N20590 G01 X45.4753 Y32.4729 
N20600 G01 X45.6205 Y32.5018 
N20610 G01 X47.0894 Y32.5018 
N20620 G01 X47.2347 Y32.4729 
N20630 G01 X47.3715 Y32.4163 
N20640 G01 X47.4947 Y32.3340 
N20650 G01 X47.5994 Y32.2293 
N20660 G01 X47.6817 Y32.1061 
N20670 G01 X47.7383 Y31.9693 
N20680 G01 X47.7672 Y31.8240 
N20690 G01 X47.7672 Y31.6759 
N20700 G01 X47.7383 Y31.5307 
N20710 G01 X47.6817 Y31.3939 
N20720 G01 X47.5994 Y31.2707 
N20730 G01 X47.4947 Y31.1660 
N20740 G01 X47.3715 Y31.0837 
N20750 G01 X47.2347 Y31.0271 
N20760 G01 X47.0894 Y30.9982 
N20770 G01 X45.6205 Y30.9982 
N20780 G01 X45.4753 Y31.0271 
N20790 G01 X45.3385 Y31.0837 
N20800 G01 X45.2153 Y31.1660 
N20810 G01 X45.1106 Y31.2707 
N20820 G00 Z3.0000 
N20830 G00 X45.1106 Y33.8107 
N20840 G01 Z-0.1000 F254.00 
N20850 G01 X45.0283 Y33.9339 F508.00 
N20860 G01 X44.9717 Y34.0707 
N20870 G01 X44.9428 Y34.2159 
N20880 G01 X44.9428 Y34.3640 
N20890 G01 X44.9717 Y34.5093 
N20900 G01 X45.0283 Y34.6461 
N20910 G01 X45.1106 Y34.7693 
N20920 G01 X45.2153 Y34.8740 
N20930 G01 X45.3385 Y34.9563 
N20940 G01 X45.4753 Y35.0129 
N20950 G01 X45.6205 Y35.0418 
N20960 G01 X47.0894 Y35.0418 
N20970 G01 X47.2347 Y35.0129 
N20980 G01 X47.3715 Y34.9563 
N20990 G01 X47.4947 Y34.8740 
N21000 G01 X47.5994 Y34.7693 
N21010 G01 X47.6817 Y34.6461 
N21020 G01 X47.7383 Y34.5093 
N21030 G01 X47.7672 Y34.3640 
N21040 G01 X47.7672 Y34.2159 
N21050 G01 X47.7383 Y34.0707 
N21060 G01 X47.6817 Y33.9339 
N21070 G01 X47.5994 Y33.8107 
N21080 G01 X47.4947 Y33.7060 
N21090 G01 X47.3715 Y33.6237 
N21100 G01 X47.2347 Y33.5671 
N21110 G01 X47.0894 Y33.5382 
N21120 G01 X45.6205 Y33.5382 
N21130 G01 X45.4753 Y33.5671 
N21140 G01 X45.3385 Y33.6237 
N21150 G01 X45.2153 Y33.7060 
N21160 G01 X45.1106 Y33.8107 
N21170 G00 Z3.0000 
N21180 G00 X45.1106 Y36.3507 
N21190 G01 Z-0.1000 F254.00 
N21200 G01 X45.0283 Y36.4739 F508.00 
N21210 G01 X44.9717 Y36.6107 
N21220 G01 X44.9428 Y36.7559 
N21230 G01 X44.9428 Y36.9040 
N21240 G01 X44.9717 Y37.0493 
N21250 G01 X45.0283 Y37.1861 
N21260 G01 X45.1106 Y37.3093 
N21270 G01 X45.2153 Y37.4140 
N21280 G01 X45.3385 Y37.4963 
N21290 G01 X45.4753 Y37.5529 
N21300 G01 X45.6205 Y37.5818 
N21310 G01 X47.0894 Y37.5818 
N21320 G01 X47.2347 Y37.5529 
N21330 G01 X47.3715 Y37.4963 
N21340 G01 X47.4947 Y37.4140 
N21350 G01 X47.5994 Y37.3093 
N21360 G01 X47.6817 Y37.1861 
N21370 G01 X47.7383 Y37.0493 
N21380 G01 X47.7672 Y36.9040 
N21390 G01 X47.7672 Y36.7559 
N21400 G01 X47.7383 Y36.6107 
N21410 G01 X47.6817 Y36.4739 
N21420 G01 X47.5994 Y36.3507 
N21430 G01 X47.4947 Y36.2460 
N21440 G01 X47.3715 Y36.1637 
N21450 G01 X47.2347 Y36.1071 
N21460 G01 X47.0894 Y36.0782 
N21470 G01 X45.6205 Y36.0782 
N21480 G01 X45.4753 Y36.1071 
N21490 G01 X45.3385 Y36.1637 
N21500 G01 X45.2153 Y36.2460 
N21510 G01 X45.1106 Y36.3507 
N21520 G00 Z3.0000 
N21530 G00 X52.7306 Y36.3507 
N21540 G01 Z-0.1000 F254.00 
N21550 G01 X52.6483 Y36.4739 F508.00 
N21560 G01 X52.5917 Y36.6107 
N21570 G01 X52.5628 Y36.7559 
N21580 G01 X52.5628 Y36.9040 
N21590 G01 X52.5917 Y37.0493 
N21600 G01 X52.6483 Y37.1861 
N21610 G01 X52.7306 Y37.3093 
N21620 G01 X52.8353 Y37.4140 
N21630 G01 X52.9585 Y37.4963 
N21640 G01 X53.0953 Y37.5529 
N21650 G01 X53.2405 Y37.5818 
N21660 G01 X54.7094 Y37.5818 
N21670 G01 X54.8547 Y37.5529 
N21680 G01 X54.9915 Y37.4963 
N21690 G01 X55.1147 Y37.4140 
N21700 G01 X55.2194 Y37.3093 
N21710 G01 X55.3017 Y37.1861 
N21720 G01 X55.3583 Y37.0493 
N21730 G01 X55.3872 Y36.9040 
N21740 G01 X55.3872 Y36.7559 
N21750 G01 X55.3583 Y36.6107 
N21760 G01 X55.3017 Y36.4739 
N21770 G01 X55.2194 Y36.3507 
N21780 G01 X55.1147 Y36.2460 
N21790 G01 X54.9915 Y36.1637 
N21800 G01 X54.8547 Y36.1071 
N21810 G01 X54.7094 Y36.0782 
N21820 G01 X53.2405 Y36.0782 
N21830 G01 X53.0953 Y36.1071 
N21840 G01 X52.9585 Y36.1637 
N21850 G01 X52.8353 Y36.2460 
N21860 G01 X52.7306 Y36.3507 
N21870 G00 Z3.0000 
N21880 G00 X52.8353 Y34.8740 
N21890 G01 Z-0.1000 F254.00 
N21900 G01 X52.9585 Y34.9563 F508.00 
N21910 G01 X53.0953 Y35.0129 
N21920 G01 X53.2405 Y35.0418 
N21930 G01 X54.7094 Y35.0418 
N21940 G01 X54.8547 Y35.0129 
N21950 G01 X54.9915 Y34.9563 
N21960 G01 X55.1147 Y34.8740 
N21970 G01 X55.2194 Y34.7693 
N21980 G01 X55.3017 Y34.6461 
N21990 G01 X55.3583 Y34.5093 
N22000 G01 X55.3872 Y34.3640 
N22010 G01 X55.3872 Y34.2159 
N22020 G01 X55.3583 Y34.0707 
N22030 G01 X55.3017 Y33.9339 
N22040 G01 X55.2194 Y33.8107 
N22050 G01 X55.1147 Y33.7060 
N22060 G01 X54.9915 Y33.6237 
N22070 G01 X54.8547 Y33.5671 
N22080 G01 X54.7094 Y33.5382 
N22090 G01 X53.2405 Y33.5382 
N22100 G01 X53.0953 Y33.5671 
N22110 G01 X52.9585 Y33.6237 
N22120 G01 X52.8353 Y33.7060 
N22130 G01 X52.7306 Y33.8107 
N22140 G01 X52.6483 Y33.9339 
N22150 G01 X52.5917 Y34.0707 
N22160 G01 X52.5628 Y34.2159 
N22170 G01 X52.5628 Y34.3640 
N22180 G01 X52.5917 Y34.5093 
N22190 G01 X52.6483 Y34.6461 
N22200 G01 X52.7306 Y34.7693 
N22210 G01 X52.8353 Y34.8740 
N22220 G00 Z3.0000 
N22230 G00 X52.8353 Y32.3340 
N22240 G01 Z-0.1000 F254.00 
N22250 G01 X52.9585 Y32.4163 F508.00 
N22260 G01 X53.0953 Y32.4729 
N22270 G01 X53.2405 Y32.5018 
N22280 G01 X54.7094 Y32.5018 
N22290 G01 X54.8547 Y32.4729 
N22300 G01 X54.9915 Y32.4163 
N22310 G01 X55.1147 Y32.3340 
N22320 G01 X55.2194 Y32.2293 
N22330 G01 X55.3017 Y32.1061 
N22340 G01 X55.3583 Y31.9693 
N22350 G01 X55.3872 Y31.8240 
N22360 G01 X55.3872 Y31.6759 
N22370 G01 X55.3583 Y31.5307 
N22380 G01 X55.3017 Y31.3939 
N22390 G01 X55.2194 Y31.2707 
N22400 G01 X55.1147 Y31.1660 
N22410 G01 X54.9915 Y31.0837 
N22420 G01 X54.8547 Y31.0271 
N22430 G01 X54.7094 Y30.9982 
N22440 G01 X53.2405 Y30.9982 
N22450 G01 X53.0953 Y31.0271 
N22460 G01 X52.9585 Y31.0837 
N22470 G01 X52.8353 Y31.1660 
N22480 G01 X52.7306 Y31.2707 
N22490 G01 X52.6483 Y31.3939 
N22500 G01 X52.5917 Y31.5307 
N22510 G01 X52.5628 Y31.6759 
N22520 G01 X52.5628 Y31.8240 
N22530 G01 X52.5917 Y31.9693 
N22540 G01 X52.6483 Y32.1061 
N22550 G01 X52.7306 Y32.2293 
N22560 G01 X52.8353 Y32.3340 
N22570 G00 Z3.0000 
N22580 G00 X52.8353 Y29.7940 
N22590 G01 Z-0.1000 F254.00 
N22600 G01 X52.9585 Y29.8763 F508.00 
N22610 G01 X53.0953 Y29.9329 
N22620 G01 X53.2405 Y29.9618 
N22630 G01 X54.7094 Y29.9618 
N22640 G01 X54.8547 Y29.9329 
N22650 G01 X54.9915 Y29.8763 
N22660 G01 X55.1147 Y29.7940 
N22670 G01 X55.2194 Y29.6893 
N22680 G01 X55.3017 Y29.5661 
N22690 G01 X55.3583 Y29.4293 
N22700 G01 X55.3872 Y29.2841 
N22710 G01 X55.3872 Y29.1359 
N22720 G01 X55.3583 Y28.9907 
N22730 G01 X55.3017 Y28.8539 
N22740 G01 X55.2194 Y28.7307 
N22750 G01 X55.1147 Y28.6260 
N22760 G01 X54.9915 Y28.5437 
N22770 G01 X54.8547 Y28.4871 
N22780 G01 X54.7094 Y28.4582 
N22790 G01 X53.2405 Y28.4582 
N22800 G01 X53.0953 Y28.4871 
N22810 G01 X52.9585 Y28.5437 
N22820 G01 X52.8353 Y28.6260 
N22830 G01 X52.7306 Y28.7307 
N22840 G01 X52.6483 Y28.8539 
N22850 G01 X52.5917 Y28.9907 
N22860 G01 X52.5628 Y29.1359 
N22870 G01 X52.5628 Y29.2841 
N22880 G01 X52.5917 Y29.4293 
N22890 G01 X52.6483 Y29.5661 
N22900 G01 X52.7306 Y29.6893 
N22910 G01 X52.8353 Y29.7940 
N22920 G00 Z3.0000 
N22930 G00 X52.8353 Y27.2540 
N22940 G01 Z-0.1000 F254.00 
N22950 G01 X52.9585 Y27.3363 F508.00 
N22960 G01 X53.0953 Y27.3929 
N22970 G01 X53.2405 Y27.4218 
N22980 G01 X54.7094 Y27.4218 
N22990 G01 X54.8547 Y27.3929 
N23000 G01 X54.9915 Y27.3363 
N23010 G01 X55.1147 Y27.2540 
N23020 G01 X55.2194 Y27.1493 
N23030 G01 X55.3017 Y27.0261 
N23040 G01 X55.3583 Y26.8893 
N23050 G01 X55.3872 Y26.7441 
N23060 G01 X55.3872 Y26.5959 
N23070 G01 X55.3583 Y26.4507 
N23080 G01 X55.3017 Y26.3139 
N23090 G01 X55.2194 Y26.1907 
N23100 G01 X55.1147 Y26.0860 
N23110 G01 X54.9915 Y26.0037 
N23120 G01 X54.8547 Y25.9471 
N23130 G01 X54.7094 Y25.9182 
N23140 G01 X53.2405 Y25.9182 
N23150 G01 X53.0953 Y25.9471 
N23160 G01 X52.9585 Y26.0037 
N23170 G01 X52.8353 Y26.0860 
N23180 G01 X52.7306 Y26.1907 
N23190 G01 X52.6483 Y26.3139 
N23200 G01 X52.5917 Y26.4507 
N23210 G01 X52.5628 Y26.5959 
N23220 G01 X52.5628 Y26.7441 
N23230 G01 X52.5917 Y26.8893 
N23240 G01 X52.6483 Y27.0261 
N23250 G01 X52.7306 Y27.1493 
N23260 G01 X52.8353 Y27.2540 
N23270 G00 Z3.0000 
N23280 G00 X52.8353 Y24.7140 
N23290 G01 Z-0.1000 F254.00 
N23300 G01 X52.9585 Y24.7963 F508.00 
N23310 G01 X53.0953 Y24.8529 
N23320 G01 X53.2405 Y24.8818 
N23330 G01 X54.7094 Y24.8818 
N23340 G01 X54.8547 Y24.8529 
N23350 G01 X54.9915 Y24.7963 
N23360 G01 X55.1147 Y24.7140 
N23370 G01 X55.2194 Y24.6093 
N23380 G01 X55.3017 Y24.4861 
N23390 G01 X55.3583 Y24.3493 
N23400 G01 X55.3872 Y24.2040 
N23410 G01 X55.3872 Y24.0559 
N23420 G01 X55.3583 Y23.9107 
N23430 G01 X55.3017 Y23.7739 
N23440 G01 X55.2194 Y23.6507 
N23450 G01 X55.1147 Y23.5460 
N23460 G01 X54.9915 Y23.4637 
N23470 G01 X54.8547 Y23.4071 
N23480 G01 X54.7094 Y23.3782 
N23490 G01 X53.2405 Y23.3782 
N23500 G01 X53.0953 Y23.4071 
N23510 G01 X52.9585 Y23.4637 
N23520 G01 X52.8353 Y23.5460 
N23530 G01 X52.7306 Y23.6507 
N23540 G01 X52.6483 Y23.7739 
N23550 G01 X52.5917 Y23.9107 
N23560 G01 X52.5628 Y24.0559 
N23570 G01 X52.5628 Y24.2040 
N23580 G01 X52.5917 Y24.3493 
N23590 G01 X52.6483 Y24.4861 
N23600 G01 X52.7306 Y24.6093 
N23610 G01 X52.8353 Y24.7140 
N23620 G00 Z3.0000 
N23630 G00 X52.8353 Y22.1740 
N23640 G01 Z-0.1000 F254.00 
N23650 G01 X52.9585 Y22.2563 F508.00 
N23660 G01 X53.0953 Y22.3129 
N23670 G01 X53.2405 Y22.3418 
N23680 G01 X54.7094 Y22.3418 
N23690 G01 X54.8547 Y22.3129 
N23700 G01 X54.9915 Y22.2563 
N23710 G01 X55.1147 Y22.1740 
N23720 G01 X55.2194 Y22.0693 
N23730 G01 X55.3017 Y21.9461 
N23740 G01 X55.3583 Y21.8093 
N23750 G01 X55.3872 Y21.6640 
N23760 G01 X55.3872 Y21.5159 
N23770 G01 X55.3583 Y21.3707 
N23780 G01 X55.3017 Y21.2339 
N23790 G01 X55.2194 Y21.1107 
N23800 G01 X55.1147 Y21.0060 
N23810 G01 X54.9915 Y20.9237 
N23820 G01 X54.8547 Y20.8671 
N23830 G01 X54.7094 Y20.8382 
N23840 G01 X53.2405 Y20.8382 
N23850 G01 X53.0953 Y20.8671 
N23860 G01 X52.9585 Y20.9237 
N23870 G01 X52.8353 Y21.0060 
N23880 G01 X52.7306 Y21.1107 
N23890 G01 X52.6483 Y21.2339 
N23900 G01 X52.5917 Y21.3707 
N23910 G01 X52.5628 Y21.5159 
N23920 G01 X52.5628 Y21.6640 
N23930 G01 X52.5917 Y21.8093 
N23940 G01 X52.6483 Y21.9461 
N23950 G01 X52.7306 Y22.0693 
N23960 G01 X52.8353 Y22.1740 
N23970 G00 Z3.0000 
N23980 G00 X47.5994 Y22.0693 
N23990 G01 Z-0.1000 F254.00 
N24000 G01 X47.6817 Y21.9461 F508.00 
N24010 G01 X47.7383 Y21.8093 
N24020 G01 X47.7672 Y21.6640 
N24030 G01 X47.7672 Y21.5159 
N24040 G01 X47.7383 Y21.3707 
N24050 G01 X47.6817 Y21.2339 
N24060 G01 X47.5994 Y21.1107 
N24070 G01 X47.4947 Y21.0060 
N24080 G01 X47.3715 Y20.9237 
N24090 G01 X47.2347 Y20.8671 
N24100 G01 X47.0894 Y20.8382 
N24110 G01 X45.6205 Y20.8382 
N24120 G01 X45.4753 Y20.8671 
N24130 G01 X45.3385 Y20.9237 
N24140 G01 X45.2153 Y21.0060 
N24150 G01 X45.1106 Y21.1107 
N24160 G01 X45.0283 Y21.2339 
N24170 G01 X44.9717 Y21.3707 
N24180 G01 X44.9428 Y21.5159 
N24190 G01 X44.9428 Y21.6640 
N24200 G01 X44.9717 Y21.8093 
N24210 G01 X45.0283 Y21.9461 
N24220 G01 X45.1106 Y22.0693 
N24230 G01 X45.2153 Y22.1740 
N24240 G01 X45.3385 Y22.2563 
N24250 G01 X45.4753 Y22.3129 
N24260 G01 X45.6205 Y22.3418 
N24270 G01 X47.0894 Y22.3418 
N24280 G01 X47.2347 Y22.3129 
N24290 G01 X47.3715 Y22.2563 
N24300 G01 X47.4947 Y22.1740 
N24310 G01 X47.5994 Y22.0693 
N24320 G00 Z3.0000 
N24330 G00 X47.4947 Y23.5460 
N24340 G01 Z-0.1000 F254.00 
N24350 G01 X47.3715 Y23.4637 F508.00 
N24360 G01 X47.2347 Y23.4071 
N24370 G01 X47.0894 Y23.3782 
N24380 G01 X45.6205 Y23.3782 
N24390 G01 X45.4753 Y23.4071 
N24400 G01 X45.3385 Y23.4637 
N24410 G01 X45.2153 Y23.5460 
N24420 G01 X45.1106 Y23.6507 
N24430 G01 X45.0283 Y23.7739 
N24440 G01 X44.9717 Y23.9107 
N24450 G01 X44.9428 Y24.0559 
N24460 G01 X44.9428 Y24.2040 
N24470 G01 X44.9717 Y24.3493 
N24480 G01 X45.0283 Y24.4861 
N24490 G01 X45.1106 Y24.6093 
N24500 G01 X45.2153 Y24.7140 
N24510 G01 X45.3385 Y24.7963 
N24520 G01 X45.4753 Y24.8529 
N24530 G01 X45.6205 Y24.8818 
N24540 G01 X47.0894 Y24.8818 
N24550 G01 X47.2347 Y24.8529 
N24560 G01 X47.3715 Y24.7963 
N24570 G01 X47.4947 Y24.7140 
N24580 G01 X47.5994 Y24.6093 
N24590 G01 X47.6817 Y24.4861 
N24600 G01 X47.7383 Y24.3493 
N24610 G01 X47.7672 Y24.2040 
N24620 G01 X47.7672 Y24.0559 
N24630 G01 X47.7383 Y23.9107 
N24640 G01 X47.6817 Y23.7739 
N24650 G01 X47.5994 Y23.6507 
N24660 G01 X47.4947 Y23.5460 
N24670 G00 Z3.0000 
N24680 G00 X47.4947 Y26.0860 
N24690 G01 Z-0.1000 F254.00 
N24700 G01 X47.3715 Y26.0037 F508.00 
N24710 G01 X47.2347 Y25.9471 
N24720 G01 X47.0894 Y25.9182 
N24730 G01 X45.6205 Y25.9182 
N24740 G01 X45.4753 Y25.9471 
N24750 G01 X45.3385 Y26.0037 
N24760 G01 X45.2153 Y26.0860 
N24770 G01 X45.1106 Y26.1907 
N24780 G01 X45.0283 Y26.3139 
N24790 G01 X44.9717 Y26.4507 
N24800 G01 X44.9428 Y26.5959 
N24810 G01 X44.9428 Y26.7441 
N24820 G01 X44.9717 Y26.8893 
N24830 G01 X45.0283 Y27.0261 
N24840 G01 X45.1106 Y27.1493 
N24850 G01 X45.2153 Y27.2540 
N24860 G01 X45.3385 Y27.3363 
N24870 G01 X45.4753 Y27.3929 
N24880 G01 X45.6205 Y27.4218 
N24890 G01 X47.0894 Y27.4218 
N24900 G01 X47.2347 Y27.3929 
N24910 G01 X47.3715 Y27.3363 
N24920 G01 X47.4947 Y27.2540 
N24930 G01 X47.5994 Y27.1493 
N24940 G01 X47.6817 Y27.0261 
N24950 G01 X47.7383 Y26.8893 
N24960 G01 X47.7672 Y26.7441 
N24970 G01 X47.7672 Y26.5959 
N24980 G01 X47.7383 Y26.4507 
N24990 G01 X47.6817 Y26.3139 
N25000 G01 X47.5994 Y26.1907 
N25010 G01 X47.4947 Y26.0860 
N25020 G00 Z3.0000 
N25030 G00 X49.7326 Y12.4739 
N25040 G01 Z-0.1000 F254.00 
N25050 G01 X50.5974 Y12.4739 F508.00 
N25060 G01 X51.2089 Y11.8624 
N25070 G01 X51.2089 Y10.9976 
N25080 G01 X50.5974 Y10.3861 
N25090 G01 X49.7326 Y10.3861 
N25100 G01 X49.1211 Y10.9976 
N25110 G01 X49.1211 Y11.8624 
N25120 G01 X49.7326 Y12.4739 
N25130 G00 Z3.0000 
N25140 G00 X41.3110 Y67.9171 
N25150 G01 Z-0.1000 F254.00 
N25160 G01 X41.1713 Y67.8237 F508.00 
N25170 G01 X41.0159 Y67.7594 
N25180 G01 X40.8511 Y67.7266 
N25190 G01 X39.1589 Y67.7266 
N25200 G01 X38.9941 Y67.7594 
N25210 G01 X38.8387 Y67.8237 
N25220 G01 X38.6990 Y67.9171 
N25230 G01 X38.5801 Y68.0360 
N25240 G01 X38.4867 Y68.1757 
N25250 G01 X38.4224 Y68.3311 
N25260 G01 X38.3896 Y68.4959 
N25270 G01 X38.3896 Y68.6641 
N25280 G01 X38.4224 Y68.8289 
N25290 G01 X38.4867 Y68.9843 
N25300 G01 X38.5801 Y69.1240 
N25310 G01 X38.6990 Y69.2429 
N25320 G01 X38.8387 Y69.3363 
N25330 G01 X38.9941 Y69.4006 
N25340 G01 X39.1589 Y69.4334 
N25350 G01 X40.8511 Y69.4334 
N25360 G01 X41.0159 Y69.4006 
N25370 G01 X41.1713 Y69.3363 
N25380 G01 X41.3110 Y69.2429 
N25390 G01 X41.4299 Y69.1240 
N25400 G01 X41.5233 Y68.9843 
N25410 G01 X41.5876 Y68.8289 
N25420 G01 X41.6204 Y68.6641 
N25430 G01 X41.6204 Y68.4959 
N25440 G01 X41.5876 Y68.3311 
N25450 G01 X41.5233 Y68.1757 
N25460 G01 X41.4299 Y68.0360 
N25470 G01 X41.3110 Y67.9171 
N25480 G00 Z3.0000 
N25490 G00 X32.1589 Y70.6876 
N25500 G01 Z-0.1000 F254.00 
N25510 G01 X31.5474 Y70.0761 F508.00 
N25520 G01 X30.6826 Y70.0761 
N25530 G01 X30.0711 Y70.6876 
N25540 G01 X30.0711 Y71.5524 
N25550 G01 X30.6826 Y72.1639 
N25560 G01 X31.5474 Y72.1639 
N25570 G01 X32.1589 Y71.5524 
N25580 G01 X32.1589 Y70.6876 
N25590 G00 Z3.0000 
N25600 G00 X32.8524 Y74.5975 
N25610 G01 Z-0.1000 F254.00 
N25620 G01 X32.8524 Y75.2625 F508.00 
N25630 G01 X33.3225 Y75.7326 
N25640 G01 X33.9875 Y75.7326 
N25650 G01 X34.4576 Y75.2625 
N25660 G01 X34.4576 Y74.5975 
N25670 G01 X33.9875 Y74.1274 
N25680 G01 X33.3225 Y74.1274 
N25690 G01 X32.8524 Y74.5975 
N25700 G00 Z3.0000 
N25710 G00 X24.5389 Y71.5524 
N25720 G01 Z-0.1000 F254.00 
N25730 G01 X24.5389 Y70.6876 F508.00 
N25740 G01 X23.9274 Y70.0761 
N25750 G01 X23.0626 Y70.0761 
N25760 G01 X22.4511 Y70.6876 
N25770 G01 X22.4511 Y71.5524 
N25780 G01 X23.0626 Y72.1639 
N25790 G01 X23.9274 Y72.1639 
N25800 G01 X24.5389 Y71.5524 
N25810 G00 Z3.0000 
N25820 G00 X19.2176 Y74.5975 
N25830 G01 Z-0.1000 F254.00 
N25840 G01 X18.7475 Y74.1274 F508.00 
N25850 G01 X18.0825 Y74.1274 
N25860 G01 X17.6124 Y74.5975 
N25870 G01 X17.6124 Y75.2625 
N25880 G01 X18.0825 Y75.7326 
N25890 G01 X18.7475 Y75.7326 
N25900 G01 X19.2176 Y75.2625 
N25910 G01 X19.2176 Y74.5975 
N25920 G00 Z3.0000 
N25930 G00 X19.2176 Y66.3725 
N25940 G01 Z-0.1000 F254.00 
N25950 G01 X19.2176 Y65.7075 F508.00 
N25960 G01 X18.7475 Y65.2374 
N25970 G01 X18.0825 Y65.2374 
N25980 G01 X17.6124 Y65.7075 
N25990 G01 X17.6124 Y66.3725 
N26000 G01 X18.0825 Y66.8426 
N26010 G01 X18.7475 Y66.8426 
N26020 G01 X19.2176 Y66.3725 
N26030 G00 Z3.0000 
N26040 G00 X19.2176 Y57.4825 
N26050 G01 Z-0.1000 F254.00 
N26060 G01 X19.2176 Y56.8175 F508.00 
N26070 G01 X18.7475 Y56.3474 
N26080 G01 X18.0825 Y56.3474 
N26090 G01 X17.6124 Y56.8175 
N26100 G01 X17.6124 Y57.4825 
N26110 G01 X18.0825 Y57.9526 
N26120 G01 X18.7475 Y57.9526 
N26130 G01 X19.2176 Y57.4825 
N00000 G00 Z3.0000 
N00010 G00 X11.1354 Y14.8549 
N00020 G01 Z-0.1000 F254.00 
N00030 G01 X11.1354 Y15.6251 F508.00 
N00040 G01 X11.6799 Y16.1696 
N00050 G01 X12.4501 Y16.1696 
N00060 G01 X12.9946 Y15.6251 
N00070 G01 X12.9946 Y14.8549 
N00080 G01 X12.4501 Y14.3104 
N00090 G01 X11.6799 Y14.3104 
N00100 G01 X11.1354 Y14.8549 
N00110 G00 Z3.0000 
N00120 G00 X11.1354 Y22.4749 
N00130 G01 Z-0.1000 F254.00 
N00140 G01 X11.1354 Y23.2451 F508.00 
N00150 G01 X11.6799 Y23.7896 
N00160 G01 X12.4501 Y23.7896 
N00170 G01 X12.9946 Y23.2451 
N00180 G01 X12.9946 Y22.4749 
N00190 G01 X12.4501 Y21.9304 
N00200 G01 X11.6799 Y21.9304 
N00210 G01 X11.1354 Y22.4749 
N00220 G00 Z3.0000 
N00230 G00 X11.1354 Y30.0949 
N00240 G01 Z-0.1000 F254.00 
N00250 G01 X11.1354 Y30.8651 F508.00 
N00260 G01 X11.6799 Y31.4096 
N00270 G01 X12.4501 Y31.4096 
N00280 G01 X12.9946 Y30.8651 
N00290 G01 X12.9946 Y30.0949 
N00300 G01 X12.4501 Y29.5504 
N00310 G01 X11.6799 Y29.5504 
N00320 G01 X11.1354 Y30.0949 
N00330 G00 Z3.0000 
N00340 G00 X12.0116 Y42.5531 
N00350 G01 Z-0.1000 F254.00 
N00360 G01 X11.9784 Y42.6333 F508.00 
N00370 G01 X11.9784 Y43.7266 
N00380 G01 X12.0116 Y43.8069 
N00390 G01 X12.0731 Y43.8684 
N00400 G01 X12.1533 Y43.9016 
N00410 G01 X13.2467 Y43.9016 
N00420 G01 X13.3269 Y43.8684 
N00430 G01 X13.3884 Y43.8069 
N00440 G01 X13.4216 Y43.7266 
N00450 G01 X13.4216 Y43.6016 
N00460 G01 X27.2184 Y43.6016 
N00470 G01 X27.2184 Y43.7266 
N00480 G01 X27.2516 Y43.8069 
N00490 G01 X27.3131 Y43.8684 
N00500 G01 X27.3933 Y43.9016 
N00510 G01 X28.4867 Y43.9016 
N00520 G01 X28.5669 Y43.8684 
N00530 G01 X28.6284 Y43.8069 
N00540 G01 X28.6616 Y43.7266 
N00550 G01 X28.6616 Y42.6333 
N00560 G01 X28.6284 Y42.5531 
N00570 G01 X28.5669 Y42.4916 
N00580 G01 X28.4867 Y42.4584 
N00590 G01 X27.3933 Y42.4584 
N00600 G01 X27.3131 Y42.4916 
N00610 G01 X27.2516 Y42.5531 
N00620 G01 X27.2184 Y42.6333 
N00630 G01 X27.2184 Y42.7584 
N00640 G01 X13.4216 Y42.7584 
N00650 G01 X13.4216 Y42.6333 
N00660 G01 X13.3884 Y42.5531 
N00670 G01 X13.3269 Y42.4916 
N00680 G01 X13.2467 Y42.4584 
N00690 G01 X12.1533 Y42.4584 
N00700 G01 X12.0731 Y42.4916 
N00710 G01 X12.0116 Y42.5531 
N00720 G00 Z3.0000 
N00730 G00 X29.7916 Y42.5531 
N00740 G01 Z-0.1000 F254.00 
N00750 G01 X29.7584 Y42.6333 F508.00 
N00760 G01 X29.7584 Y43.7266 
N00770 G01 X29.7916 Y43.8069 
N00780 G01 X29.8531 Y43.8684 
N00790 G01 X29.9333 Y43.9016 
N00800 G01 X31.0267 Y43.9016 
N00810 G01 X31.1069 Y43.8684 
N00820 G01 X31.1684 Y43.8069 
N00830 G01 X31.2016 Y43.7266 
N00840 G01 X31.2016 Y43.6016 
N00850 G01 X44.9984 Y43.6016 
N00860 G01 X44.9984 Y43.7266 
N00870 G01 X45.0316 Y43.8069 
N00880 G01 X45.0931 Y43.8684 
N00890 G01 X45.1733 Y43.9016 
N00900 G01 X46.2666 Y43.9016 
N00910 G01 X46.3469 Y43.8684 
N00920 G01 X46.4084 Y43.8069 
N00930 G01 X46.4416 Y43.7266 
N00940 G01 X46.4416 Y42.6333 
N00950 G01 X46.4084 Y42.5531 
N00960 G01 X46.3469 Y42.4916 
N00970 G01 X46.2666 Y42.4584 
N00980 G01 X45.1733 Y42.4584 
N00990 G01 X45.0931 Y42.4916 
N01000 G01 X45.0316 Y42.5531 
N01010 G01 X44.9984 Y42.6333 
N01020 G01 X44.9984 Y42.7584 
N01030 G01 X31.2016 Y42.7584 
N01040 G01 X31.2016 Y42.6333 
N01050 G01 X31.1684 Y42.5531 
N01060 G01 X31.1069 Y42.4916 
N01070 G01 X31.0267 Y42.4584 
N01080 G01 X29.9333 Y42.4584 
N01090 G01 X29.8531 Y42.4916 
N01100 G01 X29.7916 Y42.5531 
N01110 G00 Z3.0000 
N01120 G00 X29.9441 Y52.8550 
N01130 G01 Z-0.1000 F254.00 
N01140 G01 X29.9441 Y53.8250 F508.00 
N01150 G01 X30.6300 Y54.5109 
N01160 G01 X31.6000 Y54.5109 
N01170 G01 X32.2859 Y53.8250 
N01180 G01 X32.2859 Y52.8550 
N01190 G01 X31.6000 Y52.1691 
N01200 G01 X30.6300 Y52.1691 
N01210 G01 X29.9441 Y52.8550 
N01220 G00 Z3.0000 
N01230 G00 X24.6659 Y52.8550 
N01240 G01 Z-0.1000 F254.00 
N01250 G01 X23.9800 Y52.1691 F508.00 
N01260 G01 X23.0100 Y52.1691 
N01270 G01 X22.3241 Y52.8550 
N01280 G01 X22.3241 Y53.8250 
N01290 G01 X23.0100 Y54.5109 
N01300 G01 X23.9800 Y54.5109 
N01310 G01 X24.6659 Y53.8250 
N01320 G01 X24.6659 Y52.8550 
N01330 G00 Z3.0000 
N01340 G00 X24.6659 Y61.7450 
N01350 G01 Z-0.1000 F254.00 
N01360 G01 X23.9800 Y61.0591 F508.00 
N01370 G01 X23.0100 Y61.0591 
N01380 G01 X22.3241 Y61.7450 
N01390 G01 X22.3241 Y62.7150 
N01400 G01 X23.0100 Y63.4009 
N01410 G01 X23.9800 Y63.4009 
N01420 G01 X24.6659 Y62.7150 
N01430 G01 X24.6659 Y61.7450 
N01440 G00 Z3.0000 
N01450 G00 X29.9441 Y61.7450 
N01460 G01 Z-0.1000 F254.00 
N01470 G01 X29.9441 Y62.7150 F508.00 
N01480 G01 X30.6300 Y63.4009 
N01490 G01 X31.6000 Y63.4009 
N01500 G01 X32.2859 Y62.7150 
N01510 G01 X32.2859 Y61.7450 
N01520 G01 X31.6000 Y61.0591 
N01530 G01 X30.6300 Y61.0591 
N01540 G01 X29.9441 Y61.7450 
N01550 G00 Z3.0000 
N01560 G00 X32.7254 Y65.6549 
N01570 G01 Z-0.1000 F254.00 
N01580 G01 X32.7254 Y66.4251 F508.00 
N01590 G01 X33.2699 Y66.9696 
N01600 G01 X34.0401 Y66.9696 
N01610 G01 X34.5846 Y66.4251 
N01620 G01 X34.5846 Y65.6549 
N01630 G01 X34.0401 Y65.1104 
N01640 G01 X33.2699 Y65.1104 
N01650 G01 X32.7254 Y65.6549 
N01660 G00 Z3.0000 
N01670 G00 X32.2859 Y70.6350 
N01680 G01 Z-0.1000 F254.00 
N01690 G01 X31.6000 Y69.9491 F508.00 
N01700 G01 X30.6300 Y69.9491 
N01710 G01 X29.9441 Y70.6350 
N01720 G01 X29.9441 Y71.6050 
N01730 G01 X30.6300 Y72.2909 
N01740 G01 X31.6000 Y72.2909 
N01750 G01 X32.2859 Y71.6050 
N01760 G01 X32.2859 Y70.6350 
N01770 G00 Z3.0000 
N01780 G00 X32.7254 Y74.5449 
N01790 G01 Z-0.1000 F254.00 
N01800 G01 X32.7254 Y75.3151 F508.00 
N01810 G01 X33.2699 Y75.8596 
N01820 G01 X34.0401 Y75.8596 
N01830 G01 X34.5846 Y75.3151 
N01840 G01 X34.5846 Y74.5449 
N01850 G01 X34.0401 Y74.0004 
N01860 G01 X33.2699 Y74.0004 
N01870 G01 X32.7254 Y74.5449 
N01880 G00 Z3.0000 
N01890 G00 X24.6659 Y71.6050 
N01900 G01 Z-0.1000 F254.00 
N01910 G01 X24.6659 Y70.6350 F508.00 
N01920 G01 X23.9800 Y69.9491 
N01930 G01 X23.0100 Y69.9491 
N01940 G01 X22.3241 Y70.6350 
N01950 G01 X22.3241 Y71.6050 
N01960 G01 X23.0100 Y72.2909 
N01970 G01 X23.9800 Y72.2909 
N01980 G01 X24.6659 Y71.6050 
N01990 G00 Z3.0000 
N02000 G00 X19.3446 Y74.5449 
N02010 G01 Z-0.1000 F254.00 
N02020 G01 X18.8001 Y74.0004 F508.00 
N02030 G01 X18.0299 Y74.0004 
N02040 G01 X17.4854 Y74.5449 
N02050 G01 X17.4854 Y75.3151 
N02060 G01 X18.0299 Y75.8596 
N02070 G01 X18.8001 Y75.8596 
N02080 G01 X19.3446 Y75.3151 
N02090 G01 X19.3446 Y74.5449 
N02100 G00 Z3.0000 
N02110 G00 X19.3446 Y66.4251 
N02120 G01 Z-0.1000 F254.00 
N02130 G01 X19.3446 Y65.6549 F508.00 
N02140 G01 X18.8001 Y65.1104 
N02150 G01 X18.0299 Y65.1104 
N02160 G01 X17.4854 Y65.6549 
N02170 G01 X17.4854 Y66.4251 
N02180 G01 X18.0299 Y66.9696 
N02190 G01 X18.8001 Y66.9696 
N02200 G01 X19.3446 Y66.4251 
N02210 G00 Z3.0000 
N02220 G00 X19.3446 Y57.5351 
N02230 G01 Z-0.1000 F254.00 
N02240 G01 X19.3446 Y56.7649 F508.00 
N02250 G01 X18.8001 Y56.2204 
N02260 G01 X18.0299 Y56.2204 
N02270 G01 X17.4854 Y56.7649 
N02280 G01 X17.4854 Y57.5351 
N02290 G01 X18.0299 Y58.0796 
N02300 G01 X18.8001 Y58.0796 
N02310 G01 X19.3446 Y57.5351 
N02320 G00 Z3.0000 
N02330 G00 X32.7254 Y57.5351 
N02340 G01 Z-0.1000 F254.00 
N02350 G01 X33.2699 Y58.0796 F508.00 
N02360 G01 X34.0401 Y58.0796 
N02370 G01 X34.5846 Y57.5351 
N02380 G01 X34.5846 Y56.7649 
N02390 G01 X34.0401 Y56.2204 
N02400 G01 X33.2699 Y56.2204 
N02410 G01 X32.7254 Y56.7649 
N02420 G01 X32.7254 Y57.5351 
N02430 G00 Z3.0000 
N02440 G00 X38.4814 Y57.7950 
N02450 G01 Z-0.1000 F254.00 
N02460 G01 X38.3741 Y57.9556 F508.00 
N02470 G01 X38.3002 Y58.1340 
N02480 G01 X38.2626 Y58.3234 
N02490 G01 X38.2626 Y58.5166 
N02500 G01 X38.3002 Y58.7060 
N02510 G01 X38.3741 Y58.8844 
N02520 G01 X38.4814 Y59.0450 
N02530 G01 X38.6180 Y59.1816 
N02540 G01 X38.7786 Y59.2889 
N02550 G01 X38.9570 Y59.3628 
N02560 G01 X39.1464 Y59.4004 
N02570 G01 X40.8636 Y59.4004 
N02580 G01 X41.0530 Y59.3628 
N02590 G01 X41.2314 Y59.2889 
N02600 G01 X41.3920 Y59.1816 
N02610 G01 X41.5286 Y59.0450 
N02620 G01 X41.6359 Y58.8844 
N02630 G01 X41.7098 Y58.7060 
N02640 G01 X41.7474 Y58.5166 
N02650 G01 X41.7474 Y58.3234 
N02660 G01 X41.7098 Y58.1340 
N02670 G01 X41.6359 Y57.9556 
N02680 G01 X41.5286 Y57.7950 
N02690 G01 X41.3920 Y57.6584 
N02700 G01 X41.2314 Y57.5511 
N02710 G01 X41.0530 Y57.4772 
N02720 G01 X40.8636 Y57.4396 
N02730 G01 X39.1464 Y57.4396 
N02740 G01 X38.9570 Y57.4772 
N02750 G01 X38.7786 Y57.5511 
N02760 G01 X38.6180 Y57.6584 
N02770 G01 X38.4814 Y57.7950 
N02780 G00 Z3.0000 
N02790 G00 X38.4814 Y60.3350 
N02800 G01 Z-0.1000 F254.00 
N02810 G01 X38.3741 Y60.4956 F508.00 
N02820 G01 X38.3002 Y60.6740 
N02830 G01 X38.2626 Y60.8634 
N02840 G01 X38.2626 Y61.0566 
N02850 G01 X38.3002 Y61.2460 
N02860 G01 X38.3741 Y61.4244 
N02870 G01 X38.4814 Y61.5850 
N02880 G01 X38.6180 Y61.7216 
N02890 G01 X38.7786 Y61.8289 
N02900 G01 X38.9570 Y61.9028 
N02910 G01 X39.1464 Y61.9404 
N02920 G01 X40.8636 Y61.9404 
N02930 G01 X41.0530 Y61.9028 
N02940 G01 X41.2314 Y61.8289 
N02950 G01 X41.3920 Y61.7216 
N02960 G01 X41.5286 Y61.5850 
N02970 G01 X41.6359 Y61.4244 
N02980 G01 X41.7098 Y61.2460 
N02990 G01 X41.7474 Y61.0566 
N03000 G01 X41.7474 Y60.8634 
N03010 G01 X41.7098 Y60.6740 
N03020 G01 X41.6359 Y60.4956 
N03030 G01 X41.5286 Y60.3350 
N03040 G01 X41.3920 Y60.1984 
N03050 G01 X41.2314 Y60.0911 
N03060 G01 X41.0530 Y60.0172 
N03070 G01 X40.8636 Y59.9796 
N03080 G01 X39.1464 Y59.9796 
N03090 G01 X38.9570 Y60.0172 
N03100 G01 X38.7786 Y60.0911 
N03110 G01 X38.6180 Y60.1984 
N03120 G01 X38.4814 Y60.3350 
N03130 G00 Z3.0000 
N03140 G00 X38.4814 Y62.8750 
N03150 G01 Z-0.1000 F254.00 
N03160 G01 X38.3741 Y63.0356 F508.00 
N03170 G01 X38.3002 Y63.2140 
N03180 G01 X38.2626 Y63.4034 
N03190 G01 X38.2626 Y63.5966 
N03200 G01 X38.3002 Y63.7860 
N03210 G01 X38.3741 Y63.9644 
N03220 G01 X38.4814 Y64.1250 
N03230 G01 X38.6180 Y64.2616 
N03240 G01 X38.7786 Y64.3689 
N03250 G01 X38.9570 Y64.4428 
N03260 G01 X39.1464 Y64.4804 
N03270 G01 X40.8636 Y64.4804 
N03280 G01 X41.0530 Y64.4428 
N03290 G01 X41.2314 Y64.3689 
N03300 G01 X41.3920 Y64.2616 
N03310 G01 X41.5286 Y64.1250 
N03320 G01 X41.6359 Y63.9644 
N03330 G01 X41.7098 Y63.7860 
N03340 G01 X41.7474 Y63.5966 
N03350 G01 X41.7474 Y63.4034 
N03360 G01 X41.7098 Y63.2140 
N03370 G01 X41.6359 Y63.0356 
N03380 G01 X41.5286 Y62.8750 
N03390 G01 X41.3920 Y62.7384 
N03400 G01 X41.2314 Y62.6311 
N03410 G01 X41.0530 Y62.5572 
N03420 G01 X40.8636 Y62.5196 
N03430 G01 X39.1464 Y62.5196 
N03440 G01 X38.9570 Y62.5572 
N03450 G01 X38.7786 Y62.6311 
N03460 G01 X38.6180 Y62.7384 
N03470 G01 X38.4814 Y62.8750 
N03480 G00 Z3.0000 
N03490 G00 X38.4814 Y65.4150 
N03500 G01 Z-0.1000 F254.00 
N03510 G01 X38.3741 Y65.5756 F508.00 
N03520 G01 X38.3002 Y65.7540 
N03530 G01 X38.2626 Y65.9434 
N03540 G01 X38.2626 Y66.1366 
N03550 G01 X38.3002 Y66.3260 
N03560 G01 X38.3741 Y66.5044 
N03570 G01 X38.4814 Y66.6650 
N03580 G01 X38.6180 Y66.8016 
N03590 G01 X38.7786 Y66.9089 
N03600 G01 X38.9570 Y66.9828 
N03610 G01 X39.1464 Y67.0204 
N03620 G01 X40.8636 Y67.0204 
N03630 G01 X41.0530 Y66.9828 
N03640 G01 X41.2314 Y66.9089 
N03650 G01 X41.3920 Y66.8016 
N03660 G01 X41.5286 Y66.6650 
N03670 G01 X41.6359 Y66.5044 
N03680 G01 X41.7098 Y66.3260 
N03690 G01 X41.7474 Y66.1366 
N03700 G01 X41.7474 Y65.9434 
N03710 G01 X41.7098 Y65.7540 
N03720 G01 X41.6359 Y65.5756 
N03730 G01 X41.5286 Y65.4150 
N03740 G01 X41.3920 Y65.2784 
N03750 G01 X41.2314 Y65.1711 
N03760 G01 X41.0530 Y65.0972 
N03770 G01 X40.8636 Y65.0596 
N03780 G01 X39.1464 Y65.0596 
N03790 G01 X38.9570 Y65.0972 
N03800 G01 X38.7786 Y65.1711 
N03810 G01 X38.6180 Y65.2784 
N03820 G01 X38.4814 Y65.4150 
N03830 G00 Z3.0000 
N03840 G00 X38.4814 Y67.9550 
N03850 G01 Z-0.1000 F254.00 
N03860 G01 X38.3741 Y68.1156 F508.00 
N03870 G01 X38.3002 Y68.2940 
N03880 G01 X38.2626 Y68.4834 
N03890 G01 X38.2626 Y68.6766 
N03900 G01 X38.3002 Y68.8660 
N03910 G01 X38.3741 Y69.0444 
N03920 G01 X38.4814 Y69.2050 
N03930 G01 X38.6180 Y69.3416 
N03940 G01 X38.7786 Y69.4489 
N03950 G01 X38.9570 Y69.5228 
N03960 G01 X39.1464 Y69.5604 
N03970 G01 X40.8636 Y69.5604 
N03980 G01 X41.0530 Y69.5228 
N03990 G01 X41.2314 Y69.4489 
N04000 G01 X41.3920 Y69.3416 
N04010 G01 X41.5286 Y69.2050 
N04020 G01 X41.6359 Y69.0444 
N04030 G01 X41.7098 Y68.8660 
N04040 G01 X41.7474 Y68.6766 
N04050 G01 X41.7474 Y68.4834 
N04060 G01 X41.7098 Y68.2940 
N04070 G01 X41.6359 Y68.1156 
N04080 G01 X41.5286 Y67.9550 
N04090 G01 X41.3920 Y67.8184 
N04100 G01 X41.2314 Y67.7111 
N04110 G01 X41.0530 Y67.6372 
N04120 G01 X40.8636 Y67.5996 
N04130 G01 X39.1464 Y67.5996 
N04140 G01 X38.9570 Y67.6372 
N04150 G01 X38.7786 Y67.7111 
N04160 G01 X38.6180 Y67.8184 
N04170 G01 X38.4814 Y67.9550 
N04180 G00 Z3.0000 
N04190 G00 X42.5531 Y66.7284 
N04200 G01 Z-0.1000 F254.00 
N04210 G01 X42.6333 Y66.7616 F508.00 
N04220 G01 X43.7266 Y66.7616 
N04230 G01 X43.8069 Y66.7284 
N04240 G01 X43.8684 Y66.6669 
N04250 G01 X43.9016 Y66.5867 
N04260 G01 X43.9016 Y65.4933 
N04270 G01 X43.8684 Y65.4131 
N04280 G01 X43.8069 Y65.3516 
N04290 G01 X43.7266 Y65.3184 
N04300 G01 X43.6016 Y65.3184 
N04310 G01 X43.6016 Y51.5216 
N04320 G01 X43.7266 Y51.5216 
N04330 G01 X43.8069 Y51.4884 
N04340 G01 X43.8684 Y51.4269 
N04350 G01 X43.9016 Y51.3466 
N04360 G01 X43.9016 Y50.2533 
N04370 G01 X43.8684 Y50.1731 
N04380 G01 X43.8069 Y50.1116 
N04390 G01 X43.7266 Y50.0784 
N04400 G01 X42.6333 Y50.0784 
N04410 G01 X42.5531 Y50.1116 
N04420 G01 X42.4916 Y50.1731 
N04430 G01 X42.4584 Y50.2533 
N04440 G01 X42.4584 Y51.3466 
N04450 G01 X42.4916 Y51.4269 
N04460 G01 X42.5531 Y51.4884 
N04470 G01 X42.6333 Y51.5216 
N04480 G01 X42.7584 Y51.5216 
N04490 G01 X42.7584 Y65.3184 
N04500 G01 X42.6333 Y65.3184 
N04510 G01 X42.5531 Y65.3516 
N04520 G01 X42.4916 Y65.4131 
N04530 G01 X42.4584 Y65.4933 
N04540 G01 X42.4584 Y66.5867 
N04550 G01 X42.4916 Y66.6669 
N04560 G01 X42.5531 Y66.7284 
N04570 G00 Z3.0000 
N04580 G00 X45.1344 Y61.6426 
N04590 G01 Z-0.1000 F254.00 
N04600 G01 X45.2783 Y61.7388 F508.00 
N04610 G01 X45.4382 Y61.8051 
N04620 G01 X45.6080 Y61.8388 
N04630 G01 X47.1020 Y61.8388 
N04640 G01 X47.2717 Y61.8051 
N04650 G01 X47.4317 Y61.7388 
N04660 G01 X47.5756 Y61.6426 
N04670 G01 X47.6980 Y61.5202 
N04680 G01 X47.7942 Y61.3763 
N04690 G01 X47.8605 Y61.2163 
N04700 G01 X47.8942 Y61.0466 
N04710 G01 X47.8942 Y60.8734 
N04720 G01 X47.8605 Y60.7037 
N04730 G01 X47.7942 Y60.5437 
N04740 G01 X47.6980 Y60.3998 
N04750 G01 X47.5756 Y60.2774 
N04760 G01 X47.4317 Y60.1812 
N04770 G01 X47.2717 Y60.1149 
N04780 G01 X47.1020 Y60.0812 
N04790 G01 X45.6080 Y60.0812 
N04800 G01 X45.4382 Y60.1149 
N04810 G01 X45.2783 Y60.1812 
N04820 G01 X45.1344 Y60.2774 
N04830 G01 X45.0120 Y60.3998 
N04840 G01 X44.9158 Y60.5437 
N04850 G01 X44.8495 Y60.7037 
N04860 G01 X44.8158 Y60.8734 
N04870 G01 X44.8158 Y61.0466 
N04880 G01 X44.8495 Y61.2163 
N04890 G01 X44.9158 Y61.3763 
N04900 G01 X45.0120 Y61.5202 
N04910 G01 X45.1344 Y61.6426 
N04920 G00 Z3.0000 
N04930 G00 X45.1344 Y59.1026 
N04940 G01 Z-0.1000 F254.00 
N04950 G01 X45.2783 Y59.1988 F508.00 
N04960 G01 X45.4382 Y59.2651 
N04970 G01 X45.6080 Y59.2988 
N04980 G01 X47.1020 Y59.2988 
N04990 G01 X47.2717 Y59.2651 
N05000 G01 X47.4317 Y59.1988 
N05010 G01 X47.5756 Y59.1026 
N05020 G01 X47.6980 Y58.9802 
N05030 G01 X47.7942 Y58.8363 
N05040 G01 X47.8605 Y58.6763 
N05050 G01 X47.8942 Y58.5066 
N05060 G01 X47.8942 Y58.3334 
N05070 G01 X47.8605 Y58.1636 
N05080 G01 X47.7942 Y58.0037 
N05090 G01 X47.6980 Y57.8598 
N05100 G01 X47.5756 Y57.7374 
N05110 G01 X47.4317 Y57.6412 
N05120 G01 X47.2717 Y57.5749 
N05130 G01 X47.1020 Y57.5412 
N05140 G01 X45.6080 Y57.5412 
N05150 G01 X45.4382 Y57.5749 
N05160 G01 X45.2783 Y57.6412 
N05170 G01 X45.1344 Y57.7374 
N05180 G01 X45.0120 Y57.8598 
N05190 G01 X44.9158 Y58.0037 
N05200 G01 X44.8495 Y58.1636 
N05210 G01 X44.8158 Y58.3334 
N05220 G01 X44.8158 Y58.5066 
N05230 G01 X44.8495 Y58.6763 
N05240 G01 X44.9158 Y58.8363 
N05250 G01 X45.0120 Y58.9802 
N05260 G01 X45.1344 Y59.1026 
N05270 G00 Z3.0000 
N05280 G00 X45.1344 Y56.5626 
N05290 G01 Z-0.1000 F254.00 
N05300 G01 X45.2783 Y56.6588 F508.00 
N05310 G01 X45.4382 Y56.7251 
N05320 G01 X45.6080 Y56.7588 
N05330 G01 X47.1020 Y56.7588 
N05340 G01 X47.2717 Y56.7251 
N05350 G01 X47.4317 Y56.6588 
N05360 G01 X47.5756 Y56.5626 
N05370 G01 X47.6980 Y56.4402 
N05380 G01 X47.7942 Y56.2963 
N05390 G01 X47.8605 Y56.1363 
N05400 G01 X47.8942 Y55.9666 
N05410 G01 X47.8942 Y55.7934 
N05420 G01 X47.8605 Y55.6236 
N05430 G01 X47.7942 Y55.4637 
N05440 G01 X47.6980 Y55.3198 
N05450 G01 X47.5756 Y55.1974 
N05460 G01 X47.4317 Y55.1012 
N05470 G01 X47.2717 Y55.0349 
N05480 G01 X47.1020 Y55.0012 
N05490 G01 X45.6080 Y55.0012 
N05500 G01 X45.4382 Y55.0349 
N05510 G01 X45.2783 Y55.1012 
N05520 G01 X45.1344 Y55.1974 
N05530 G01 X45.0120 Y55.3198 
N05540 G01 X44.9158 Y55.4637 
N05550 G01 X44.8495 Y55.6236 
N05560 G01 X44.8158 Y55.7934 
N05570 G01 X44.8158 Y55.9666 
N05580 G01 X44.8495 Y56.1363 
N05590 G01 X44.9158 Y56.2963 
N05600 G01 X45.0120 Y56.4402 
N05610 G01 X45.1344 Y56.5626 
N05620 G00 Z3.0000 
N05630 G00 X45.1344 Y54.0226 
N05640 G01 Z-0.1000 F254.00 
N05650 G01 X45.2783 Y54.1188 F508.00 
N05660 G01 X45.4382 Y54.1851 
N05670 G01 X45.6080 Y54.2188 
N05680 G01 X47.1020 Y54.2188 
N05690 G01 X47.2717 Y54.1851 
N05700 G01 X47.4317 Y54.1188 
N05710 G01 X47.5756 Y54.0226 
N05720 G01 X47.6980 Y53.9002 
N05730 G01 X47.7942 Y53.7563 
N05740 G01 X47.8605 Y53.5963 
N05750 G01 X47.8942 Y53.4266 
N05760 G01 X47.8942 Y53.2534 
N05770 G01 X47.8605 Y53.0836 
N05780 G01 X47.7942 Y52.9237 
N05790 G01 X47.6980 Y52.7798 
N05800 G01 X47.5756 Y52.6574 
N05810 G01 X47.4317 Y52.5612 
N05820 G01 X47.2717 Y52.4949 
N05830 G01 X47.1020 Y52.4612 
N05840 G01 X45.6080 Y52.4612 
N05850 G01 X45.4382 Y52.4949 
N05860 G01 X45.2783 Y52.5612 
N05870 G01 X45.1344 Y52.6574 
N05880 G01 X45.0120 Y52.7798 
N05890 G01 X44.9158 Y52.9237 
N05900 G01 X44.8495 Y53.0836 
N05910 G01 X44.8158 Y53.2534 
N05920 G01 X44.8158 Y53.4266 
N05930 G01 X44.8495 Y53.5963 
N05940 G01 X44.9158 Y53.7563 
N05950 G01 X45.0120 Y53.9002 
N05960 G01 X45.1344 Y54.0226 
N05970 G00 Z3.0000 
N05980 G00 X45.1344 Y51.4826 
N05990 G01 Z-0.1000 F254.00 
N06000 G01 X45.2783 Y51.5788 F508.00 
N06010 G01 X45.4382 Y51.6451 
N06020 G01 X45.6080 Y51.6788 
N06030 G01 X47.1020 Y51.6788 
N06040 G01 X47.2717 Y51.6451 
N06050 G01 X47.4317 Y51.5788 
N06060 G01 X47.5756 Y51.4826 
N06070 G01 X47.6980 Y51.3602 
N06080 G01 X47.7942 Y51.2163 
N06090 G01 X47.8605 Y51.0563 
N06100 G01 X47.8942 Y50.8866 
N06110 G01 X47.8942 Y50.7134 
N06120 G01 X47.8605 Y50.5436 
N06130 G01 X47.7942 Y50.3837 
N06140 G01 X47.6980 Y50.2398 
N06150 G01 X47.5756 Y50.1174 
N06160 G01 X47.4317 Y50.0212 
N06170 G01 X47.2717 Y49.9549 
N06180 G01 X47.1020 Y49.9212 
N06190 G01 X45.6080 Y49.9212 
N06200 G01 X45.4382 Y49.9549 
N06210 G01 X45.2783 Y50.0212 
N06220 G01 X45.1344 Y50.1174 
N06230 G01 X45.0120 Y50.2398 
N06240 G01 X44.9158 Y50.3837 
N06250 G01 X44.8495 Y50.5436 
N06260 G01 X44.8158 Y50.7134 
N06270 G01 X44.8158 Y50.8866 
